-----BEGIN PGP MESSAGE-----

jA0ECQMKGsLoVM/rlQj/0uoBPxx5O5RtjFSeEmk0NimEOeyMtezTdBhBPKwWLVOx
rr1RRZmzMiusyddJs9qwOKypDs+dGcZUZC6TwSeCIDyQWNh31rJuQi+dB6LjpAn0
BWYjs81EoydeelYfky36GhMmTOsFIi+Xe6oCd3bhHQob355hvD+kgUY++/JisarY
dQCYFj+k9L4wjoTXQyWMqrA38o7Q7LCjjAVZ2LbLdAXKO3FTPrVp+GyCcicZtsZq
OytWdMParAJmM6sqQkqkMrMm1ZD4omzuGSIzIEO3me9WVDvM1US5brdvVllAdgTb
9WGuw+UWxVKqmavSvFjL518Hx5z2PkvT9df4C+PYednf6sAD6hCtFE9WERSRVGcg
8y1ZlcosBY9tokaWiWpIO/GrWJz/i8ytb7Iy+7ffnWdZ157WnchMRfETYPyowa/y
B/YugmRsmSh5m6sow0WRjmxnL9Fg88i4Iu9tXcI+h+xLHKRWTeSl6IB5qTWZ0InQ
6nFoCxa/NufVlvVU/NpQzls6yyehOr+ex7ovxMewj6fd90M3UJe4HrLqXwPiTWy4
5cWJAFdneol8I1bJfufERzNUYY+kWINnbJ/P0KNvv1FPdSYcrhVI4BKWmBroW79r
tWmJ9yxTfsN+N9Tk3zRHl7MOqqLDIamKRV+y5WIP9z+NLJXDuj2LlTTOL6jrO4xr
K2bnE1h3L4ceyk3IHAxuhRyr2K9rsn9/CYbglOvxYMhi0Cwu7YD5N280+gaqrTaS
Hy5YQz5pJNwbwENeA68vd0tPNzOFREoAFWou84/qZP6BbkHZakbCLez9UHu/ipuT
N7i6rbuAhLvhjWnNjsZoQ4iwY+wFpzT35gUeNfXhgXh04cacVM5bm6XRFUyCg/fZ
u0RkV5UlPug3GOzacztwpEFLY4YALlBNwbUbCov2ooJfnKXGB2al+Erfc1977lTE
kMaR0ZHlfXLQVh9qSo7L1xbXyevDUp7yirUVO9wUlNxyVkZMePoUZW8n7T3X2d52
rL+B+Fshm0HdOHjIR3DXf3YP4vR4o7f4qpQXzue9XfdPfr9QZZdeCqoZKb04u9Iu
5zwJ9lPkb2Kffr021sFhDzqhSxROqiBx6wuu8BIdJ9EhWGc4x2W6hEixgSKAW30s
Kha4eU2wy/gBH7HZxl3ycF1qa66XAl97lxfjr+3FmQ9suyjb4QCS7e7MrwWsrWfB
mL77lcTmKY2gR1m+ku+dOC9D3nE3v/nylYR040hjNFaUqZzJorjAgMpgVvqTjrYL
FtxNc1ZQVpQykZA/mBq+CefYQtppmfTvgbKbbCXr76wlAtKssqp0J/jayP1+jCcL
02tlKOX5VIEUc4TdNRrBQG4Ns1LPMFu4M8Zui2WeiOvX6qGqSmlUly7gl/ichmCs
CqNIcitudjfLXL4FP2Z4+95YhQ6/LdZWsc7KCrPFut9qk8L6U0IAhi6hP7r9aUWT
zvaMcW0mS3wOHjttf42IA+kpI0DPCA4VSlf393ngkb97TDDi8sg9dYkiSYs88yjT
A5sdPa2o8isd8fss1SV1l7Vl0pVR31HByMRBUQXDiz4dQhdokcWRQzCVyuVW7IJh
SZvt0mL4dqGA1XKS18dkKBRdEDITfjJ+Sa2g5Atgp6uyxzU0C7yHS71tq1sypvwG
R5T4CKT2FyUbX6TjpFa+YsBvVM1T7rJlUbWRs/AHErSyJnr9dU9LWGx/BPS0uTJN
MagqZN96umbzEgzqSqItALk7t+lkX9oeKw5ocT0ltqlKwaD+geMwoDoXrQbnJsri
JINj8jRMGSqqkFvSX309vpGZFk8sY8WbrldqsqezIOInEES4ejxG3Pf+3JQvqqed
ZC6HEPiSIdMS9BCkWgVJT4YBvAKwhgklVbuKQViujFsSsaH2qn0B10gtTjYwEw4S
Zb87rJbEh8ziOC3iCRAi0MRPE5/aSFrpZs/79CAHnrRO8iKIuneObA0YzJB3CQii
RS2YTk2qITTRhE1UVL7+YwJXGKwwUUW1cN4fjUacQoV5jWDQBDudtXxFLTxP6s3q
zKBdx1uCEBYDyV69PG6aaNu8SF/8r9DLKoW0wdHMpxP1bgAq+sjnkgNbHEanOpcw
spbJZ+x7PL6RpD4A4YZoNa170kUNRgDtroHV1cELYIMRNKc+EgjjcBR7Gmgo+myI
mKZ6gqiuy/hTu2iMICsOxBtpAz+gPmn9ek1HjuZh9QHe6LyyA1oiC8/wep+TtL21
cOMQQ/HfELWRe/+AYyK2zj6lVVpeTPEP7OuNImAMQs6BIjMldrsjjAeJY+m08bJJ
V8R5CULgRQQOXFVez22a61qRq4Ip41xKUaJp+2OIwa8MpRZ7iIUKjp6yNyan4WjF
wdU54VOK6qxjnikffbrZvMzwys4FCHalL39oliPWAT0crrmodRIu0/Uf10m/wBbB
isyXLflAzKf1Gl7qBmIzCOxOjjmGcGFGECYp9w+ysm62YvsT2vK0WOBct+LtDXoD
11/1JkObC+vWdJV/Vdz+vYRZ+jwXUoW6NvGzFpaF1dtbPZehUw/jSSpCzqBHy6a1
/D49bi0r2TmntoEEnpFTmTpjeH937WQt2Cq/gcfogjPEJHQjEEM7MIGUtdxZgZtf
d2zo34hl7rTItIqYZETpbfTE0sl6jzhMuyOhDnayHQLCYp7MDxJ8oXQPm3N0b2RH
eGisqcTf3gbCTXg3avPr+mkt9zfZKYH1g7KYzvN2JyRjJ3xY4SWGKiw8pLL196nu
tm7s1EMnOGzfBddmYc20GsPSYxqItC74u9MPBpMgd1PtDIkSjozQvnA8TDd/WCX/
vPyivO8sji1c487Rui+3R36fpnhMlzvA90b8EnW1e+OSTvkDCZ4rGeN2gmH2M9cj
8HwJHhyKE42dzlH44LSa6lySvfDrdbW4lAv+qLMmaaCW+GIinMt8Sz6RC4IIMZDT
Q5kimKA7HgtQXfIMjV9B2orG0RE70p/wHdnvVOP7CSlgnVWsaDNXRkCdE9ubEfrl
LEupGotF5/e6Rc9hFpx0n8xdcBXRCaohHdew0xvIh1250D+j4gsXbYy8sfP7IClb
DVEFxbL6TIVUg8vBiHVhb8OlIUx2yWC9moJHTCJ3fXpMpwkx5w0JUlaXyGyeKjpk
y68SNKsVZHAtqiLQpkeCa4vGS9gRMtg7ydYQ3cbj82g1zt93jgyViUNO6JjrQcYg
qeh7emt09sJjMQ3q5oWEdTXp67O4yLzAJnWEKBQR3K8iTSYnOrjcpoyUSTc+32fa
GrdUj6BZ5ViW/GMj7K1WpfC9OaZ3lqpIkZp12F0KqUF/muqh8gSArDHJCHcUYbOa
g8M9bu13xv1+3ZKIP1yrlFeui8vGkC+LErgBDJba7Ob23MhnNHpPhiYhACeg5hGx
GIjs2iklLTJI5osJHpGX4mf58kKkYxruk6VNqdevxCbYEP/hnWPlOC/ttRVwqHlu
v7bi9RNKB/uKtRVuYQg0Q+7y3yNI4QV1kRnSvQhOviw5fG5ektqTtQZAIOT/V4aI
rRUHWktQ1AaNJ+rQT7TYbUYHrrx1aG8nWW2VoLedEiuHl1YGfrs0B0sYHFSzs+sB
O366IGK99JYf9bFSuQ+8jnQXpjfdwOK800gaVYFLREHMh/Q3hB7rD0ib7FyJx+nA
XLZ1IVlgVwvRN5i5QkwsIQ6jpBe7ymITtF1Z6c21+E6+3B4U3DKaM3V5/OgrIMVu
DZ3NFUG3HUjrZ2jnTW9tdo4qex1vWcsirfAxu3s/pJqC+JobR/kWccvxeFpBr+P9
bTdarYxPLDavdtUJvUD0yzZM3QAZHw4jSvu0u5Df9CBNHk9DQolkV+Jw8aG4GEYv
cOZPinft+7dhDsA3cIUsesEAhkR+BvDofP1hjDAnPWtCIrzGPP+b0lP99Vu49vdL
qH9FONtAjpf4C7dPRpLEWMglHOe5cpgBRc9dNXc2C2gb73in0K7D9beh6ZaKMpfI
nGEXYV9kvO3yObRjt54R0DXGplhi36S4Qgy8dIVoOb9W+lBGuGOxPUDU8/KMXuuy
prO4lB9T7RaXZdVj9qnXGDnbMXF7/CljOcZKJxQ77y0jS2wNRavnwq9dp7DXEV/B
97JP06dEKY57U7QfKS+pfmLphBah2eYvDoCt8XZamZpmVPZAqOcYQVRuac4p/kOc
DiG4AITymNuFxDJHjC2L1bhv3jvNoSHRGzm4CgKejvN53XKJ3GMb+ce+t9SiFAuI
gduOpQusQTJZGHAk/w9TpmBenMUDb69IBg+GTgMQ/98KbBAgDyA1oNQrLM6qGS5U
xJdx9LI2Fv5gXTd1QbR/qc4G8kGkZOmOP/GYZ0Fc92mB3yB6s7iMO1Mmlx2LqsW6
SebKE4RYqbhAj7PvMrbc9mJuGlkpF5k1L2Xj0Da3kopyP9/tx7lRbYPiC6nC49dg
iZEKGDu4EfcVBEOV76r4WoR4h5WHuUVTTiRH3NXOby/moSIY/goBTdkW4b8HPpqU
HrZguQI6xa+j78UvFzrXoFLRZV8BkALcSEx3cnmodXs0RekcAfzJAYDWz4Ab9Elq
YNjUjRVmvnEI/YuSpVOHsFsuqEwRAsD/sbFodztCxdGAYXm2At0CgPhJ5wpwy1+j
cqrfN1fDFydFHEat3IuMVrFCvcyXTTpz3n/IELi7frDZX3QBtBonYU1TguiMkW/P
J5d3RoqJWFtU0yx4DpeKYnzZjnrGLk2llV3SuiN9z5Q8kTtYi3m17rL8sMOV8w29
VZu2FxYubeLx54fPrXIukW5v8Jf9Sh69w0rA5UCYVtP3VzZdOuFVMkZoFvv7Z6I/
linNRJCO/sb9w43kAkD77O31dZrWEs0AZcJ75UDZWuAjNvX4Pg+Qjm92IjoTFpSL
Wh/J7gp89ijt8JnsRPV3H+cgck/C0cSsaYBXSJNJv7c9TRPjSenrHvfLhy80l7L0
1Eo4vrVxIo0SHC1sPM6XXVJn6rWo/Twhf6SLn/ffN6XGwxYoNarJb0yZQ95Vkh0x
7spEMidOfnsqHthn4xB+w/eSHJ6FuhAb/UDWh02icFFm3M1+cBWmEaeVJddejnXy
mpk4qgo6TSUfoaJXn8KNCpVK5thfThrhfaYfY8E/7PjKH0vI4YuMMnIqpExx2dvz
B49Aq9B+mMjOEn+SzNV6TNh+EdmZjUmwRHffw40e34CHmjySGh6lBIVCv0n0g5UO
ZJjg0Z49DGfJ/Lpuj5OQK4QxrGH1RxDMuboqYGV/CbTLZyZNOBzRmkgQMqK/1S0C
BHyy/q9Sa7ua4PSd55RCE3ouVxF1KIAdfO836RM01IWUbp9IER5FyMmpV+EtQNeF
D+wqlfYIuzPdwyQTfRlxXwUgjU6dhbIeBrnhjO6XiYDPodhHr/kmeWGWipBwzAyW
H1TDvqMk6oqdGoKs8bfOHEqVcehRxCecS7Xiw07qRTQIN6QFX+YdaZSBPri69tyC
VZFfG7dIRw96wf+CHdvLKN0NdNPjhnYAsR7WjMnp0EJxlri8pgPGF+q4xCSY15fh
oBGZn2SxWF8lq106QGZM8EqR3dUbfgIcecLXtSNYaJ0e3fXHJfK5xi3cfgevibi4
azIZ8tnzRn+Q1UBrp4LSBUuXh4EykZV+F4QEhY4MVlDVFcqXBHVwQ7Ti7wEKtYb0
/kxZj1EAkw5mtuLMuTIxobHkEuObeR4I0HOuH1uGSq1lYGtg/OdBiCNFF6KFkcO1
W2V2gZ/g5UGBm/JOFIPNrnIwAJqX90qNpwWr5b61+FZJAP1K2exKp6PZD8OzFov6
t6ZV3/4caHPgp4mvYQF8iYonxaK92NdSL6YuZjf04rxzTeu/Npmlhmkz/PQ5L9q2
yucnAITCL98+4nomviZr/bMje5zSgUEIM4myPhtSbCSuU5DPV06pRdNld/cp6OoN
NkHFycwdWrV221ypI3ldVMvZeZ4fiA8ijQB3+0UI9mNLp2p7Vx04iuvG02/aEsGN
mJDRSr8oSqIkRjqInDjiSiI0qp78egXqqV6ZdooEjTRyZOlYOmWvN2DqVqF7yEpe
VyJVwQRlc+6KQgfssiSMX0T5l4f0etPIw6sVRlHn3ItPIqXI5XlnhK4JrsuZZwOr
h2zVMli5zFViaWm0kIrG4EvB88ikQI1ZJudOKxgKlpf1ekJOcKqmZSs2B4EtsBk4
UTF8H2Z0f89+94NYc6mBy3GQbgBbZz/hbiKTkxoZUUAj+2Yq6azrOMK5U6obT5nE
q+2YgHp0F/s3NzyLk+JXDQcX+sJh9sLVYomtZvP7KyfgyJLU5udRW4h4ZbgFI7S0
47MGM2rgzUPPsunVpsAzZfMfFhy7tnccmtO0mZI3MlY6iUjxK1P+pUyndsGGrsdj
tamBXjHtfugITn5SHPRFJvlMP4sg+/yjp86bj03ZV+RJNmQasqhMmR8YVBnAy6y0
UIEA2NmTuRleET74ayhtKTND2MKzYtFOCA26sB2ZO3eyfWQYVFXO8bOaww7GGxKg
ZmFvEMUcwDQMiwAAZgd1N8LmGvvKsNsyUGbaUUOJKJXBGBhbfc+RaAKeE+ZnFnPo
Ir1+qF4J5Ys0XsB2wQoGFIWRaCJIewKjXXynoAYyReDpwGmxwoXbg0qUEa92bOD0
yQNLsvXNkYLORbXoR0irFQ4Y6QsTEx51qqp5+rhrYYRLtzCMCYLuXGLmRpepmZuP
cTUdV92i17NKXLYF4qiKUE84KAuCMtmUBPdsMBOsoyjeAXkzj8aAbg97NguZlue5
NR4oCWMTjC6S7UwCg0NtG5z7hZzLjelMLPB5eOX/eFHAqTRA3dJcTJ4eEfGL9jaC
fHaWdSwg6Jw2Kxp8whleT2bekFOCe8kseIZ4mMaBIZ1ZpPj6BLH1XpNModkH0UUE
kNklRISWXX37wx+O/HsAf5X+MI3rq+e0m10dg6xXBTkbENkWz1rs0qyIDmLtHDa/
pc3vA7LIptLPf1kJ3koZZyHeDFFEq2rVSnTlZinGRMG7AaOM9z9+oyojDkbBCd+0
04rDBvCLMEkBWkpPyhHcN62BEQdCmwAN+74aZbwNRZMykQJ2QvztHxmuSgjE6vBe
vYs2YKTQBMDoQ1P2rhf9+elUWqOaJi+nUiBftxEbjWPWE6G+rakxESfjWV6IVGNH
9c5tKSyv8V3jXFU3JBpwkethveEMO7vMLRCy9T9mhuTwVDDvkH3yECiqnHHdaDIh
AUleiowMHZ3Ds1e0OUId1QAccOpOntJwgifuA0TGhFSUNl/jeKt1IMwC86VYfW6M
zxrUkvtKPKbcB9EaqM3R4FgF/sl/KmnJ1aNpKFEI/BHeb+WZ8+9iezMOgzo3FWJi
NPB02Io9D4ty60NWGDFQU2Ah/YL5QSzawboiNecoA9rA5DSgfmyCEUIGnzdBL10X
LK8UP6Ch9iXmqV/RDDWMwYJrN4JmmAlSR/69lUJ3//yia9ejYpB4JIH+y6m1xczb
kvPYu8nkf6Pc4gffc/Pcby6b0lG2bOi75MkYAN6M1kJFNe8M+tVYj5nxjlr7vVCS
SrC3wIJ5thAqGW/v6PMafa0e2BBKgmyx1MFjKu3qgsYhDFE76nkcmXocZD61wMih
bluutMZN3qNAxTvT+H5PpCGXeI4PnoLm2TRu3xClK1tI62o7KDKGeG7zLFGPL8L/
3KLXDjKWVLPTljrmcCD0I7kCkyec6/sPK6njJLTeRYLqwW7NdE0gJfli7m3niTEj
E0zePQZ4jH5AW7dyb8Pn58YxMbLoAX2H7R59XKnlm8Y/SVEH/J941YW0LlIK1ivt
SFdgqDvWjybS3BO28q5/KDDWUOHJtNszvbi1taBM5CspuYLaWelq1BFpJ+bJ38h/
AIID+XXZOw7HPNW6s1aqgrWUbH6K6lJ2/WqV1Jjpe8ZWJoriA4todBDZyQI3WuYd
fIGi2CT+fD0jjy7tqNgBTLao9tDD0Wpd3S9Qd8Hy1e/T8dapYvbP/KrBVeF5aCYW
JReQqq41UTLhIBmKapx4piCbWZi4y5dT0D0EHozPh4PDATiLCEXaAN+jagCKsgQ1
IcUYaeQel1d2H4kM4SD204lUN6NJ3Xz+7IwAPX0HRHhN+4UnJv7vL62CQrj5TkIc
jBuyQJcp2s5lfjHq6ef+TZSvSekUOylQoG22mQNsoI9Tt0dhnzP3ci/ZpismMjdU
p1CMk9wtmet5XaqCvNXzGL4I80zmdGXnUHCuRdwbiP9RAjX5M6N9a9c6VLgLoigq
kGnwjcMgX4bghb/0XfmTShXK6evCk6rHZt0o9NO/F28RyzkM7pDiMYZ3A62RqaVR
apKfIIPsZa4lGMOLpTp4uWzHfI5qfBZIy23udtXQs9wv+dvOCCPgsv6kx5nTOe3s
OntEr9xr149hvJP830IluDxg5l4n3sGArd9ElYfXW3lR58KZ1T7bQf6C2npioALJ
8/CPsVBp8o64qGsl76Bqfaxf0vPzULttJkT6E+Xgi/Tx2cQk1v4sXYnFwtB/yDqI
/7LeNLzQH8urVIrUPXPSVNzPS6yJGWRuQmEMNDS7vE8FWW9TF9fJ764NAP+BJ19C
oDy4T6vxY23clmxhoSyF8lXFlC5UouGgWfvTEpJ5yKijQdgCYpc2XcBPw2tDXovw
FA2+WDoD3SIu8PpZJPcaZ5RSC4au8l5jY1YDUN8RFekXZ8McwdhzpBDj9laR2nYz
bN/X0Oz57twjGidm9tUW7XKzaUmEO0+hAtoiQLRu2IR1HnszC1N9Hr7JOHx8fmF9
jtJnQzkfv//mBFShmKLyv8QptOnkWXMytQ5nI3TQuYja7bo+uYSSOceOVTHT5nee
TsktTYBgOComzLjlfund6BePpGChntfGxz8xSj5XCD0nBktMX5REN5QsmzA+B7zi
8tNlzssBc57UDkWZlTAPw+1h1XWd/Soppc5Cc244FKhm0Z9O6K/nuQ3+gHY6Ik5U
XmEb3dIZozvqqBC9ScO3xnjg4qXrxZfyNyGMk5zuDU0jGK7pQaSsgN9lpNqKUYhI
q2WWEc/sabqJfa383Fguoz0Z80pzFHRxMStVjgB5L5J7GojFNWBiz8ZVQ9ZjxXU2
bGGtIVC7HVgrp5EsI3Ji3RjV3o3hDC942tbL/XZJy7YvDTO9vaij0ZGt8BYDENyt
6FmV0SGCZx44lAs6YpIdZsShRrJA1f5B211ePP86kiKcJFkiXSOv2g/vAFXu7KJL
NDKuCf1yPbQzSvBQeOa0F92Jb7cRTgG1jvde41oFdhrvnpZCgszptNd444Lo4Qst
5kRQHRWudjjvokoQmnQVIR9+esy5c9IWjvqQ2Tl/agM91/448FqiE/RGuNeAZWST
8H3sKGB8qsbh1Y3vBwXBXvHdLJaS3PHMSwMTKFIs5nTGRAn/bo2+qI7kNrrO+pf1
xD/Yj2SV98n9oTtDo1bWdVmvnE1EPo2ZxUbMV7yAcTs6X8dCysKAws+LdrsClNbM
c2TzOtrtqks58fGV+KqackqGrF1x+yZpQiGnDA8rRZnvuyCBnbY2vc0oHwHJdCRT
alPWcpN78Ii5X0a/Abo0MgVjQRkdczIBQS2rCJCD/RLK5p/phIQY7DYFzXoBsBnz
Wmnwks1XYABaQvwT6X9kODPhn8UhdYMA3tKEt3PM5Lg5fuY2U6igy1oagTn660hk
K0iwdJsapL0ZC99vaH+70tjXTRtoK4wWLJxv1hBH6ACeAcUG5ltsnP+AkR/Ks/ho
e/RPVsZzbpuFDIZzD/gIjqfz3xlE/E+AauXcUOEA+lRswsoBs8lxMICWJkSFlQCT
+YJfNQjbe0aRDJn8q2Tg+akVdj06DivSJ3jiIsbHVAqYazsio7QFNu2g0+y+GGDF
77KAg3Re9W33zNy/RlXpMPWy0tl3THhxMiXpOtYzbc96ptgx5+6D7JSOc1Bie6ey
FzQB03ojTolv6RMlYZgotFtKRbphTPywXYFq9UXsc6lJ6gIuV1x106ZNcYUloQqg
MS+UE1+TCsFVak9bImmaQvAal3qo5YSGz1cocLUQjjYBPWaIB4PzH/u7trIBName
FtEkJXEcuIRp59nyWRoZwUVqBglWRnQYlf53Szm5HbW+rSI+QMYf5Nh+zwpMRjt+
XUlKA/6McxnXlQ9w2hfvcfss3/wJ3JL15z4QiZXUt+C4IWGg32+qL+Wjl+NIINh8
OjrgojiBUasC6UGA64OctiGWLNagy47IRiZ+3jC4rPF3LkTbWbojNH4Gz5pY3aXb
DLoNSdFjBgT6vc23pWZnFrEeXs0va2bTeHOEqXLwarUFtmTePRp0FR1/Vqo+EJ6v
uidqbuTSpES+P9T1LW1UDrvV5rJs8FoUmPFQhXtKIPBc2bTNyXaBOKNwoMhuLDa/
QenYHPKSeKpiMe2zau8CCX5nm7yY/3IFRcEc9mNfDX21MTIaFTiWAqlOibxcF5r4
8kwSSve5K6dl6yYvLwHejkUyZs5Zpv/cghN+H/0t88ya1XgFtjvFHkZ1E68+cFLX
ajHPwQWNl1nLHM8uhDymC+6Swk1j8mlDCKrfzx+8QpXPngCZo5AITqSrLpBTLHlq
xVTCtipLgl2QKIPpiabs7muC+5d1Xuce2xIXAE+muntc1u24wwsQABBd7hp3peKS
nkeh+runUwv0Dtw64X094w0y0s8z32MkNeMv7jNHYaZFz+1ed2C7ulFFhO7Fc+R+
cjpzJqTRggtVeiU4tTt19mvyESYJeXTYyeznh21fkU/pUXWJnDS1JmIZJLaWeoOF
/Q8zDVERlGTVutvPsizmEOKEmqlQpYLvi9vjv7/J6JIp5tEoK3V1frCfVVC/CGdZ
kKGgWtOcIoYu34H42ukKLTo4WOGcKHYiMfIF63QYl1QBdKKf9XCPMzvVS0BVTVgg
QM+3jZdSJBdhrmbQb0JlM/zYFoULCY45pxzPn/AtiOrKgMh92Z3K9v4wx/QXv3JZ
2b2DNjX7mbpcw7qjXp1Pff91RuflNcZqbme9gK+nFfgXkwpz3NQsOOZWG6Hy8fMe
Z02aYOrXsrYvKirBEjv30aYk8Jv6aM5BAjIlUo3bPNY22J3WIhAQbZb2niNq6Ley
Zn8TwZ81/LU4fmvSNpx3Lgb9s6uYDn/M7hZd29eq8RpEACwvo8nTyXpa4NYJAnwm
JwGe69eH7pHJejvuE0FOvBL4insWjtzVLPhQ02+aANbNZJ2xKA1OZEavuCGsNH5I
DqtkYnD+7UUM26J0oC/gH+l6fu5n8TRUUlCRBnH1duSUj4Ru79JdxC+86GCuZtFn
+KJwxFGJqIugCIJ9VFIpgm6716NrRlawbeftG5fOqc91Uoh5B+f70RzTZfjCXHRF
NXDDWMg64EIVrnozOEQfIiQIRsFThf1Sos2crqfuhDj5Li+25F6w0PIz6e6hi0HP
AjuQ0XokbWPS+0dHnjZ/oP5Nx/P7ULQSXgTnQBxcM1vfBpeIwH+TvEmsCAQp/i9K
+osApUljeQYE3E4CEnH84fhkM1BAwL4m9rlTEM87t9A0pJiSf2a2OFaxwD76wdWX
9N4JezI1HKifZgvIkltwDmu/lufRjmFgv7yV6qK2PEq69Hn7C67fI3Yr7VRtRZbz
u2ITLHYdjyCc06BSu9lpEEqxhUBmLC5oLoKnA2INju2/Nve/GdXXMWXGk8OwFjdu
xC3bE9ZzWmQDsemVU39Yl5uZpc5gShAu4ISFot83z6e8o0EZzHhI8EoLlYKI7JSp
KeBhCtNU7yuzNF8AM7L7uk/7pv+Jd7hYiLLv7WfhxVWo1zFf8h7BDkzRyLEqoGQ7
ZdlG41KH8EoLyUjhSI33s3aN8o/1DjzueR0igs4HHSCnnP/PxFuDkEsWmwTTgj/2
3v0fwsuk9btNWwUt71vFnbEuwR+KxmsLzcMErxIpbXV/g+QRRdpfpH8NjLO+XLRx
ghh0aqKC6yCx/gbmFgyy3c1vVPs8aBKhSaSuJi6dsaf45BBZYX9ndxl2h/KEv33w
O2FYnm7lhz3nKTr7RE5/rq308JC1RaPmkwM5alyCQQHyYYX/O8C2/G5dvQIYoVz5
VA6PpHPb2EOYVa/t2rSBCHz2pccm7m7H39ZjHo8u37ofewib6ek0WjEniOK0DW31
YXhpCR0pFjObWbAi0gS33+LrbjQM4WcYR0XpXPMhH9yjavp7YuhyTjDJnmnPBCaS
HQLhEptXzvhcXtSr7q1vEVtnvTzOyz2fy/S0CH8AMw2iDktQ9n0Gyycqq2bRcgjC
qSmeuWi0mX3SnckiuWcwAQyknEHIoJ2+rSPOLhg0CK36BeyVDi/3Ss8aTfDSPDpH
AUvJkqhmGxbDswEU3+Mm81cBvjUNVUnFkRwA3vVv0svQeAsY3HzTVIGp4VO6sJ/M
iIAUDDciAwcIuKDxMCAdyx34bHHb6jjgRKBa55SZiUdr+jKTsh64h9rUn4nGFEXB
YVxlOhUM5+sB5pICDmmsP4j9c9Rps6TT5JqNEq2AUlYtuEp1YtfWNkInjfpGlcXI
FeXxsmwFvPPeKWg8AuyD91Js6yF/bbuOMVtYlcQLm59HYHGjWo8n/yTow/zRF+0+
n0sm0xOVpDMMoAmzxJLibK8RHDtqv/8pdwvNhypngkqOwi9V5Yc0M8de5D7qw8sZ
MYqvTQi3kAgO/4gs+dAVhAuthc0/GNmZHqJqwLRo21xgq8Iq12UVEAh+/uqUQ1qA
eQlZrLF3pUvrBlDrDC7ewq8ZjCi05wIG/ym0ahZgbUKGP6qCC/gBHz8bYQ9hsAUK
UoG4ROVgI2idlwTe75EqEQuOKoFXjxn4v7znLbxpPxe6OJzjYq+X262FdPPkE9Na
hFxDEeI0Do2TWo3XFOblr8EhQdcBQ/JqzFcP8wcpeQh0BnCmpry1fwgkDxfTASQF
P+aOIVI4CLI2nPyGdzhr1/dgdIdLYy+apOS7J+3ISeTZoHdoqzPOasQyBo2HUYZg
HL2OCtzDSIe7RVJlKLPJG6Um4DMqDl2VFK439Ju7hcPicwFqxEMrm5zdSi37ZFdf
1xwEsWX3AB15xTPyeWo2kaehbM3l0KzofqwkW8qx+0uWqbCSvc1oY2sKCwLBnWMy
YFRmPCZShMXCCItEp2HBR5vILejIwFLq0ZhWZQ9JYVCVZYcqJkkJb4uPhJYGzrGR
Tbdtf+A56z7lPKkLga6lsZ8KuqgB8XBPTzEPYG+vSj7OYCKanztV27I1rjN37U8p
Qh94NrxRbrX8LI2zs6CwtkydFYjnTVgaZFqfgOY+zE9+GNXLJcJTLcCrihgv1T2c
AVfCZbJw/jYMpbrXGMTMHeTUqLuRoR+KeJQH8AfBCtzvgSDapdBv8avWsSssfoo5
16BnwYE5Q/CntFoYXdIajOJb12gIUUxJ1mLaeKXGaFk+Ws7xihBaCU8OutfBc9Vn
kG66JwugmVZa0fooqYpmbuvj9fRIPTLVmTz3ujm4MxpIYd8q5bC1G9ttLbjhQ7Gc
vXEzedE7TZJlq8GXYdjjKFp7Y32Miw2L0Go4tEUSjtf4p88uEroglPJkyxf9M60U
STkGXOmYCoMf+sWgitzTkeZ33t1WvkTwjtGemEC6BVimDeRTavwjCo/agrhSHWNy
oLyqiQSUsZz3iTYQEtgVh0kWo+wpHLx9ANSYT2p7mbpyfUgetnAxt0CmBjc21X/8
ZOTMeEDv/JA063aN+RZXc7GjDZD7Sp8ewF4bUpROfgzs5SR8hyCWy7NxrLmh/keh
oGMa9vod+QoMhYaCT1inaASFAQfGJ9364OSzsT+LH24CtYAU+XrsylIq4s//nk8H
a0KjY0StNO+m+CTi3F11jNkjFIXUqKAOoG/M5tqXVu1IevzZcYKYO9YN0eDFTLPM
re2RdMaLXxnVjs4MEeAoBATFfW3Vh1/QtQ+p4V4h1i4P/L5m53eKshYkRb2QOKLu
irBF01/qLkY+w0vTS1P0GXBKgHI5SRGrnSJDyj1YLrUJaOizAdKw8CvZW7Lc/Xk/
oN+uckqq02AS0hDAndo1JPbAhSYqeTpPIAan4gpWzFzuRbXPH5xGHX4tv/W1XmUw
yUSJHCxqNOFc5CQicIxB1ygOSu8lEgck2xJANJR9kJR5liemAx3pJSWF5W4u2Ihr
OOap2/67lFxRd5qokF2SymEJ5ckI8h701hTY4hdYKXBABjVyg+V0NbayQ6QSXc5z
bAoAlgwgsMXifMxTrY2URM5OXPRmtRNslMs+SFC6dXists2ceXREebC9YMt4KBJX
73hp0vwfVNUnMF/HH/lPRqH/rY83FkDpKR2XBi98PHYibmZaurUmvPAZT1buAO6f
yeCAUPorpQ5Gf0PSidymXkgmM/vcVl+ykcHudthRDqLiHQttFJ+AWmT990l++ewf
s1D9kV7SnqaljGYlCsES51ss1cCM3NwNVdTK3lryTJocySfYPz3L6XGb0g7vCBZi
iaM/s4ABg6XQXo93swmUBwBBaes1u7m4E6SG4zawqRxZjOYmHlPATGLyAI7PutBk
9AH4bstOCSNdd1qlpkdinAdicTt11nTvj3uDZP0dtrN2k1JIKquTg34Ml/zm7UGd
IqK9vc5tRFVbwHC2YLBpMz46EIUOKQ0+DOcnb2aCmBelNZJu13kU5HI+zNQgnE83
dKoV/am1ztH3bJeegbiGEatjIyuYOxTeP38KWLTOx/K1VBF4OTPVmfQZgBYJMJxP
8WwbPNcaLxhjQJNj8fO0ylnQ7jpwmNIQ7gI/C/hJJWiZ7IZY4QXGtaFqWzpweVWt
6VzmLkcrp/a1WwItjrYQqHxW8PAFAyvASbzEssY1kxC4UZ1LcyK8fgula3qbu4Ov
LzSQCc1x7PjRkviGCI/yybUWV31biS2O44j9k3gsSMLZkTxdSSPhxcF5zwiko6L4
SpneA4eKAogIpYU3ZeenTB4XZEcg63kJBesk0dZ1G0da67JGz3X3mgJF5maueCZN
yedBaQRakzvUn5QMfmKFwXqvuA6tjapAWqzBHI8dgHAnMbaVxP6vW621vUhB5ZLr
HJ4zuIt6ICer3WlYJ0xxCBz/5kOrwJ8xHLFm5Af9Tx4de1A3eDYyaMdvYyO8aiP3
Jhcy7KzbURDUAt2dXNltup2BarnxlQydKod8TYDcjpXws6PHBc3tRqBaBbarHhXP
0IG7FZigH3mvzzpVxkxbOdQncA0eBGuwNfCLnUa6dz1TCBap6rx72srHSjaGt8mh
YtxKEax1JTaULnJ9d4350gsnY2Y5Lu9alKgX+lNlrA42gD0A4s37mawBI7LHETRt
L5JXyHqbC5/blA+6yfnCYnVjrGKfmHBIrznE9aIC578x1SoaD9UvzmdNx+8y3X26
HHuwhYY7exlNdWfmSTtel2kDCL+YWsazOZ5OJyO2z2LmD52P2IUSty3SlN8JS87A
e7WoRdeAyYqsm7NOrr8M4eZP7njyUjXOA7dQB4G4IWDG9m9GwRJVF4vvvEKPjExD
su7Wnypcj2zheAucLgU6afBmlZ6Q3hm5iUMr1gzBFNwv9ZdZoVpvooptUmaaIaWt
k/oFhQc8cp1Ly3tmeN7+Em3vZC716oyHn6e3awthqSjvN/qn4ycBGPheDjy8Guqn
hcYUGt5gMI8g41fXKZX+/hbVhRH/ndTja3A2heTdFriNA79casQNufz8JgQfF/FF
zyhDvmJs6HgrvLRtyfrg+RqYk0MgRD3j4p908cgQS/CXywMLPyZcoBMK3ui9U8pD
jIcI0zomxV0FU4+6arnYEELCq0LY3G8plup/d/YehhmPnUolMfpZuajeuw4kHuL0
eIOlOUBGHdgUkGGSf5g08M0k7j7iC/F7SfsaqH2I1hVdjTLjX9B59qblTSK3P+07
bgsNigcr4gGJneUaxTa7Xb/FZFiq5z4/wDUn8PA/sr6TR7anvFJKv7xcc2glYQQP
dfZ7zEw8943H/alpLPSoCAhMf0Ipw3JjMmOrvH/sk3BDon4CEESu0nIDzJ1RPF8+
P1Y/vE6SP1u67nA9CAnquv52JSXtNilxttjKWuh8B05kwx8ViCWZPSwaRgm0z62y
KiLxHIONiwm5uCXZQ+qGtmstyK4Ag16+ozlv7EecpkWleSjrkpMMw9yoWUOslJgO
abWliK7pBHMEuNLaBpuZ2mGeKvDRC02+r+IbuTt/ZR6L/7zz53TjFsMjd7n3+1jF
x6BeId2erUPhaLqBZ2CpmgUHBfeRbUFAfXDIeYK8kKJDMpgf182aIEgPhmfzCnda
cCONFfdrqX7SYgkzhJhdEA0WFWnQIYBrQ6cBlznwJNVv0t6nIkwivFo6De4anvvy
k3rQwTbVVoNLGGcW1RZpIXmV6VWcgbG7pAJHAS5zimslaBDWZkeCUuH9LRsfm1mR
BUqsIAwHzdLa4aG/79M9x4EYPNIXbx7saiN7TZLmJRd6q30uULDDUto4osW79wBf
XLTWzF/bb7VlY1Xppp9V/HKPNEbcBfIOyLKRA1etkhLfmpNPMVTFGKhatFDCfJrG
DrA2bwEJHqzsKG44QBMH35ZMatu03t0Qtk2x2dsAhbJx0li97KoVcP5yIwe+x5au
ut9EM1IX0Qlqei8+PqFNYXpICK636AWTtdS6Us+J7oHYt8MtZ7hoG0CONW3Z4MQZ
qonA8V6E+RV7sAKnj6NgpJY8yxfQ76SkejFVApYyMVNke/mXE0f4ZgfSE1CJ0dtz
vjbjGVOy+0UidDv64+8Juwy0ga4gs3ysSup52nqyXs/0oet6tjGP3xxyjEkVss40
tnJ34JYsLc5Xc6i8ykHxfcPHRox8L+AMOPVE4naM7Vr8QtYUZIDK+JU2IVJ6+R/R
+mGZ9xG3vwaVZ+CubLbfujVpus7ZXd0FTVJmbW7MQm7SB81K+HvZSW39Q9Z0Avvo
ZFgiRw4STHui4Ktfl9sqmTjKo0olNEbeCUGIY1lPlcNEeu8d+wrBhBaQN1NsZzRs
WOZ3ZLrv6i4r11ULXMgDpcmmFSqBVi6rj6r8dinbYvIvTIYaZRxG8+o1uE4NhOcK
yYRfyiyrp5UQ3Xau19uP7DDc22d7hAHjFfHzOeOUAgKGTbzyPi1TevScpky1jYbs
w4KPBluiBvYVc3DUgqsBaAUl5jWdeCo2diYk7cdqJcE3fnhlpuOneO5xs/UIC3pd
NupnHgLFTEwki9F913kflDmnEGEqj8Ckyi/GM7K3kNRBQ1G3AL1NkzCqXWVFrIkh
i/chvDX2m3OLDZjAmRS5Bfj+Qw+w7lZxI93/k6p+IyeZHewpGUEtJ3C17Q24psiz
8yNNV0Jx91krE1Kfqwbo26i/xeHPc4H1ZOsGZAS+ue939fdWnczXHDPKAC2vB9oZ
eUmWa3gLBZKIcusFWTCq0/QaQWhSvpyV/gfp8auQmnl5r5Hd2pUAlE39nS2oxthw
nK6H+oesRp5EqiqWSqqUjM+E7d0MLcOPZL38+38IGLGUnbQdt1bbou05c3lPU/fw
hOJ/taAJUWt9n8v/Ee/Kcjo6DGr2UXeU/jP/+kCHBkyjkctwENVDmer92ZVq35gx
1/vsC19mhIyc9xKd7HM5/taxnroFpfQHEK3ZyUTpkpT2XSjQkp6DFuSBvlDh324R
uCoC2XR3hBTE2Ez6ca1spk0D0VkjyJWRoq2NIHM12I5r59tiQc7SWAGxm0chTqRa
G6AIZgwopDXsU1YVBnwELjEXLwf6+dKTU+MDfGBdRhh825Kix4x6LPPa+dPhkPEq
1Itkz5POODVoIn1P9c4EMiebPJBV2bRs9u+xOhizcX5BQ36RT+4Mf/r6ACy8nIce
LAUzSRGbkPrh6cM4z6DwRwpeqzdUOQa8wwSYhKXz7S123p0lkCq5qPGW0O6L/M8A
xwr5TbecRoyDAAhMfSJFEBGZIdk0PLAdMk/MvPy5jDzW0j2pIUGU70N+cYbQ16pU
hhuKNKfdbdQX6aT8y6vTpq67NIoAp+3qz83l8nHxea03FL2CDRTYdDViF7xn7q1q
/3c6FwR1t73ul1iuQMG5WhTCpyUeW7oV25lOdj2JerbCrK2wj2GR+ZUfqjlsV4KB
W98nJiKzVaequrMgJQ5T3fb5pN8e17FRhukwkVhJVI8LXaoaZKG9MGq1mfX0gFZZ
L5GJ2HJOigV2hG15y+Q5OCPC1VNtAYkFFvJY8fdx8l4lG2F5r7sVb4c+xhDmO482
Zu6hjYO+9LBAloAXp1rRhd60WCWCu8mBJI9DOaXX8qEYUjdbETOa0QAeRLaG168f
QnTQ+pvXfy4AeYfRHUGxjhLBxZkwO6AV9/f661RKqh5j7crAjoqlGcNLFo+MaytD
vEBiGQBnzoS/B2q0cgtSOohxCoH6GnXGzVOsob2tTJ0zzNXFXrUd0SQoYQm5jgd0
y3HYkCiqHYlktcUX+gkaQ9U2Jywr31aUaVh/CxT6yiD0RhBSrig1desTV2cxyFXJ
leLDdAkIkUmzdxC1EJSO7EVi21f+uLboYHRL8gI+xHnFp32BriPZUgYP7GKUvP5Y
oGUxOkdAqwUOYN61HxjIWuEWgSC+4QzZHAcerp2VQU5TiFheBYp7CxAHXLl+oLe+
lc2sgyIJ+weLJlM54+gsAbcmh02Ww80ryZeuZ87vLj78U8yYhP3yupzqwXgd5Zkf
VfUH2OD/uc3pYtD7qpPxrWHUk+Bml7ORt8k5yEro0b2gt1R9N0sMv/S9ZdmMXqM6
EwM2j/egwTsuEbUmeY0YVU41NW9LAyTATvrx+zId7onnf0FgMYICahAsqmetf32w
3qqluDpa4HG63Ni3GwAQUapZf5wLL/xvwrb40b0iolT8CnQRLAPTkVMBvu70tK0E
nE7w7MGgq5VVTAXRCNOwqrm8qJVsMvtolJtNlbjp4ljhHZAZLZzb1LUP/xKzI7Ri
LYZVCgAeHa0WY+RWbFFppLXr5QYG7jtbfDl5KRfv32lVt6GvgaNUyRo4uRrNkAfD
iHOD2eeZ3bU8GH66JBG9oaC5ZXbWE5G1XK/jdICO8SbD6LARnXQ3bj7hipFwoOkr
1SCPszxUuxrHnM6YVW4dV5AHq5tcJ1bRYiecoDfmntTSv/QA3/6nI8MEMZKzXzDB
stc/zPNHriccD5oIAGLDYdUhWvjGADEJztKhvc8N+XUr9ZiYHsk4RIvUhxU8G9HX
e1YFmnlSLwMjJ/SSxymIl4UxtHhK9YDqU+7AViZmccv0BkMg81qDZ83upMCLalh8
mQfOSBtKHUtVnp9sFqyVfLdruQlPDIeUSFsto4pQ14y2HYpjqEDnsarup62n93rV
k1tv5j7PJ+saCI+fY+SF1btHWECvmWe3hQQcu5xSa5ppDerQ104hUcScZad0Y0a4
JCGCKqxC8Xgy2HNg6YBHwZgQ+r7KqiD1ZrR7Ddk3lVL/MOYERv03daKPn1o/e5tI
wz3Tmhbv5X9VPgOuJd0u7kVtN7yAuNEphELtGfYaUacv+FNnPkfjrkWAMGjlWxxh
9aVxPAHtP5Mh7Azm4X8ZNeVh0ZndR73HYCsWImpWBUcAv2wJhPZiM2hkdJHBaXiv
RDZBYKTcMlRC0FML6mGC14iEMQPzCzvqIw6tfYvl51YyRtR/7KKGs6vIJNtrACWM
YBF3tCC0Dfz7iiFAAw79YvQ6KFAjNM+dOfHKAoG+BaI/u73dlRneRJYGgT7EaWUU
3GLodN1bcbXwhzxzo8vcGvLFR+y5nkV5tnpSLffQuSZEorBkulL/ntR7zTJTmMXp
jmv2AAQHbpzu3eaPO7jAH0MrgQ9HeDvybquJ8vwBLmtsPcQD7QQdzu6pKi3rDew1
o1iPOsEag/f246atymDRpmMAbZ4z6+GboldNm1jXC358whQjI6oH3qCAfE8QfxXA
BL1RIfWmleDOwM2J67CzzXYe8wExWdDGYUQq6YQYiWE21odg91ttFXbPsMlbO6uV
NCbMBnth5T35BoXKkyvYQGEin+MLEomgp/22vEKmCsxoGgDUmtvaC+lEcY5KBdIL
uJ61c18wd5+mRtkvn79IZdTchaairXyZQ/8OlteAIVfflE9kCAdUJTvKYsqnUKgU
UY/TCYbjqjW24KBTft+MgQ1P6Ul9YyqSTpmqMPD6SVXoYfxrYkfDXz+aHJknDKrE
K66TTSjK7/cL9Q9Sg2bxuPr/y26ptj7WHe6/IcIoovzqNkxxH7qJo11li6itXMDq
TwwOBQTtbbbEi2Mv8TdM4AKyMp11sCt2VVkWDm7zDOxivvfhnszonGHibMFQjkmT
FErwbvAWBB5JwkjuPx4D1YbttqgW+4J6j/TYt/D06t2aAX6YmAl49mxCf4iiPVGO
g7kaizKkjCxGcWmOP77Uj633jfo8Jz8WmqXnxxxq/eHf+Ansr2N0koRz5wyo9A6y
gHhn6Nuf/gt1TMjVenZ/1z25cj5C7BVEKzEzu/61aBv37leEDwGO1QtOVc8pJESV
KflGzwSMxeqYfbDqbfEkE6OTPCe7GDadlJqE6SuIkvEn0OLOG97cr9LszGn9lmUo
aG76q9O6rrVTg6J+C7sp2JDXG0GT+yraiTVqzpd3aJ/4TxDpwSKuCN+KruzUlGo8
VWpJIT42QV1YmN2aL2odJn3wfWOUcB1V+zF2AaKXPjxh4lyiK5I4tVDm29DKu4NI
TPtpmnQoKw+6/uCj79wvHKoaB3A7niSOINBU8GMTuQmT4XYdUP7izRpaa46z9tlz
/Jx7cLtY49zG1203x8XG0EAaHeAmyCUgIu+yUYk5ei6PDgj4eoCJO5QFOHdqon2P
X4YlJPegmycFz4oi1iiByw9jzxlhyL6FUWtRisAnJKBLPS9FaLm+594M0gtwH7wE
ADwJ8GD/Kme8oOJajGV3Puupy35bAi+MnKytHSI7wyD9lB5yX2kwa2y7xK5ZrVcX
QJFcQ90u/Lol8vgrvAnVr5BeAVPH6vgGFTtT/713wwP3jzIG07oScseOoDD2/Bn3
5ESzoNW/JgG58KSrd5Dovy7z6NrjAKfRkUDNJ8xYkUqJbqKjUcQIgqHUVddx+nRq
zBEcZl8d/1z0ZNmDtYU3c5IAowsAXeGJbEC7V9C86xReiYItnNBDkrRyRN4D2wQ+
JYwsEKgmduA6GZ/UFquHFT0BUB27kMZu4eGu5pV7KkdPvVDt0hNnuDkQ6nMBvO+Y
wurYw10zpMTpd5as5gi1amjtwR2AyoMShSrvoyMmFA6ix8yCf2A9wJruXhYh+mgI
/tVQV3NERxciK/W3xnRsqsmIBtazVwyRALnqvP86zvq5nqjyjM5ADOBtZLf8y1Jg
vJyWQsjTX129J1pDmbHDm55Vqnuw9CWt37im8cM+mM02qMf0tZXk158vUJZcA1aY
czCF9kuoi2LgAp/Qi+3p8eLTBr1XUR7HoGtRWCv4G5sZwgxaNCf7CQc4Mu6PpQ4L
1QzRNkNjOAhcq9n6eVxOvRbJjdULDzA7ZVc9O8CpqIOCaZqVIt0B6D77UP2eWrW0
+uXJ+A44skeZVWxhkX0WmlPO26P45G//fhIOl9eRfNCindwNRUcmPpvOT/nR+Xma
gcDJMQBZTQiw/jSak/zqJphVLEyosdWaWeNvq2xXUkNhb8Fp7E2+s0aSvFpB9nRu
o+Yadpe0BRZyTV2XO3WcrWU6icsfR7PWJiFcuRDKZMFPiDQPMgmubSq1mJfiXIBF
wFaMRnHVah+TWfhwjhHq/0tGj3AXsu53lB9cGRtW3Vy2a/ZyYbCwe0g32gCyAZS3
hLcmYjq/RQtc2ixCl6KU9eVL1uYeXQKt8iAvsLnctxCu1/gUfDxkyj9lKa4kYHYZ
I4YZqS1s5TTCOIsTAP3x2myKIKtJCism+DCdcdQ9LVEx+Bpi7sGRuDTQ28ypgN1L
jY+wrLT3rcPC7puM9GGEwAdR6tHS84CJPxmjD+j789/mp/t3yHEmQDA34FjV6Dos
JdqJF5mH8T7APC60VWLOMByKF4Ou2AVufvq6k3aJqDuZgPOl5hMnxF09fOfjxOk2
MnpYawws5Orw4IZm1LwjpB0rNKPRGDcSEIX45qkTWiqI8IIo6v2lCOqiCBrSo4hH
jkbrNI5JYkubiSw6DKOULrkcMg6uUShmksWP5nFs75hFLwqwUBHDl8lTv7sY+moe
cd2bOYm9/3R+MsUzmvRnMT1JT+nM0wGLQ6pSLbWbQvinh7AGRaHvrTW9h6jcbE4n
Jp8md/MtUiLbmYrOvK4jCXCzH+uCkZgvi0EoxSoN9I0r+qXXdFk3frQpA8NC14Nm
tDFafvCSyGqy3jLwfjHh9G/+iPVKHWgK8xlbYrAQiZHWbRvQxAy5+3L4KPXajD0g
+QckTicNur02FJghp7g1Gqy1wIMS+Rp8CCSiLR6msR27xWpbPSu85Em4Yt0TCGkq
ckZ5DFdfTyp5fmcybDAJUxKLsEpPtBcZ/2ZxdBXlZIU6RCrp+zvOx/iPWZpme/wB
8OhsTjRFx3uRniZXpl4LBMjqiYbfoKnuCw/A4TVeprIlRsjy0zpwe6dHfe2VXEnI
Jqc3+GQYrSNJEzwr0dRyVTAkj63Efz9BnkW66wYzx05GN2PcJXBIPh4Od3hQuaWA
3y7uJFn4ywWML4+yPmbUm4WAyvx8LFJLazSH+TN5q5OkmvvnM3oJU34xiONCyjZO
dzqid+1SvfU1oKHV33QxYkTh4WseY1jaxpShqz3FcqYovYjBJxz4rl4I+ZJclVci
ZDr/FLAQMI9R1vplm+TojE5tsek+3LVSByWXH10CLQK9tlYkCRaCXnTMo1gxB3lb
hNadIyZZ5ZTHKNTO4eB4W/fefXHkpHFuAfWypXl/q7bu901KQWK1ZYHNWRVCo8vN
ZoMupaEMa6dE/qSJjLEVGAGcEYRcsIUHi4dkXfHzxdISUCRTNOWG76bwrH5HhSSZ
xeKo4+zRjh8/JEu4XRAlNSTdg0Vix3GK3MU65aKfxY1PtXAtHWt++0QViD33HweK
MYjP41y9yp6vLt7oMdwZ+oyJbVeoMz0T9VahG+d/ldXUcL/byvZu5H+BX8MdS/68
+8wDF/mwk3aGY09Bm7CNobJSwoWNbN7g8ZSCGJPsJiSMSa5MIrsh1ZcxiIuGLMOo
t93lA40xKsi02vAF9bvkJSyNHMKMU8sU7RD1Vgmo5EXIbUGVdAWI6g6VROWWAqUf
CSt46UhEGlrxFKw4G1OpKUhfjPuSik9+AkUtxTrrxwtvcu5/WYtaeKHR7WO1oK63
IGRf6mJccYp+0VuVvh78wNdw5zND1qxqCuSQRq6+3J1S5Kx5IDwgoHxPDBuzQqsv
L54KlZ3V+6wB+TPr9JZCs50nCAhmJXWSNgGxfmXEbPwDpQEjcw18Gmd6dQf4b1p6
dRkqZCXTxCFB2ZsXvzXWdETxbpypLybi77ly4reGww80OQqdi++RrNMWi5/buOS0
IXXp/nq3fMTp6saQyyy1XVPR2ME+Bprhaxr/epDd01QbzeaDwDQjn9WcFqJyO8Br
MHvnBOc58xJCevye+Gfxhiqxs1Vsb26oeJ7QJB3oM32Ca8qA2Mw6WTC3R9P/SiuX
IID/YPA9b+ZBrDw7/jhEYQQWBosXVsChbyXYexfShvPkh+6isGD73i7cv8qju4mi
ukIQK8Ul7dbaI4g3EHeXLpOizfDvVfN18lIXRDxzC9IYznjQnLN60P4hresKd4Qs
9csLiSy6EZj7wgkQukTe/wscQlrESRU3wn1oi7oXaCCH1YUM1tY3XoSp1K/UqHvk
6aTdmPbh7OBqYQtxmOq0f0Fh2ZfKg9h/tRwtU+/5wOZ0heWAhV6gH2gGqETuodgf
M1TU52nsAg1YMJcdScuz6RF8iaRpCDbUsDDBj+tCmPX/++8HOUCUEA7r40ILqbnN
S+ho9NQLvbXyVCJ8BgMTWVDMRe5k0oO2pHEh98ud6Mld7KiBVeKibLozn+3a1Qiu
xdj9gBGSgki0DsrO7r3sozrjLGQYaQZxcLDCfnCIR/lBwbmNoF0DAVgTea3mUaar
xpiURRzyGku18iXWdvOYiOMT7zABjemOqk/o4Syg+qd91eALBY+VTvY7OQcWZSzq
+AWqOSbhZP/DFhIylYfz1cq1rR5AXKqi3x8CdWPQwjrsb0JrdDEULQ2GSNcWz/Gc
rWkS4QWFMJCDulLSGT3GwM1T/lfAsj/oS6sMl8Y5No/zcK8ZInuRIWlgmjjx/QNC
sXvjpksQwZ2mYd98aZUbGvTTaR614wui25RjW7xAs6zebgxrCjUnYFiH9nZyPoQW
MzF6yYjEGn3toZzdDrvnXrxNSSfDyVcxMkknMs70dwWgbx4WPQr4OSdqaWilHk4C
MEjdmXOE/RhiCRYyTIFx0Cuc/qvMKYCRyQFCixvsqJVAFZGtSzSs3h4L55BUr68x
IxFc88rr1mJRLuhfwChWLNvjUh16VXX88fXhWsJSKoHzBUCJZZCK5IrAShveQCfr
RWZT8a4QI2Z0bP0/aB654VZ5wLJ5yVXQE/XQ+uAVFIlf1oj2DjGsZohzALX75XY3
WR7OEzp8aF8xcDqZl2tmYGkNBGttFugEh/FVskfX5gG3PGFJOaHb659GHzBgyfCN
0Qx0KckwraNqHJqAz9mhRaFzFGStJe22rr4bVGwCCl1yhxIjh5PkOSLi1tGmKZft
lWU8klXa8ffvAX4/cjqT7s4yTbJtGTyON8xL6EOqiFDKixPeedche6Qhu3A8Xos4
nVGWIEK9Rw/eJkqcBZNwuBjeyAUIPBpNH/j79beIk2R5ru9mTWtSwsrlkKwjRw7T
Z9k7ZP9dktmhnQFthBb8lddwUVZ6CmKkOp3s4cRooExTbziK5+8sq6Vvi1XyGd/6
aFoJmmysD/6FM0MgmLBIzR7rjHRGmoxZuXkT4Q84uFMQ6DsjcdQFSvm883v1Yi6t
Os1H/1XZ8CF06Ce/YcYdujeYOoXq5oQqEb+4+3VtrDxEatADgj00IVXRvbB+i3xE
yaMkL/KdpCKqqz637GyB8Ei2InHawXstHoLBg4zsOfnC2Nsx3pEXCC/ikLiqLURM
e5gE5b7WwiQPchGS+sU7btcVFg3VAc6PP8fFY6HtttIvMbPk7a9CCiF7E8z5emzt
q5Eqj7icCzpPLMixbNpJkRXn3OYVjRclXwx40bsNMdwls7ymMSuTshSMXDHl7Jj4
GlKVxJkWSfzia+Z446ojmvrx8PLzV7F07V7wV69uMi8ZoQE/AP0cyemQ7fXSoESR
QsgEHTkpEiBt6paJNS37ugiSWI9eerN6/57okLz5leZCuEoGdOZI9IK7Y56iOsfS
XV/LOKQcGxBzx/QgPYVe/AUjt13WDvGwgUb8th56fLj23I3mvoY3of7Vs4D6Ni6p
NA1ouUeJHvrRua17khgg9hAuyQPya/sCLndhHA+/l+gCwLJUcCa1HnGgTCq1DQOj
3Vfa3VPN9TQxPwKzx4Hkgr0V9CsvnmsgKoNHa/pTxQy/7bFkyES2L2NUmfuuCEK5
dRwXt7QiK6rpDh9wLAp0tIaP2mAPMsCanY9qS07D27NgXQXc8QnkbY8OiS3oWyhS
dHQb7CdEW8HeOWbGOmYSOoSoYECebY5Ec4Y1nJOKNYrVPZi8GMahLDqB+Ypptb2C
BBkWB63K5hdnWoWTOiZ2uL5JnAHyCYpIcpHm1onIFwsfYxu/YzGd1H7TlFanFQQW
Gu3K6vNLP99j1gO+V2QJ7i3crW7oKt2x6q/xaPQ0DxQlCdKRCEKoHLH/UtnAo/Pv
ri2jaedavM20+o4o4pV/2DwrMD3WtMN9Q7q7WGsmSX3uKTceaIrzuJFZUrZlW/wM
V+CLSMtcCjfmQzh8cRohR01f1JD3CfSty/0YjCs2KwAfAQajqhb9DxFN5YpRd1Ga
MFiihAkZSTmBxOPUO8J9jG4LQOmasbXAGllOVZMQMZgJkumy9c3y6rjyJa2o0tNX
eD7bbWz7ZZFX+ysAhSMjIq0ofmzFLUo8ZmpxRirVOIpgt/aMEvVc4SK43gK4zOb8
LGn+2lMXh28B3AfXRjA4tBiEcG2JwlVqWyxCSdy2X7txQkf4jj5h56zWi/ZpCAVp
DDsqhQNfFSJOEdo1V41eblAqWdV0ux/DhUcMCyetxUgRkuBSb6bKfwZAcvHZR5WZ
7J/6wNPsFPwjudr7RdHmYQCCcmIHR/RMY/GqOMpC7kZNlOpTVeH8Rx8FKMntoRLK
3Bk5meOxY08uheM1Ekfo2Jwy5z7XNeVBzfQyh8FRnQ5MT89DR8BJbimMQVkgNTiF
sr9gpozsgVQwgqSzcYV1l84ktI72AKtBK2j+NKGq6XIE645uY5xjE0ac3q6eQhQW
sJsIfDpFP62DRQ+A6zYYw/01Juvd/ENosPI1dTnJ2/znRlnvw3VfT2k+7hbmVkeH
/Zqqmb618bx96ZnTDpmU3ofQVaQEk67WBNiw8a7uXTHTeRM252YdF2+AAM0ONpq7
YpoC2WTGvtBGdKbceCTMyJFcAVWDhqGOOXPC5wItemmJdX2Nm+YyxQrDkwRsmKsP
mmoJV7Wp5fLXxS0v49e62ujBQM+h6H/CoA39kASfFUPKSJOSK+9zBeW82BtzaVKK
BeuAXB76GOw6fNViosrKj+Qc7x+nZ+u92gnyz1b9RR6Hl84YKJTu6LlCHPzQuj8w
jSJT7umIczTRgOFxEvUg4FQf24j0mA1kj5jR7xpjZjVxrRBTWQ5Kbqww5IiGfUIX
PmeYbD3oTm4L7BvpdcgsNFNEvKw/SGp6ZronuDmGrzMM3a39s1/9IfeFZywt8IPH
e6LHr/B6OsdAQ3PFG2zJJIDueL9TBEaxsKSoRIKVwY3GpCxSyFCixP/gxHcvYL13
VuylVLghXMQLjo8oXp3BvBujGOY7lcrvhDchwU3S7est8hWIEZQasTTzwmYcbAZ1
Z3zhho3e2IM7bdKd7Zxa4U5nZnOBxcyMJI96sQMKCEldsC4RpzlVgfV+XAWxONnU
aSBSZmOI757uvAtlhwlfYjkXYthBH1ipPRdRhb8jNVY6MI/2Pqht2gFrcjXZXFHu
m8WEguY+9znKyZ81R/152SGOn6XkAF4HsHsPXcRfvtucu3lhSmboDSaInIHl4BE2
r5AxtrRyZvvyVpzRjK5sDKDWiFtgcQxO015HQd7mZS3Z/ajQ0IYeBpgG54tDKaqy
gg727cvHJMUMwku7Ea4Me7W1pDHX7P6xXBA7MHcv+1lpjBTh8nuuysrX0SbiD9v3
J43cQLVTBClGfw6534UahJ2u2IX7s0iMZWdyoPt8ln67LS03p4++6Sp7AchwoiGh
wBpd0thzjKYQRT9rSO10i5+i1KFvqn5zytEr81TOBt/aTZi1jLCKJS3hZTUGRuQz
sPcwXp+SJpNRierSx8BcjQLcAh536vcrI0HkKGk4RoQxBtavzuNO17ZI8SgVPOWc
tZnWvWV8FCj3U+xXzDeT41vth5LEmBGhTGPc+tpR9pNjjSQl+yut4VFRlzEyOWHK
8cFiVb8AK9AXsy8BQ5LU1ZOic/QR8bPCWYfuOZhLIusmk+vi/P1R8N5kKABBj+AK
xg5dyhFQHKxBWNYDIWvDZnvi152W6SXA11eI1Z1EhnZZgK11rsfvlB4kDXsvFiQT
34JLPM6TkZawuwdHTsGLJq0vcE+j5JBvdPaw13krsX1aJeM+K+tKFkuX8/sjG8m2
NAzX8sXeRYgJLQ7056GHARAG98Omu4lK5uz+pAp21p403QzeBLBL+QrbWw08jK3C
yTO/TLFToyJ7+OVg+nec44AeaUzClOQ8aVqxdViYZ9jXCZ2SWp5eDD7U+Y+c54hM
iO3axn+aTot9Re+zH3kBiCMkyS6QbaV7eAx5fKK4dcuM93PrU7uwsCtghbQl5MVb
CAdojWxzqj1CT72TkgrXtBH8jKnjD/B6LO36M88rIl+VVxEviiZVpgiqWLkC7DH4
45OTOjxkqgvkYaK4jimEbiGp0aQyYfwReFgm3bGpidy5JzVOZZMxF9ah6SbnrL9y
tjEcMQ/NETJfEF4AOs2gs/Lsm//vVB6jV+EA5hIf3kT7cyVtuDQN07JpkuPKgL7b
2yv/l8fnVe18yjpgUeRG9YiAXlyg9iKoyzJ7UcW14/NDVbzA/7+chUaAILD8cn1A
UekuOXH16A4hjGBSkN9Bj8PCs6qPwuqFBpfZeOl025rPELWui6iGa50hzRZcH7a4
4CSUx8oP0d4k8097mZmSpbX6G/1uVR/lK6wtmC/+VDgEOdqY2n8jRjtUaAXZOUSk
QVIXS0m5xwT4MqK8txNhMQTSCicGw4RGmqemrSxLXUs8itPRctKeNjTWyrJnL3Rs
Vg/kq9ifS7FZ2GVLE9EdATv/lHyyNSbyLi0B1mkwQB6vMaaTzKkFnIjtDmDszZtf
A8YkFdBXB2sQjYP8Iq8Bobn7o6qJHVRuV1T+ISmeDUaLhma4EJ6cxI6YGu4ElY0v
doBTlIzeOHwCX44ByZheoOtSKHe+//2fIviWyEqt6OCx3WMJFb07SjE30DYf9GGi
lXQuERJV0D6ljL0GT0J3TnO6NIt8Ol0kqb3PKwzGkcyMk6PsoGUzYRTvb4KlNSYJ
0uR7gdfcvPG/pnN3r1nrvVA5pl1K0GoacqDXgeLnjthZOz0EABOz3JIMZZg7vhFT
JfYlieV9Mmsqf3rZNXCcvyXl6FE6XnwSwZa6yAMPmeP1CNEkfhRZnpMtgDgQfXrh
L7D+GuJ04wWkr5EWRGSP/54AzF4kT/dvtzjLbLtNlVHkU0ftbYF+TjzuN7AY+f3W
y6MYRne+2qBnpUPQeQmYztOyfSngvMxFLXXko2y7+bO4cgw9bVxgbhWDYPWI3NyI
t85HG4mJNfolRi/3KNuEoSK/hfMYR09fV1U6O5HKaxm7ylTX3AKN21+8Nvk9/4il
aU6mV0TbFGrAdTsrcfA9rx3tgIiTWZfS8WhbmSd5PKbrf0+My5YtUc4SexXapj3J
7uE2BUWQFynwvCurGvkkyWUxFtG2hs2gXdKLL8qpm1Aup1YHcPDW3O9hCYMwSqDz
xBaXIbweOez7nNPdpIEFuHqgvK0AXbxT/dDk/83tCi0L4msK/dwi7vMxJwS2PFo5
nBPaAKuibBu5oq1G/VeM6Q0Z2zLKrK9Y4WOV3aWOppF1hGVzB7wPkUY3wIbs8vPP
MRaLnboVAvOfi/t2fuA8b1EmAmfSmztl5Cs5+hrJiuu2tsiyMiBwV4nyqko7rZcs
/n0gXlCPL5AjeViKhFjisLVB7ffmN6DjQF8mtc6JUsuUuYGLedx9DjHEeNqnbVl+
MjOH801pfMeZui5dyRYW2MOansDvtaLg4LCj1Hou0sbiF9+L59CSDE1+drtO9K/F
e4T/gsXV8GzvJg+sCv95S3MhqB86mSQbmXcD/gTq3++7gfy8AVZc/HGRZQEVNUT+
tVGujxMtKBtbaVSPI50tw4UPduisoZ0mhxMoAkFCVm/mbjNfSNprrb7Men/IYpT7
qNHlsjZM/9wFk0oZxD1tj7LEUBsCuhXzzOfaE3T/2YjOUKivpCGLssjZyRusEz8C
NkloHN0lp5IWXNtHfH/6Cb5TKCR88Q5gyxWQvJPvN5cy9l/zykMeT24x/0/ORgha
uT7IudFkTGX89VpICHwnA8wxLpD/JfNKZr+K9UTPWVHarOqNgNOXIKqq0/2oNP1/
NFz9yO93zKgfw0psFcWi3gUGmuNXxsc/cVUaF4kC9JPuoInnQAo11vKrg5kMP6MC
dzF+3PszInMxi6dBxKOlRPHuj21cj8NYbqeCXmKzoTCUN+FFCA4HNSrKEuOplYia
1waKPvkwf/0w9j1JHtm344bw3QXt+fklDsQYAt4DDWucmTvWXR/9a4i2KyZU77ez
7wDH7taUXdustYrHhGqgY/6pwCwqBK+0+mZiMtSYzGqkCrBNseGCmK6lLiuoyy1h
37OMr5l1xQgvx1uCMPu8qBxg6hJtjwVS7jHIHvFcq8cuFBTl+zDmMMrKLu7xxUpm
SWHn0T2P4XC2PY9OSKpY1tDmN2EImpeN5/7YkvFzoVlSyKwxI5lxU+hjeoAjFFL+
FRmDmrJKGekDQ+emUWQLSuA0C4IJhze8oH/l6OXWFwvSDd9QeD3/rcDEXyOxLtmz
tdcfufgq/6oJ/LOaGchQ0Urm2CPNh9ndDoLy4hJfC42WAOKxUDSErcB5FBAX83bX
UMBBqN8M0grjhbDdcwQmBRRAVOdFNy0xboUjZ++vVZHt18eJTQpg4XfSzjJe/oWi
eUNUMrdN1TpMWapb49vFRP5MXETskqFV7sp4oD++Ghplwz9RRHmnV1o0gOtvqlxp
vEjWA0hwzcbk8FJs1rDNc2rnuO6l31Xdy/BVpi5KmAhoxEjN92c/pH1ftp2FhD9T
BXGPSmrHjYmf3MjJOyayfg91Vu2CxhoTZOg55cHTczOPTmbs3NrGz7FTgl5X8Fdk
Aey9+cukPXpf7dd+ynAXgjXbdI5m/2P4yNGUpFtPrhItTiAveNT41h/h8TQGAU4+
hvG8nBiFIijkmP68AwT7yBm6Q9gFRQuOe5MgpVNH82rRYunq5zz+rRXPdsY6vMty
w9sK/bh7HfviuxWg7YVRKF240xEa6vC4YkAswGM1w0HEB+N2I+z+Tl8CenW/VwqW
VptK0VL39R+sxbve0IM4r5h+DEwZExohPFmfaajDojK+oXPbOE09jrPRa0rmuQQ7
yx8WL7l279OXZEty8P8eX8tJxI/7oAsl2ytqXYqQtaMHGhL+4wPqaH0ryvk79AIJ
fMKAkC2kku+ibLGJMsDJ5HycJt8y8Yw0eIQWjvsub9hgathlkgfe+BRGT/Dboibx
MuOkTsTPAweEjucc3MR4Pv6kfOlF1gu+00LlNopp7GB6laRC1mveRk2lWWJyBzTV
ma0ozwbZKGlhw7FTl3kukgarUhfWaWrtCVaKtYQ7KR7wTonD6EP/Ef7k6amKSF1f
5DkaUcCBh31IHvQOpf0qx0q+taOv+tMhIdCjOmJsOsZhfWSBin/iZsuWFfSYcifg
0d5BSwcF+GujuVsFbOcPkm93e01ojaVCfvFCJa58lnInhyEnccpDhSpy/Jhu15Be
iGc3pGLYL4AWuEBvF7XnB/iPVguuQYGjA7zC3GKv5yUoo3gn00KE5YqJB7slZtWi
8oYwCsqbPW2tVajEZm/u+dsBezkgfbpmbuFRlnt4bnlmRneMUZ6Z1iQLtg5b8H5A
XpgxfYm2+lh6F1RnBvxV+Fsmz7MZ/CW6g6NcMGVleMzReRBA44qYqqzpXrCbEz6b
Ui9fV95Bqups0F1exEFoCHylAMvi3VOXkM7K5LG7XBjFV8DntVa/cKYw2JLuxxk0
nFoaqzT3iNrBoIUo/rUzlc0OfqMNNwtZuEPsDG2q15xLTOyoFCwqWBHOTyfmXemx
WEDcFABDGvr9QexR8tPFhI0OYjRDN2GE5qe/BaJQrt4kGKqG3EqZnKNcdRJDv/Xb
udEPPzk5+dvOlC3eoP3p4zNHOz9YETprYld1late1lVufeKkww8ePfRyPlb1Qcr/
N09kvxeGd7RT50gjjel8eoWk2rFmX1ZFSzMKPr1dTL58EvsllS3kqQ3deNo848Lq
LTlzer+8PmxA3JI3rnWW+x2+yHZawrzEuUKxo2uNhzl4r0QzBbat9mW8kG1yw3RC
ynkaWA2vM97P/uCZ8WjsFqtD9z3kpxe4bAjMkczoQCzdoeVO8h9GmJMwX+Shvprz
Vg0Xj48G/8e9LxKeCwSVOOWyJpSDS/5xJYYTQ0wPtjpEZJvnM4f0zwvze6oiZP8p
psQOI+GVdTgQKzw5QIpsSIC0QnKAJaCxNPoBCNKm3CttijVoL9DJO6IFL7oWZuWF
8sh/INV3RToYBR1JZ6nedHVrUOUqsunHrYd1j9qE/TSsvu+9uUFcsKPgml/jEn17
6vUkMFnUprrLMahHfrh2okcCG65rk6Q/1VaJ+5doc3GGD/0WDx6ghOCy8Sd7+ZpI
/ew2ILm8viEA8lbesNHTejwnqY0wyPjnCAKYhispeOmUOHoQSpiVGF5fyScjoSbG
S2ljhJIQXltA1u/9HU2BwRlqrzihhtTuqkcIXdHQQ9oh7nS4bvI9ujAyGBoxVZsd
McPkgjUudnYAcNs388iqdTq1AmtwctDcS3GrQEC/KNuVeZ+sTS84UhptnABnCMK1
F9k/f23afkoZXXQiW5e4xsmUCJlS/CM53IoA25dUrTZvWQWjHufWpHlOY7TkkPzA
sH1efkfNpzAsTCYGTkoEKz3MTWNxHGaNTiVKzZiT3YZES/l0Rvk7I2JKk88FQ1XX
oCycjomvRXFO8onAbuUCdflk/NQ7xtPvPWvqUUp4Xc0j+w6YaYt3XawQIfWza3Hi
9LPJi2UlTyz9nUGFyUnOeCaop4j4wwOVtDR7ZVLyHnr4/2oKHSjQRHGQ5fIcPCAh
dHcAF4zw78gMiPfsjkt58kqVYiHXnrEvXP3UzGPCF9EhxdqyYPi7DirO38/R+Chv
KJFzM/BwxoAqJW/fvfnAR91PMd03yZBD2nYu4Ln8neZu3DUAt6GfuMneU8TQXVKs
mMr9pHplhqsWIsMpDFKrLyC4D3z0+6pvuLDC+C/sW9awzre0JRQfWm6HI0AZDmt9
K58X2tBaL2ZZBtN2c5TZy+jYhiINW73ed8Bh0rHcHOd7cYOqW2zvBPj4YZ//lkwl
+AA9xjfOJv0PEtfiqq58JoC6XQACeXo6+N4QocKn3OL/+nhXG+QCMZ1QENjskCqY
AYDiLhCDjpw6+1bFR1hODHFMalA5dHkRBR2W4BSmcuEbTXQASkBJc11gRbIXLB4L
4pav2VPvt16bl9EdmjbvTvjPD89dpLgSw4FTf2S87sSdCoQvza1HTPn1GlBvwSu2
VgXz6GEFZrwf/Z3mQoMaPs8xcXumaCdysA7M9BV/GLetFDv7kz0Z9o3X0VX47Qhv
khUdCOn9tJmDbW4OWkMymbRqabcX9dUJ3+4E7dV3kmExmQbjycxbchYDZLgalsmw
KBWCTRRyOnvbt2ZXLoz0UDSJZwmU+6LNME+GlOomWnDnByEeKtZG2WzwJdOaju5u
al75rqfXHmE9J80r9OxmyKCHugsw00dSOYn4XjUK19p6+MfVfiLKTgGB2Yns9IjD
VRDSf7velMdqiNVWj/cR/XqVQW3hcCM3SvMRZ0s2800TqM/YhJ3nm7Y9xch2rwNT
k8sEhE+QCPYV6x91Yq08D0qe+9zdKpweUEy9+jLL+8XZRf2FssOMt3cyMMub4Srl
0QSasGGGTmBJX1Hb+njLRnQc1Bl9sk3qm7kncwWefeVtGkT4RLM8Ibs8LwZCGnJI
B/fg7s3Z4s1MhGlD+eUr+76Qfr7SlDjO4XB7XVSb7KwhYpaU1KeO+xMJrq9LRU9e
8FA6v+C6+5HrYhfkw1rWnz7+Cj4WNntSOaxavxxBt8+0ULM7LplhWLwlSyG8NK2t
OjCFO7E/pfxSdxQ9SHcSpQc6ookOaC954jv4FAq9vzfaIBwKP2N0zxpYcYj/hl2o
DlOcz+vvnwin/88kd+/RkKiEgatlTOjEQAT6HDAtNm11HriYPH3gXaM4K4jHF7ER
v00Y3C0AbrRJ2syXjM/puMXB59E6KD9IU0H9/gpWwvazBduXwZbS6O5qtPffP2Io
fcpYc6baVOvxD6qFXsw5FCLnifexUMq0NbrKt/MXVsv7tVrHSR22nO/o4xqvuhlw
xVbR9d6yOHXM/YYeKduBacpR0ZCqWeYYbh3azpA0UppYZ0wMvmn27ULSQSurZFBA
+lCDp3Seu9sc0MbY+Hms2xRhi+kDqn4KWSKra8csYZ0PIzmj9zXXyBTtdJVN+17u
zDYf35sFKNgL1WzcO/LGhexymJPWYt2nsulMFngka+gKJ1Obb2Ji8jOvk+pYGa2D
dSMmhKVisIukUldPXysSrStIekd90InRo8VxQFuQxwEW8d0XW1Ll14tPhdSI3ofQ
x7VkeRYflRaG7567y2MgJmdjI8l/WCzZb/rfaK429NHcSyQJ7PORKgKnqqm1i6x7
urs8GNtidWHJr/1CYzKbBrqaXEFTd5hZZoGMVk/yzcZxSY5Bu1/5gpmoxi5J5Mfy
6Sg/5+cZgX4FMgC1LCb3lJ2EOlWPLJUhvyCwdvZa8/0ahtjq6j3LtqviEcCyG+Jc
sDLjaBgCVAPDPtmZl8ZJjamaWy32JGRSELvd0Zl7mM8PF1H/fLE60vhThgjrindR
28gpL9QK68U9bfwUZL5eEKXJwfo9TwVKGJQsvL3HokNpSC3N32i/4Us7PPhS+YmZ
moDTODySbC2KxT7QsqpzBOTB+yt83UI6Tu/7Exk+n3U/V8ugqu0vXleWkJn+kUdZ
uA6H+oulunEeBVoYQZNTAXVScu+QbiBbHVD5LSqQUKobjz8FWf8og1sn72oT6hky
eZjcK/kqDmbMteLZEga1uofWBXZ/ZwWfmywGVi5LqMfTzSID0KuRCfhDP5wdOQIr
b2sdZB7QBF80Ye4UHGZREah28jSeJ/aEBC0WionurOyvoNGl7jBE7lVNNaYR9AYP
pHHKGFJLiizJERGh1oWbsSl+fQSGQgGMUYG6QTNE7iEXViMXQyIaT04rCIx9B8pb
UGtOpAcpAAzXW3dqMEVEaTM4W1Coz+2kOolWEFEJBvOkwKk/xuJokauowi491NyR
zK8+h6oOdKVxWzdKDtdRE43URG3eVHWI6W/RLF1+woRisbz9KDrq9uHYEXdZc5UM
VeKChDNeTTfm4teiIuY+N3iCwXIzMvLrNe1pdkhzx+bAX9pp3yKdp2CfX0nyQtf5
h9vOsgbkAawRDxa3kCgBi2aXPWFHCgcSBDLurBt7i2SAtNP77HPJRj1OOOmPqQFt
0WIwzhaKe37xT8Wfkk7LuHxKB+OqfgY4kzeliqc8zth6weueIfKsoAs8tYRGB3xv
GHiaw1MMj4v0weXAvuxUDYH4AlddYVnVfnGO1EVr5YF3h4eTmjCZQ+sM65uErtrY
OW3rC9nT1Xrqo0h9xR1+OXPNEN9kuv2IK0WupIq5TfqPHB2G2mCJ1FCjA0P/6H1r
IxuLmgCY8mCC5Gr2w+gfSVJOHCw3mfWWpfRdxGRj24YUa2q7aqhfh/DVOuHqCtaO
XNhKNBTkg+7hbhY4VW2uNUTwdXC/vOOYoL4bpLwSzgwHjO0zmIE9TNdML1jlh8al
Fjuxbo1xRKUt4N+W4pAJgO/YcL/9yRh4HpLDUl7+WdoZ6GA349MdBdHTTxhZQXsg
YLPzH5VtDWiPJL/Gbt32TyOnQKML0JI+aNznFjpo9baku1fym5j+90ZsnfXDA23v
7cjFsYxdUtbwLSdBFr1Hnmfk1lL9JobQnC3cCQ8o/pwgQ9q2xKjRmdv0gd9NLpQM
VwQN+K5OPtbfOkKQ9gBPY71LjAQPnJww/27i7C5x0jRFrqA/ERRChSRXvBgXIbki
zXIOjdxR8q3nDhvtnP0tG9BsqC7jQLg+VJR+KGgfPAr3Gf0AJ5rjkO125ZG6Ok39
QzdCWKGjfokamrlVg7Z+RbXCK568HnT8B8gepoxjJ66XlK7uNivqUaZwfINH6Ofc
crj9/uizNJ+j6urds86BUa2mBVPtJKjerIF1jAD9m3FvywnMSXrS2FywxuaP5RP5
AaAGKhCr6TLwkVIERyUtB0RHSSxUXQ/e4UcNZ0iq4j4dkYjyMgO2gQUxkVfPJBcu
4eLOr1BI/aRCAax1xFjATBq18sghIRJxnpfnEAK3/K6BgnH1zHvN1luCWcBmL2Td
pZWLmAa8k5NwNK2YqejrjQ2s7AvxCMQ+XWx4Orui7znlLLeH3AT5gDVY63cg48uu
tZb1wYG8+vqCVkeanlfionQAttaCvllHkd6cQ5+UDKZDQ5Q+TxgixpDVvi3bFbsa
ro9uo06U4hOxZfqL9lhQWZLElyi7XXa+vis3d/15Tk4tdP1KWao8YJeWpMRemTjX
e6oIWb7mRBk7SYJwPwAIUZnoUOHDxNjY3JcYM7pEYRsa05ez4hwfAAXOCFHyLqM3
uSBTornCivUeljqN0W6irAqSPIHP/TL1eZgyt7xPW5ZvffeiELJOY0jreCDTpuWQ
V3sGYtx5Li6ujY3y4gHraSnihef7dGtdyMsSda4NkkXsP77yWLU3Pck3cACkNoLV
MnbIdgy/jmy7ulmkd+QMaReqgX6VrF2FeyALfZAqcMLs38jvHgeUb73J+yL8sOKL
pN2DaQySxsBG/DvUODdQ8HsRdac8v5jV8p6EpB4jBt7Ix5WVCVYL+w93SiL1rwf8
+l5aVd9ECrOziAZnN21GW7nIe6rXPxUdf6Zj0sTGvuAjK2k8kvX8cxwSVAlNlGAg
RaQv64LEMCi9U28326rXpwfkvk4MhjEAdSyIUEnvvqdPSvmMPWstDyxDA/XdvWa+
L73w5BRyEdQQcN74d0BhNqNTsJQrCd0BWrC3ARYGHyNioVx8dke4LjdJNcasttQW
MrniG9ZJCIgLMHtF838VhsGgvU0UAE1OvqIg3LK9itjc7njWB9sNxzIt2GTqNEcB
SVsRPgpPZnxD/wEEAt2aennx5idSDoLFd9eNGelEC7tk/08kVFJs6ozG3rmBckiz
LXW7N+2Z0PLLqIBhBUerENk1P5lqTYAd1HhSotQhDskzlRer/a50JOqT8LblRSgn
N6cis2MLDxyLBMnYwwykZSzsfltjW87sy1Vhv2BmmMFyEtG46AIP6I9Z2Kmv9ixn
e2ttSqyzfQcS8dKlLvMHvLvqFtWPOq06Q3jSRt5cFeS2yrdGjKOCPNxPRD02/maN
6MwQUkMVUNAQ7W6kwMEtvG0ak9kKzxclpwUEdwdZn9/xt64L95o92N8qqJy0O52B
cn+KNfjnJNcAAc9dUwnY22bx7NbwrlviLjWPIRpDNlmHNiYZ3hoM1cM2PH1N+3Wz
wnrL+v4SAj2sVqvkWC+6f8UNA7eWC9cwK0N6cBwG5uCa4wHFRW9ESIiAL5ATNqDs
We7FfP4UljYoS+l+iOSj22FK0jDDKkZQ9W67GvVn1Hjp+k89xbMEsiIYOJ9/iYhD
gA5vvjkfgDlYy6huq7QlVTJJAHzgby4aAjRqV02TZLhp7m9sEZjBRiQWv2qJt6hu
MtnW9BIsVtsc0Cs2askh8BW9lCK0c0t0BDyZDWZ+PHQXIuP/wZfUhu/vwbkJklp3
zeSPxhD003rjZI5DfucRRHC0qVBYc47gV7duo5++8snnYELnVWsprA6MY2TI1zLr
aNycQww+c5pcG0pexHep5ZsAL40/Atx6NjYIFaqEksGT1+duxxzUuWCFvnhPhmnM
orC2yGAz6cZm/pF3U+Cx3PtalKbGXVaBbxrpWfGkagl18bxB4ujLvx6lmjVjt9XO
bqbWThy9ODjps7nyiM+bsczhqt7YSOJyvvUn066K+UTNYZp15/WaR+ylPRUVegIL
YvQEWMyshsxzlSNfa4lTSzHNZzF+DyWlIYvxexaEN5X8SqqNpd2v1lt63tl8UwBo
fSNvoRRmhsFmREQX1pDFoL4y3TdGE/1a9C8LllgVxveIwo3ainAUz3fnA0HvuATs
AwYLcMymMsqP48DiG0yRLVStwlysZN+vrlXwndlz0/Emr9RAot6piX94D0d8x0Id
RsTqTwR0pdtR9sYTUWLylv52F44NHxrwywcGZR3hSwR+eu2wr06Y0LgAR2l9oJYa
F4S+g7Dm6Q5kLnKzQwxZMU4zcOTsgjlHMmIeoPxI1kuf8D9dLUa0B8mC80zAbaTO
mtxkV/4SOyfd24JUAH+VvPYnX7dToLUzwZq99W1eQTDmET+5OXeF7xbzpifWpQ0x
a9FK7tiGXfXB8Lsr2Qa0JQgVIwnKMMZ3MkYgJx7xdS1UaJt8UR+IzBXrLWZ+hfFi
c19Zy0olQvfD+P/dBnl3n5eydhChqHy9pEWFv9Lq9LdtMV3Om+vG8l92ElYw1906
72Dsxm44wh94XZoOq94yC/08eQCB6ojPrx8uOPiFFEjooRMCcSzklUZcSXRUmzpY
f9h9wz/brOw+7U7BU3hfXbJdsrvJNi3cmqC8PtG863QF/Q08i78/VYPuw5PJT1+5
5RhPxi9atz4iYNAZCIUWRlIXl04qHgmptYHKkeQemWdD92v2rLp/mH2FFzzr/2fL
ZXGeQ5PfXzQDk0tLjpaTrVhkT+XZ4OoTIcdOtqzBvr9JSnQGCq0ts4p3kxIpX/sF
u+IhNsgmR3hvxMPTXPzbri7z0tke0nWVzoGZpgStJqCHncVcvA63Zuy3AdHLQg95
NC66oTh7sZvm3jKD+RRBAthtHAsHm482X9SPY5jobLCQwJFeDKozNX0+MjVx5H0H
7Qn60hZnxNJoKfCWrcYHI9tOPBD4MzE+mYoENrkoli0N0R/g6HXqwqvh1/RGWwqH
dB3h5eSc8EtdKrAXe0icnGgSXL/Gp0pkzGeXtLO8NZcFvmWE/IVasK7Na74DEg/Y
FU/zvdAcBFx6RqEFP2zao6MYX4cEAMOG3D9m8b32skSnh/M486FIwI8ydzdXDrTq
TiHdLdsMTeTdQIP0G+vOfuadTbgHLd2ILBaUYc/eRfuJ51eG04EThcICnwlryAHt
LQK3rnLprRNZIB6Z0UfWTXe5fPN9ypsXFVxFlE3h2wJ5QlcR7itRkmR5Q94ImloX
ePIx1iMvJFqJl2tvyDh0fOL3sZFNibBDKMoQnNL8ftR7T33f1Hj6wZCn7yad7Vai
rszBjmAdhaXbK42u+NpL6VPFR4wCmxFEkmlPLpcuNT8wUF3GsW2HuPWZrCCEGmy7
kFE34BeddnsrIRYSdXfH5YpRC/5DVWLaWcqHPq4sjWYi3Oe4Kub5LC6XNzhgktwS
Q4W7nKSizApykTnoi6BK5drQsaHVfCwiHKFkHXioenj1ZKvXjQDTBS28Xhqezizj
PZ6OebEkBezdxOw9bAlRB+/HuwPB9yd/tVyVHWaVi11Uc+dALeIiy5rhJpUxeQV4
gCchRDlaonKqit+3BcLOLSsD82RosPzX5YkKbdP2+jHjHJQVGYvYbVZ0yPn+AjBj
SWJi3ep3rMc/QzdqbbJWgmAc6JuZpGmQGSAkRNsTh7yNI3emvvKrDhxuLsAdhp3j
4mFdkPU6/8Pxc6NZhZbc6XzE7qYLvnMPECnXwkfbFAQXwPn+0t0ssIp4XrxP1luZ
lUiVp+7WNnD8oFMePD4SuCyYGOKDYRNFzfeStGKMR90JB8dwrJkMkzdDFad/uLRu
NCqTohybY9iBCIxau3F4umuXeQYEHcCqcHxffolVg+xrtgGKgnSnKkvihQ7ASY7k
pQfLo3o8GwOQohLJ7rz7Gy6kVTHp+Gf6RsYly0Z/xUPki0vPvYprzyXBbVZAfjEp
9ic4HoV/kiECYiADHThupe5IWllJWLeDCsyH7jLW9UaFeaznGYeN5OR6C2wm1fXh
7BhGv21r412OJO3csOEBDFMu5ltb9vA8OI2QD2B52Y/NZHXJSMTtAaJ51OqZfupq
Af8WO5wztt/rDOidFrnSK1S2Hw7nALrThfUVXUtLZqXgV4aEGYR4EAGLfRdDplst
ws8NNGcGtP9q1y849+CJPCDRQO4MfP6nO9WKx1ouzkUDVzCU8W1CHhnL17cIHMkF
376gTAzUmPX1XPcJBTWvSfo2TaVLIZ16NJ58n9p5P27R3UwghGMZQJXT6tG4cDs3
FoXJJcnKqJ3rubhb7LCGPF56moXcJfKshrr4z34xaaFf+jsoD0ao0xn2si2R6FKt
zeXJ/YHoe+rGaufmzw7r5WhuysjMKkNPxPDQCp53V5dMr57/G5C1HPn0j3e/+LrA
jS5j3c3VH+4Aa3eDGU0vcS3qbJ5PhMtdNXbVKtHfQpYikVNTPLtLfUZm/7pFZS4l
EUcmhofXs0vfManLLRc6Heq4h0QAAIL3slwUHYkfY/gk2e0KC72LGtGFbk5tFMb1
3/UH4X/kwssETRyfHPOYi/P5XcR+E8lhoilXuPVU9Qq+thPwHRdzHN6XLbc7CYie
mye+EVZe5GtDqsYw45pjNrMFkBrcY0EPgXeTtv/SZ/OxaJCm8JdzANxuNZCaArIK
Qp9eOOduSakfMDt0Kezfw90dSs1Jdy9Yzp6RH5TqY5lEVj0xoVo9nIw+lymgGMYD
Fef+7OJzGsWnurZFYqeX9wWfywfJLdwbdco7nFMslpfyy9Oo8kS/ognxOdQmhWzf
dw5Ev69ePvVsWBaodBJ2yQOSuiXZsV073MNiepz8aMcqRHFLa8NeBYe35AbM9WGL
NC2sXfAw7ynEOVjBQcZT62XDNObBkTnuLukCZ0tRshWvaAPA6S64JSErCz9mmoh0
MS+Geyfp3Wlpz79pwzS2ZaShkRfNaXE/XFUntFAA/nD6+rRcMXruqIjOWlggQjjR
zVGFJVuk2QlBwHYipopFBnzaukCjO/81gIZ/0pgco5VPotk8UJlNIl61bVhBjtxN
zvuWd4MG68/kTWxMGuuh6cPMN9ZYUSnKgxfKduCRM+5Kbn07kFyua581v+nMypuO
wnLdi0kok8rQ4dr6GIAxnTG3GxXgaV1/L0EU8XPxs5zR+fJo8TOElhiqI87nQnMO
PC1b8QXRXUhOiXEG2uvUuq/A9qU8Un6yc5RPNqBZgP6elXk3pun1q9u/2cnXUFU4
BG0v0GXOBRSmbZKs/ZM814sJG/EIfr11NKR/bOG+ozVaLlmS5onHCl2b9sVrgvDN
PZ36Lb/O6Tzq/FWTVqMW0rCcFyksjKpu3StyL9L5Xx3kTWBx4liHWY4sqiyp8vZj
n9DAJzz01X/Ynf1z8X0Y/LvcqkFr1Pf9rGBCT5HcTJxJw3Jw7qkg2+Wm4fOLtCUl
V0pDqKnpxZVa/n087Pn7Y/P75qVrbYWrMAsENgfJAX5fUtB+9b9I9hJgeymoeZ1F
HZ29MaEUzSmFxl4ZdwbQkA3ofK0mwEWbiOXwo6xctK1MWmBVfbgloBFhy/t0x+QK
UVvWqTpZKIWMZWa/5qZOz508pyDmzmpLFCg2Od1uigrf0jZ1jFghE6eWBJaNRGcF
b9ErKCe6cPyMdi4jdgQgj6Dy9HSDx8PT1cuVVeSbOEWUk/inrVfA8tDOZIwEQFDQ
ekLzZ7lujmBbxEQ8DyhcB50bXiOt93NrjHD37xreknfKyqjGqfD9MovIuZzGkI3e
x7xkIp+2+ibWI2c/vekUFH/ltd9Fwt8Bw9c2c43qVpSHagIvQ2KXpE96FLpoj3k7
JHeXN/T01+K57MKz0PxHgAz9KsMMy47XGSwZXsw7++fi6hfGy5Y5EEYhSsM9S+lK
pc1oL7TcNcgOF8Wr84uWRnVjRi+r/D4VW+Gf0Nt65xmVsBl8XPC0ILCOhmftMT9+
CsOIoF0EVnYDnJOkgTLYSMaPYNXlTisGoSx4FEI0tXxzTKFeC/b/USb1LTnP693B
eGYk3jDhbct8H/tc0YDSJAJhjQSY4MVjNLpPpxrhZwL+icq9gKiehrh+0a1jVugw
kWS5aL0TVP9P1+oyHhFnIeUvGPOhPoAgLYQSEbo4OTLADTxSlPfgE6PlznkRU3dv
MS3q+5R4s2gJgh094ENwpch22t2BmCwKcigvp6mocw7yJoUYO/r01f+mEbVuSu9i
r8CFLL4LJ0Ol1KhNbeegc0XR88SlNRFU2luC+jyuIF/NK5XwTXgl12bWTV/c5Gwb
9HhdZ/rnXDKHFlgnC9XUFlDS9xY8VU/5Kx09H+PZWGfAVgn7JqqtNCNriC/+2050
RYxCEnyyusvNDdlE6Ipd2Axr9wwHJXdRaegbI5/VpbT/4lP5S/YYYSxUDljv72V6
iZvyj4flg8Ry4p/+CqFbonIzdDQE0w4lCvlAGEOtoA7FpB9P+38sM9+VGxWVr1gO
1joJK5A9lQ3+tyg3KA5sXEWTo6GyOwTUknIKeHXdRc0XyTtOfJmlkF+OlxZyTDrK
7QfKAL/yBoMP3V5L8/tAwcEA/nN+l3+1woI5axI8VuefPr7c4d0ocmrDBgU3ciH9
uFVPcidaffNIfi74qV59EZQyvnYhZOvGwilBPaxcLpX5adhtlUC4Rdya9eQfrXqt
oxpGRouFKHPvnfOK7TAruhJnEXqyPjpCsFzccowRNOVppsyEKM6euGUku2B6lVcK
D9evPa9Acg7o/CTQnQ9r8uLhcAKlwH78duFBfyb0ZlZKBqPK0p7i3C69te0pagPB
vcM7a7iRsMXE+adl9ChlDrOggCgSb7wqziOhtcse9OOhB9c+4JHKQ3+KiPln0kdx
4ZGWyiPB5pnU7zbl5CouU/3BgzFENcIl3i/DNNRI10ZNizwbK2xFWdL6dY9iD4sq
edhesffZeYzro8fkoPgGBZrsNLpwihGBGDpE0ipdz3wWT9+ppWayxpwQ93dWpUIh
APBq+b7CXo2AjBjOcvPx9hzM4fKUIfAaem5b93Cx0y//FssPrBwvILFuZ3dMfFxz
MS3wUUtoUNaq3sBWDoUXWqMeHW0g0uywc8Nge55jUXmpGozTOA0oEpS0IGKqEXU3
3t7varFZWSSftxJ+IzhGR0Vohvo8aCgONEDN9+BduOxxyAbc2RtwIaV6aXPVLMRj
BYWcXLVdpF/hYQqoI8/fquuVMdfC6ldx9G5/jBFrvSvsem+v915vXqIhC2TY5VBv
o9bs5pOzgJFDWKgVntYHof28TpSb3sSonxHJCxDLv5CPcUnM+KSzT7Bh6b0yMNgf
75Uy+N76n7CurYys6dGrXxRo3Wi0VYIORNpzh8Sy6rE04FE9N8+YtWUzUmQjD1aC
YROJOoD7YrGD59DyZ9qtxtLVBt+UwwaW1w9gXl6a6TT2m74KbOIXNTpTKaB7v3Eb
/f0b4lPzZY6WGPPl3slbIsakObEz6rQPBBum4SNnPuRGuIq2F1pL9fsXJDhrjHmk
XSZDeoMFSs8LYswLFFM9P9r45gpSFLIU3FWZNQ5Hjy9zvV6tz+rb9RTrK++RoLsT
RW2/e2vnvZyjQ/gnu5FZr1jY1T4wpsqFuYlufPeno7Y9AhXtgUcxKA+FMwL4APIF
ITWKaa+nBJtWup9H0l/OsgsXex3zbOIb7ubQvCrVU8hCpwTpu7YeoD2UwShW+Ftv
cosEw2ht1C9p+8s6Bad1jKFW7ChgEGgOpZg/G0+d5Z2q8tcppoODhuq1ZYdsjZsL
8GbCpbH+XZxo4Nvj5eYA+7jPaJkRjuKKkAFV4lPFH2RoIn19x+iiIEOKs4IGHt1G
BaWFmgqAet2z/UEXmFFOqBYUq6KBJs3I/PiWFi+GMmzMuo3KIx0eO0xHRDJZt0Gj
FOXhhud0rko8UA1SPuQAlFDdbXEaDd+wLZdr8odGTHfvvvG3naX/WwKQDUNoCWZc
NyVj2+E/k+0Trm9sr7f81PuXxxNkwjtFES+gmG3sx+jIrSPUWkNAlhcoMPYCJS2a
CUWQ6Xi9hdISI7QH1fZLhfcM/4AmUtp85FEx7Edo6xbANjP1D+Ajmf78tZCqCkYu
CJUaBoPQ7T6KEJXA6giWilX3F3PzbNmLdPPgD+I3VpKa4vEeghPmkPNRpa6cQRhP
QvgDz+PunnZyldMOyBrsr2JFUdUk1XoLl/eNz0OlUI3MfVnaLyBpioEzOj2PmfRd
RhV7sIJTscV/IGbg2gSAD16p/VcBYnkqJXEInVlpkJORAqLGVqPFFHxRDLpqlj5/
3M058ZA7TpP74HMIA+Q95gBJ9CFsptnvRT9IbYo+FkDSxtvD3j1m31t+08T05/5C
KlhMEQxzRGg7Vta5z5XN8CHX1QzR3devnILbhedoR9zr1sRVTOe0K2TQCwzg9faC
gJCaGs5Vmnv2rgDO2gj+mKfsWOm130icHOliA7aCQNvygudl7CqD1Rgbd9Najs5B
ZvtXTn1NtRqZqGhiOR8885uAHoktLJeaxzgMAG2h9albyAmXhHVMoW5jzqp1Dl2u
MQ/GCr0xmiKscpnk/UwjPpMxjsunny/x1++54tbAT2Cxt7VhCUiRUx0et8awDy13
agmg6cAiafPDTJJ5BpBwXEC/ictYG0IvC5fqLzXeKOU9VH5WdLG4KgrEk+BHRwYq
qgeiaJ2+xzY37c+WVL5buQG3ifrBgIuP32Hg6B1IDHlxBeVxyYd6mmyLIJEaAOYm
EBU06FZ/cOgpx5SeyQMwMeYBkvmqXRJgAtrEluucVxfj0bVlx3dPSEvN5D6ldp3t
0u4Us9zsihWQyC4smh2f6vqxKlOGYZZXOUPaz41XCI9xdF0CZ4u67HWLpBD+y19l
qLkZvXk9hP7XzE/hMWWV+PemyOEsLl3L0gIhMryx+xSiAm+XlMWtgO1ryqe5/9a0
Gnd83NdElqzaChJTAY0PWJYjOx2DM/wH/07UlOXwVbioRlUWjq3I/2R23K9kV0N2
lNm+wieKnq5OD3qY1Tn64Naj1w/PSC1VkEpG1a5o6P+b6h5B+UrcLwOxCW3AiYz7
VUw8rrzQT+1LotUUA5N75mxhckmEKPLJ9BFKnDn/ghx/p2+OcDuTp3VOJbA/HxwO
CO54zWMju1tV2ODi1QxPhfwxH2woo1t6hMk2tfzxy7W4bzY4kFq6cK+cWlDTwxne
haNvm85w+92DrUmg4H4QyuCKLeJmwFxi8AzCjqpoZZ1covSx0nDusgOCBHhFvjVy
TfcmS25lFJrspcB1culBCB8tWQIJ+HySkOaKwA8AhjCr0rjmPlVD3M37btBAzCXV
FzfA3uUZR0sgz0pr46eZxTCRRbyt0TKcqcPPFe0nHPXo0icdwnbyRJl4vCipmPGA
U6IqSPBMumtRauozqmU/mNOoaasiKP/+b45Sa+t/AdqoqZT1Xkr/4e51NzTbNEk4
aazkkF73eBkus9Pj9AuB+iXsLhTdV5IrE5WDB1Edm/iHj84TrMtWDZqxE0QQrAvh
SIpFE6YmPE20m1xAsjT20uDl0Rt9KXaluFjlrVhU3LlmAJ6BVdKfuyLYbGX3Emlp
ZCPXq5uTeBNzRoJ6d5UFFgNrDdw7G7fcpX9PRXK4FI8owfxkyRntdidjBewgqjhg
3dB7zdtzDM5QAE13RRqdv7+q0uvnBvh3J22Z54t51Q6lXPK3z+Q82Bu/lO3/EBum
8h/cbUSrw2MlmQ+4ip/AazFb52c2aQ1z1Uk58k3m+wzDW1dRBy8/kC7GLRfhMAmm
UF4OkzOSoVtRbmS9oeBqT3ERTvvU9HlU7jhzhsoWR96Tq7RG3Do2YD7GOlCT9qJr
ikr0Vil2gTTmw/m8HknTW+v7aqHumhogFwq5cuu2ZjOVuD53FulH4npq5cue6wGE
j0KhjCOcsMPzJKH4gl7KUaKEf3uIipyE9Ciq6GapoXLu+S04TPDL2Ermwr+HE0D9
k5ljB2cCAqYyOIM88nW9SuCV6lxDEptSMEsRY5sFeZVYMIG/YV4MMlRfV2o9eHfA
vnY4CvAg3AjW8uwB8/jBfKJ6pKk7fo6eUg4UAm97wmAd4M+n/2OJ6yc0QdExj3FM
j89jRcTmpHIbXIMNe6xo8VxM6JcAChAPdmlZ/1YR5ZESP9apyVt16rD1kBnZ1ZHn
2eScimLbJu5quvCq14XegeIB0x1sQTmjUxtW2rp/qS1fH6k0rQFBniZnzStDLsRI
o+jyUkitiiakBpmJ2RR+kMFvfI1oVdJ57e4xZ1YwqOuuUbgS1VZalZPcdRtTH8iT
aH8ZXL+X4Kyj/LmlfUG3+jWnkRN7ncHvVybjrsbRuFqDPMZ1m7ISMdHrXzJr2Iuh
L3VdMUS74OQp/Xc0lgfFm3YX4QR+j1ThfpmHO3a8OI3L+K3N24jIazYM+dJbHvdS
5r0M+t2SgTYofbdntSZ5uDZkaoLSslJu7WbIPzcg773YwN7PTxItWE+DFqBdP2lw
S3m1qxo0o8Q7rYETlRzqJa+zKjWxDKPeIiDNAypjRWOsxbX8lG3iYzA0OaXWL4cw
rfEEFFoNKuA7Daa9nuZIF2gyT7P7pz3yhWHAQcJUH8RBPiuvK12W2dWn3OPQdX1B
WFbUENlK8maI5Gnq3/+Nyl3WWsg3l3kEbVYxmhX6DfouMVmdQTn3nAWXRUcR2a73
/IUToDhPrCHPs3gBFAlLyin5gjUnqJaLiAPxtb/1XsaL5A8/4LpJE2g4F2Pr1qWR
vZhAnGraOLCmsM5PxU41+I/eNyo8KojdI62OXxqSQNSKQrk6U0A7QNY6j/lB961i
+Iwd2m77cVjHdQrsEWEo7KeCL+JZ19VpQItPcXXAYXP9olzozXfmcPN8Bq0Ixmhc
hRy7706YYt9xcRvlqxAWGovuKf3eKhx0Wf5sKleK9JEOsH5kjXdDVD4b+GQb4aGn
8GTf/GelhyKVAIAXsaLMXkCd3iSVW3Ec7/y3ExZox9prMOmFpr7iKjGA0Vn86jru
CkrG7qd0/vqom6qubi+i7uVbbbJqBOqKgRsYs5IzcmmO7S2YCg7td6IDYNeoDNUs
KAm99AuYoIwGHOeOb1uwX+GjG8s9WH9vIFF3RCNGyf/NrNnw20kByHmEt0VltA+G
1zspDKYtRiaA4IHcvYYDhE7u75zMUTCimztNPDNAwihGmZFW40QhnNPNbnKnXdFs
tXVhtpGGqb4HhWbUSELC9RuCJh51oaONzg5KQqbhLjWlEzUhxOKOQBwGKlT/alQr
maVxF9hcJ+QnpwsCltamVu03Zdj19aQaTGl0mVKrhClolJ7nCKk3RV/CaWVfR+6e
zZY9AeEYpxzw/F8rNln9zdoU9G6nSh4EfIera5G3yILX3TlbHGXdlqc58My3JlwJ
+6qqaFArXev/si3xXXpbMcpNY6MX6ImtM52C04HkEopuvIxiggx8cHAQnmOkKDym
7iv02EH4aT02SDab648RRVqXFMVNqWUCKeIHf4JOMiSVwpb0RitgeASDSaVlcpji
9/9W40m1pbdaETnIVmelVuPQ3Ybf6n5YVlY1CaKwVo+BhvxDjnv+BssewgdQfdQF
2yJrNOK9R3Wh5ap3p/YSiv6t4W+PrP7hh/UeksXYk+J4ShTDQJuuzpw63X9D8Ef5
9Be707dLhIGej281cTcTDajgM+uE6egI3dmR4AmvCcphTei/1gxoWeJE8ob9N7EG
Q6KTQO0TV8lUheEO/1dsj4xh6MXlkUEz+Es1utcWv8L+r0gmwvzOBY8Tlim8axtB
cqD0eQNXDFtpAF+dtP7Kq4SszDbZh60ibJNJD6a/9/7nriaJVewJDQxVnSrABYOy
w5PIVpwJP9e/QFHfUviZR99XhiAhVPFsFyTsZBuuVZPnPH3+O8g2W98kNjodS0z0
chNzSL5+oX3+CCzJrescKxzfYfmaAwZuvCTFLW/W3RwTTSm+ts7TU1QOWqRIb12j
kgbDX6kdvICzxgEFJiF6ONT63SAkbuDrkksGUJf37PFGNSqu9ERQTmF2JfjOygrc
w+ZzkOBIk1jU7Wo9NHSA9ZF84Cr7AI2NH+ibtPaW1jp1lg8mkWtgkv3OQQzl5CIu
9M37BPVqTrn4VDKmc5e9YDmDxQ4h6+xxXgYUK/Vap+EBifuSdWUB1pyi4ZEBq1PD
3zykM95wD+HtmytpafhxdYvMvfFJps+2gS98//691sbbkaIXpThtXnhbCJ26xhoc
CpyqH5bHn37tkK7SOjdGoWxZryKS2pSzoj09VYY3s5BWNFX9ysyVHOkbY5gjEkF4
FirIbt5NhzZYFepdwwAPNV+A/beeJ/u31OFNSidMhE+ejVVcBsNBjlpVoSzNMACC
ksv+zB5Ur/w0zTrFUmov6tq81g+j8hlRTyYyLtHq5cQ7Ruhd5M7XY+91cx3sKGRA
c0L5sml+p/OSoN/h1HUSS44+Vl93AfloPxr17FVqRT/qrj1sb46qn3eZFsG8RbIC
MLY3jLTaYQ5I/Y9EnKtNBXud2mTx1aZ19zz/aQhRfKpsfCM/WbH7V7Pildz/+xRt
Nt5Wvuq7cIUCE2t/pJTGD73eF8GrYx3WlVyHuR4Tt4nxvF15dMZfLJgZmWva0zau
KpC60aVu2ID65ZECvDe2WdP/zFvVC71mvSnqQC97hqmRD93BLSkR7gggvjwHYqO4
YAhJ8xWeXJjkgEWwSukEwNzLX9M8VAByswf9KcqJeAeJEmPiIMwXN5SGBeepyFcf
GQUvOkSAk/hYRku2tXbbnRHBYOuPxCzP290GS0zqQJNQKrafkYzpLvZXG3Qj842/
a3m65MyczlPLy98wlM0/iQXZ5TO/4TFeNiDCX0iSw26u+WNjSkdow+12ePz1mTd/
av3+oFHbnpi+c8SV9Oi3kI4T5A2L619bM/4R3FlMdTr3ltCYZnJy7Z9FQvZpnfKn
zCpcvmN+nltY1I5Hc6XHDFthzaWlr2GcC30lWCDMtcI7EqL/uNu1k7rybIWsJAOx
DVHGLsD7ZN19up/NIV0kO0Hd9pGZfEXQ48jbMZOkM/3CfPbLqPD7YjwCaz/1ejz9
o6xsubBTGhwxq+Dx9gwfAnW1c429Od8CGN2jNecZo+bSKnEit1Elz0EdbJM8wFFw
6j8q58mSTk6D6VcToKZAWykYgEQmVml3DQmG8vA2L3K4iauXp1CYoJXJQdHA4ktt
r9d8wNuVbyF2+rQC8Bmp1kMtti5HOnZJfQ1A8NJYhTGL1uolmlhrYjswKcRF8xzU
CxU2PviLdwv4PH2Jc97eTN0/at+uCVFFIg6JeIj344aaySUDQf+nUC8DJURH2jUH
BIe9o8+vZ5hFVUh3AaZqqiUe2qLEkSNDKl4wwlEsT3aNex2SnuUsLvC1TdgHLIB2
JK78kI9VcH+WJjTrtzl42zsLFQmNLD220S63v6MzY6dV2fMnL6pf9MBB56pM8w3L
kilstDIXFb9Td+hvTMjFD1yz0jX9fd8927u9WptaLeoPWzZ/9nQ5wWlbEcMRBAVi
vcBDf2XQKCmlnbhzybvFE6Cb7RohWy6lBKzra2nUap495y8yQ5lRmKGq4tLd1UFo
dA+seeTpoIq0mikbArefVBZOia7tbLDNTU9szrnUul9GgbmeiLxsKS3n0SBwXNFa
AGXJ6BZkUkAgMirrfMxUEUEin6YfYiEX76f/loctB3/9s5cXxcDGTo7ao/O/i6xK
zg8Q8H+NJpu6vqQRWmtquoXNqTYTAWcFDxaAqyXp13Tb+a5h2iMMCiF/CUkEaDFf
oGcg7b8MOB/pXbzOVyz6sj2wghpopuzxHP3CEzKkL+gnZoJLnW4yBchfdDH9WNbW
YlZ/gqpXJ+veaN9vN0TfHo2OALwiPirDAqB8KHY/gX8sSySkC5h+7tZeAwSAp9oA
K2o3ZZrXY2+BU9LuXnQkoPp0Yq+BZeSVs3ZXljhvd7Pk4nzQVsTwQxDeteWB3sSn
3VWDHIYOR/dDUF2uqCFUA/Gju3n5zHwIcoE9TApJ2TUGJZ7z2MrwzHEgNeZhUEO6
fUsedMFRHGW3Hw8zypWfwNZh9WJlysHUTLVZfDacYwwao9uY+nn3UMU6fnBCM7B7
eztrGwIrZvxeoI8zLZhVH0QvVElnYUbkqSfyUos0rFWUKeYU0DtXyRlET/tkSiJi
wi4NWjqI5kRxgol3RBLXKit10xii0sKRRGqMxm711JgYN3z+31bT8S//fhyFrcn2
JI998LvgZdCPy+UdIMym9D3pjExVNhOOmIUtXPJDQrEE0Ax/Jby8yvoyMSqpagxq
C9fKI0/VTNYDpiNs1/0nFx5HpkiLuZvtaTKmyJeKPJ0O5b6E57PTIA3y/Wz7KV7d
RpCiuEpG8VKjTTRkpUK6itqruP7Uz8qIATWq04p7MsDs+H9YBJ+WMFjArXtfXi34
E+PFeUq7qtHI3VowU6yvXIKvDx1pc27emxsjDnN1dF5fXbafjCOCE1niyhZzJTBC
bJI6Dm97fQwNhNQsuy8NkaYrqb+Wz6v1scV6jRsUFvXj2dmwz97wnmxhqJ9q4+pA
af+7gHxiu8k94Vz8+2Cgj/BG6490VKzxKoyqjB3lTnDBhzqqMSDkub9OYKsq6K+p
pOlJhX1NuW6AiqHJerR/mNTL63hhcva1ZKuBZL8CMR76ILIsPb02iSpm1+5r4e6H
JvEhbssNoig/F8pa0/xq2txeELQaN9iO0v7sNzi8rL/M1chFATzPC5gvZamkmg1k
WthdkftdEfr14asFncXJHSKbGlG5aKyTNymb6wvnHlA8LA7V4dlymzgtlPgUy0sW
2dHS45AHHFBfFAfwfnzzLChE60yWHoXQayxUwiD/C7g4nm64kvaxlJbGxmK9H8dk
6/eXd+iIBGHD5BnM+GFei9TT57uoBNl+CmxF9/mEr1E5CQDlJe1ipr0Zf5q/S16b
6wQQBM5ADtpeh3NUueuQEUlR6OFXgfOb2p+c4up/Mo8qFv6j7skCGKbDKUaArek/
cj1TXQIYfRzWtvkwCWKsf6ZYeaUPa7+XlFquSnJeyfJ+NZgkVN/ERvPPRnN5bqTU
YGSFLNi3yc8QPxytb/WIC1RZ6JASXwamTfM1H9NSqfzQYy5h0GgIS71TMgMJUxSO
m+KqSZxmhF/nqVUXmm7dZYsa0FpOJZEfhZwaB380p6ckFOlTHvr/4x/2r4qIwK6I
Xb3HCHhxuO40xLfusVCrrZmrt/+FyxC1xETaYy38VbCdVD+V29BJat1CXyBo6ssL
Oen5/l8uyU5MHwPwIJsVFgq9h5S4sz4BHSmEfH2QEoB1toTUyW/GWOejCkbWwwPj
elLgQKfbOxn5qvik2H9dxW793gK/QK02VL82a990FQlnrfoTc3alnS28PVblVieI
1eijYEapJOFfnNjOAkpiFqRJuuAF7CdAWfdNYehxOFTrkB9GLLlXIa7rlY+h7RYr
s6KT2fbvq/NU8H0C+jU3Xeqqa9TZnDDfS8aCNJBcKKySP1PUWcobtINQPssPy+0x
4PNqcOpJwh1gz8KEGRJViwEhOg6aWgnqljqNx94FrXl9EEL9NacWDt2LM7TBv+E+
oJdRxFnsugYzXe//kfLyI0429Lt1ViReGmgncv+LVZa/bqGw0UZ5qBvi6NeRXID2
snW5RJh6n0MClyzC++vhHB0bxaGqvQ6lnKejYqBvWOdSy081s/kYVNwIi/E8hief
1TjE9zRKX/gzqm+MVKyL4Ra0CRuOOh5Jt3uoSXBtbStQulovGXJ/WmEASOFhCNIh
vhc30zq5vfgg7+3qMiHR1hHegmdVXrlRvHk9gjimeTK8Z45fRm+pGsxD7ToY8JRY
FSeu+z6PuoRozsztbA3YR51KOAz4sPlyJzX07I/ARQakGsgrRz+mWyFJJ/8SPRY9
au6cmX20w84eEKv45WOZjYlrzbA5vPApDSodBKMlyddZV4acb8R6SATYsVt+iXGS
pS7+uMe18egf2sGRzijG+ug7X4+ngIK/GNtazI/Hy5QByHtlTS3zskUXYHjrjgv6
GiewaV0DzT1DmAsg0Dp+YhbA9wRuRhLs2OUzQgYbvfbACXaybbhOYH3DiTjnsQoN
WpaQ2eCtgqlSugpqCbcFJkpDpQ/BYBY0lxAfmKi+ebMeWV0tiNC9uR6XcV062IDA
UjBikNLEqGv9DEw+3PMOBT5j/My975o7ZWqwBhGkZZm6W1UKYDUoFh/TEKI1hNbK
1OStwUkWkJNfxPXnBXpila2km2y2U8/z92crIHniMSUYQ7IldNonQJfnUMVjssBI
IqLQYBfrXuWM8ecQKiUYP/UHpvNKSXDfSAk9OCs3MlsEBGby49w9hG2aXXBG3GM0
k1qHyEtLh5RgmcZT+jj9oYxbotiQaG3gig+vo6j9OQwgxQdiQH73CIM6/jZOtBUi
mWZRMoaodUi147KeMf68MdjzGftmfNlTxp2itcUUmlLUYDTGCV9vDKn12c/ChBRY
eQJt6Mz6iSX4ZWgh9G1WVnrxGtbdhVGPvIvWtvPrsNLcUMHVRF4clJFTjyZBWtyM
tCIlpbA98SJDmfXHdhh2rUgbPSKzmQafedknu7eDzx1JXWN4kzWyNVsN0sjYT28i
7DykgxFZ+sCxNPikdqu5ZdquycxK/l5cyn18ZDf0PkwAFzbfNXVBCSqCzeY+rTl6
jyL95RnBR7qaR/VOQt9K4gDtEiUhrTj9wAiOA9ghqT0vfk8oNWGRjzXgAm0WqWKh
NE/LVZbreQtOgSPJE1xUa8TWhESjZCQaS0M/uaJpV/5uiK7HXfqRi6yZMnkHgPLV
orI6O8MpV+rndaYJ1QG0giZt7rzybbPqL10kBbExrh5+KKHg5194EafJYYLaz9yk
lRdiZTFjVa3uMbQ8YwfnVdV/8R5Q6owiZwLYzvR7ZzsTNRV+buw3C/GFnI5doNeE
BiIHr4vCR12MvADuyG3fFq5DYiz2NYeRXEniPMs6S7N7WQoKLfNs949UBKYf3x9E
VPrvjEo+KE8dc8bR3ZVtvd+CrIyX1QcJ4FPVrK0VBpL3ZRzqNM2cu30ADMPK7aHq
itCl4C+UvbBGWSjGV497X2uh5EAZXp/SB+42yXGHHBcLXjGXJOV1fOEYtmCC7a6G
rX6+Xvz1qiNE4tldgO3mO0xknfJoZil9Zc9oMe2NpYyqYx1x6vKjIXMjY9hDUsdi
rYkoP0wQ1tga8auCII6nDzNsHnnZI0L9zVvoQz8ezkuKA6oarWfkrnM5cy9QoPSa
U0IsoczBiMcPmyYvcb34Oyu1UTmUAUvtUgtx1HETECo9EJjHpDVVHiFvdLqsFxhO
2m/cvZYlj5tv5Mx9lpRyYFeMHSGctd4OSGMwTwsiaxluqFPxRYToNg5nWvxYcocy
6t5SAP4lsp9lz8aCRG6uFxfePkn6B9gjtZsmpJy+KaVZRKnupK5qiGqxO9e5aDKs
JnUwr8KWbkoRIs71vzzIOfAbBhUR6wev2qKklKt5LhH2RrmXoi0zqeMzurygEujk
4ZpyELXWDEycWgcdoyzo1h9asD/vtV41LNi9YRMQ87dYxCvrdRQ5ufGjCNUfP+Z4
w/FoHtrYYlVK+4RbYmAJ9vqG9X2E4wOOOUpbdCd0MgqcFebwANbaONom8TwL9UfU
b019rlNnAPr+hXkJFq9Wq1DhNnns+Ta4eJMnM5fOOmXZIVqzZNpi9xheA4/PNB8e
IoBnZiTrhhbN4loNAgay/6QfQsZi6SuLe0eBDq4Lhmk8hFH4XVWOj4zwBawMCDVg
rg+3ULaSEJjdmJK6Gtn97YIqP81rl8hVHfCtmHfBhiVoTh7jEyzJB1Ll4a0Aq7zZ
ijEKD/Pu3c8zx5nnhCLXy4gHj8ohUWMFTRlZwd4KKEXFSdaMCGLuauv5NFg04IC5
58qWLeEHo19gRzXNLWKJqrlmvHqz8Wvcvlo7ObILKGNui4YYYXHYUfNskVjW+B2y
58u8B/bMPCN3SdZFOjXbfTbK5YOHZX1Dneaz1fXLTP/THUKAfscQmltBRy/9aUcQ
867FRrPhVGfDAnom23pzIjcTosYWFRsnjKpYkjOYFyDsy71shr2neDxE9s53QpAe
nj/GKbLr/mgT+um6T88WLSverlOlGCiGsRWVnRMP35VFO/1a0NkvZDxhb4aJptc2
SjO3r/7g38U35sc3IfkpBFst/A//p0tjwhjnAAFjN2JgqjyUsEfEVrH7hhOS3y/e
ikZkHEeVvnniVmGvrmKmPwGLN9xUt+Q2eFM7FuunqOjUBSUVeyPs6H1ccjotu+yT
2EG7aHtNAP+rj6OooSZ1vD8bJdgYDh/KN1CtkyEX/6W58ZlPN5RBjeltoF88j9y3
eJUC1fKEOX+nFLdGpQFLWeYZgod4acjwN+3pehaTgZmLj/Yq7n4uxjHq8AlAt2xn
iMbsR8ZlFseWnLJtL9bVj/J7lROfxwXqhhiJoNiGSG4TYwgiz98RPHxZi/eyXsiU
XzY5d0zu/hfEzwjgbkq4dXc9eaTKQeIsBnSQq3AJp5p6VoXNO8XSu2I4vOP/MaRC
JqUrNjCYcAZxkz6XsRKvgUFhVOP49TOXvnxmqp7f8v//l6qtoLyNWhMvLKtIn151
ihaEJHHDBE9GxgZX0awmU9r9aUtLJCIFaRb1Sevt4CD/EoEKsH9Y6YgGJ7K0GMdT
TFJpk6jom07qmun3MSs6iL5p8J+v4pxNutOLnxjn9wcM+EikZlcIBsaTTBU5PYdT
cwlCGtn/CiSNy3FUhwi7n+dUMOC6n63xcyG7quayLF3OB2bq1yWVcWuquwPRWfnH
9OLmLvoABLo/8WI8T056DMwQJj96a4qdTiA9fDWiT8bGVnHwcrLzcw0iPH3tI8RO
Scn03JqOBXlzTIN3/gTfOUgM9NxWK27J6+8YZn7/LpAJmL7KRTVlz3zfR5sTjBas
vAbqfftWUsaZ58opcp/j5Ao+Ldoi4JztN6JBVYidR75xSqtgInbGf7Se0gvFJqI3
KB9LWGQQ/T7FBcUTZ3U6SCDfRM9dfFDjM5fTlj6+dj+dkwmA2vhoqRjAIFrV2XuM
nHfg2t4H/68h8sj8cgx6ziW8icHFBDsaMTDQerxfezJSKznauKbnCwMTS9G+RNwR
ItJaSWfXZnHJezmOB3tLnFQS958Fe2tUhXj6UiRkIbKF/Ny1tFrEyWWNqYvgh/fO
RPssR6bD4CFx6LuP3+6au2RBcmspmwRDy91PEa5+NfbVpc6YHDczP2ezkvv7MpW5
kwIAzRkCOgK5tcIF2/R4hO4g/co+CH2a+FcSEf6D7KCD+DFIrTYiBg8tDtxapLre
7V0juq3wMg5a1fFxddtmjMW1h+MQp2XQa8RX6BDtEuL7hK2Idlq/7Q72C8sj1CQm
NH8vbhnSNUkwnfHl61uS9m27bfKwAVCwQdygrRieiFggTq2aKPUumijP3w/FlFQb
9n+u/AVvKEMoUbYWuNWb65GSoDs3seGMvIZvWyQf9bRKhpVYRqXdWYAEtBzKWuti
5ZAqP8aDIm4HCoAhhHkfloXPNs9ayOU5D8Dy1UcGwgeK17rweJAHTFkjtdyd6OXj
qtAAsEbOrsqAbrImwe+2GKUM48O3ZgISlakak+CYOfASTTkCFFsHekoaeGdmhYln
pBxe+QkUdS5tpCzfmGiZprKKOb4HVYBYkSawZnOS26RVQXr8p92+n5I8xror05Io
FgXX12hsrEdOLXjbo+E2LxBQahIajJ26SwUlGdrT+uxAG8Ni1bsRZ0b1e1RHTJca
9e9qar26SJCbnRyKd5ifS9uSakFXFcjzyCiY0sMGbe4wcASqB+BYzfLNUQPCKGIS
zhRLjL3H43Sj9fthhhLiWhTsyHDsV9TAw1b71QeAcT2Dk/s0IjaAvlOdDbVBXkuP
2g8QqfUsThRGYDQQO+yu4rqgbQ2FffFxRCKzAKO+9NynPeJmmS9kHdARuU/yu/HP
iNyezrpjDGI3xeLFdC3wEjhQpJ9ZfqARwo8UR6ET7OEi4wWHSKEFRffhjm4q85uw
CcKwsOYki5MylHrP4TOpiTZQlF7kAtCFcPuiNsq2Bo+NAUzUBSQTk0r89VghdqFM
c7K3k4A0FO05paoHYMcDou2MWTRKfssOlWLiNZT9hPYF5mKLTNjgeaJQp3MzY5J1
0CdsIaT53Pfgx/TrXQQV0y7TDtnZ4LD4mvYqI5TIolmuk2oU0GuagKSrM4yMlnRa
QkShgB4wqYbHHTB5CkjTpwmPfFELpOB5iSygCm3v+atoW6WEx0kWJnUEbVrh+I+3
LibggaKYKnFaNT6qhFqWRGy+Qiee1MK3vCPV8aKaJO8JmJELI9nm+7nk8bZnn5aD
Suk44q/rfWQyWg0Bcm58eRg1wop19CZwSB4A4HKnq+FfZwn9Fml5rsR6MHR3Qe3m
3Nd7/XGZDOTTWAxW29Z2jHHCYCSHiKHG059ylw07xGNDRInCnvnaWpjd8fsm76sW
lQowyTL1dbrycDCeUnPynyeP0oFUQxMip6iCEQkevxNAwBS6c1wcs57j2rA8qDMw
g9lvwnmUotOBqbUNyE4KpPmyf3SEKgGXVoWvkARaCwFi7rP+8Nh7A3l9YzbVQQbt
0Q3PSK+1j+NDOqoKjC7fLXZyOTwqfZ9+hEIUu5noIhFh0DSw3f0faUJMTSOnbv7k
tEe7xQgA91c9Mbv7wp+gGm5XN6FlB3n9XXvZSyAQ90OCabG/p0Ir8kiIjkbuAm4X
fqlE/K0I1jNbUkGDFQdqSWwbCxkVqGDPtlJLo1z6iYu3IYTeVFhs+8gmMG/ejjXO
lPEklep56+vQ813expEBW20OTyT4L8yC8XkrKXzLw67iUGOHP8XzwwQUH50l6aeK
UF2jZx02TsiNs3IovhUkbxzGEp0Wtxuj8UAFAmgTo9tLL2++4/fBVOTLr0lTSWTx
9qZbdKmDF5gfZ9IIrOOLgNhTGG5YZjnhMIZuBAY3lXIY+dSSNnGRDHcEYyNZwWu6
PEoBoaUiEA03rjfuKUZ9FR52BQEe5EAsYg/cIqb7AhL1PmSL6x4gfiA8CK1T2yOX
GYq2uvYY7nNjFfrNxYD7h3FkRiEAzetLkKg6K4StSxLNPKfLgM+PwHFWN4FLr5/E
fbEor0MxjQhpxHxf9Gl4AyNvFEWOqrbE+pkie4DNQDUfp9p6yaGqBNZ1od2RopPZ
HlmvniCcaNlMNlP0O3MpgxUWu5SuXbp7rEerlw7+ZhszxXhWkkBllHcxfNWHYaD5
nn55nRNafc44YDkmqariQqHiZSxSy3hDk+lvsS2p9SIl/DdY3m333LzwyneBMiNM
m8WbfjkE/SR1zSg5GiNOGnKxFSqHhKKTh6eBV1noV+CqKOvCwQtm3ZiwrgUwgGXz
j8y5E6En/UDWtNdLxx1g8DMxo9eupRdalOEEfFq+NDipT3NBfhH7A90JGz3x72Dn
92Ik0G65WqMsxgJXe0q9Q3NZy1tDvAQ2N0XcRXUKg6ck5CIsjIjTK/LZEQ8t15ws
6zCf9PDtbsorp7NXncgBc1gtIAUvlWEHr/93zjOKI35E617pRMv3J/M81ufrANVG
Y6+GtiFGc44OKdUk40HTo9lchqeLFpR/bjVUBwH6ZSBnlxj1Zk+qaSAXSt6Kq+K2
Mz8+eznXZYtGcTtDfuGEJMcb/GXEiLWO+b7YOVHQ6Xk7s1azAp6RMN6ksY+TCcXP
5EAjPY9CV11faXSFTWIwsVtM8+nyRoyOR+TtOnF1mjF1F2e2xRbrwufe2o0GZQ9V
0F+4yM4/mmBw99M5mPv28dQ1HybxMxgjvkqbNVJ7PoQjj4qgYUsC/tMaR+30jPLX
PtNvufvG0DgLGc5202q7rcVix8f3eZO0KwFthHHmQjzWOts+/xPosmZ7X1pl8MxY
ebhrHGo6THONOSJeFM64KgxRjsDriTdK9pdseaVzGNrs+1ToBJ0kSA2TL1IECmZd
pLU7+d7h1j6vW0s1Oo4Yd9+SNYZXq7MJwIl28rQAt19IA5nzgI1zfQ8eiCct2lA3
zc/H8dT0asWV84oOkrLIs/QYE0CylUOQLpeTno6H1POLTbZ+H0pY8X/TLwVKv8Vv
lH308lYkjbwJi5vmzHJ0yZhVLbHKkIdOT6dLc+JAq1jLbvXYCFis+aSrevJjL0ff
PmMC+A0X1iuRsFBRMXjFyo5f1cCJQ22ip0XgLDEReC2PZ8rF213tauFai00d/jDk
tXOM6AjQB+qznmDje0yQMfiQ78CGHOS2FK0TZKPTYvAdObjOOrX77ltl3zxBSvXX
beQq5ir6E4gnAKRdjuUSMwBEdGVKM6TfOr448PWgJKJNnYIw5i/v1MybDizNtHjk
H4GsSzu+FJCOQPr0QaMgLKGvGKWU5xoGCNdF8jNKsd8mNr/HEPkUQBF78OF0LlwC
t7PfHkqwFu+oD8yDR9ce3Bc1/RnIBXJJSTa8Qchl5+dBl/Y8EDo8OyDHJCbcvFIZ
WlgpVxfo/ozsGrUuUFyfhoVwD3gPm7NeXb9esn3JVjWh+peCDCtJq4F8eYMImv/S
wIKOXWX2Wcgl8mH68fXZwWXp4YaJQG9oAtng3PZU6sWlHKNw0+5cd15SHJCl8WJ6
+Rouas77Ap2L47Sbpf2fHijCGUbOzf+DgFh+gcsY7HPdN4NN2e+MetqmOKArN/ZH
FO2k8zJzCe1OVyvZqRCu1DX3vRaOqp+FX7n/zhQWdEhhjXx7taOuSOdLTgFM6oR7
6xJHIOJWoI9WhgFNwS/5VHdGZkoxXmfgfhg7g5tZS6+TDQjV7qqSMtKo1zg+X2g+
LmLN9ICrKboEmdLMQ/IX9xZ+TclMdC0LBVCJwiPXCiyl9PHx49JnxwdhNVIQeaUH
Odx1PpbzkMS6UYmhR1W7DDwvYXuJSqxxqImJP/mvjPUpMtzpamC+aptT0yfSNjFQ
CfkJTVgHSzij1WA19y6cG05vPVQjft+aoCovZ2XOUcbAzYWYXekuc4IEmi0BESag
8USSg2Bj8Fkdta3cqaqtbPUDb3eFYaqMdO7sPjCGTz3QT7cFmmXipxPiegNz99f0
oo8f6dCraPoK48EL8IH0xEPmZGerff9ZapT9O6fnhfzoyJctTl44tzDdESlMg5NH
rMzNE2yQuPvuBCyASUq4/oqEMqUJUnm+pGw+k4SXw0z9xdr03r3cahC/e/9W02lR
NOQ/EATblUOY2nFjcbrKE860lRYco0/FSAxxvsn8m9iw38jx3SmgYJH2G7oeQyuW
7KJDFNhJbWT69RwE6zumozEzIk6UMkobodjlgx7KhSJCam+mfnvbcIXr9/jZEwnh
j8APGVyrWfa+jrxaXprBq68jvaezQPeqQzt1mKxh0fah6eY2jEY+KxSSFUQZ2pq1
E5efSiZ4oxJHYi5UjgoU0dC6giQOuzbjhLBJxYbciNj0EBlrIqKoLMBYmHczhJaQ
D2CZeLdv7Axgwb5D99drWzxoveAbH7A1g4LYldFdCt9AgRm1LoL9X2ic9BHZl920
NQYEBuplClvEe3plRlFmm1BB1EunXpYi+E9HFyMEs0UmWZF/KF6XztpExhMTUax+
NC+ucrelhYQ8N8mHmgNCf5hpckUwSERqs22dGLrRmzo/wie9ffxv34SS7kTbXG8C
ZzO6jgv0NcI1z1q6yynpmaTbI0hbDFdKIqhQf+BDPa17CPTpEDiunwFZJv/3X38K
QgFjyCbb3CJkjEL7JVz/jg4x6ezsNjk3nPCQ/Y3ne74QvCMfQWXabUfYgWfoIvJG
2XKuGXMJfOvdrPTUqufFsHYCDFYhAsSkP6scMUA239I3ZGgXlggQEjQhWwGzW6vm
ZpAJGB6GRReqxby0qLcl3ahkTNGwS4vtfBvSNBLDJctCFe8DVMcJx+5vLDkJddzW
QPXnI5p/hTq+v/Zbaf1tuDLs1fAoxFSUfLhhChWvC+XLGcIx9N2OISFyMLzKgs3u
3DqiuaSIcE8//X40JE30m+l0r+aPxz6Qt74VkAWUnuRoZLqu5lws1EHVDpBfdbY9
KJ80nxhu7iNQuPcXvF/bgpy5ecA8rn1tuF7yktT7d8W80x+UQ8AtkTc82MmIYPZn
Z9Tuf+hCbWDaQ46NlW8ofzyREECWqtUtaj1QiN9Fp1jJDEhlkzPy2lvxiCeYLOS/
q0srMlvacFck8Qrh/5vZt/4SKdKq2FuN51qN7HTON22C/fI+omF8kym4UcOztePq
Uof+b1SDtGmzkyOkxfjiBqLluSWvxBF/BOIt87w/676i5nvd1O2H3dvEqzM+FH9n
air1czubFszV5Khww87Pv3RGdKFF6+FDYQh0pnaNZc0L1davvf/XUgkGB3olpfcM
ysqu+wRSIWQpH6FxGo40CY5AEb8ro8kBHXikZoq8e9ttybywl1t68DIPGQjKf8dJ
t8vonalYPvKSEp6MxSy/yLgow3XgCE4FD3SMFHKPUxLY60hg2Ts3utW9FRebpyoq
vQYBsZxL8x7HlSLXEgGQVJxVWcfB9BvWHtRnOjb+x+mr0vBrpG74Z6IpYjTcbE9u
oriMMU1hijhdROz7gGceAGVkV6ZBsHSy+O7auA5WCvdIWZcsaktfVgnGa45fybNA
PGGIxZSoRcJp4CPvQwTtrNa07arsU0BmuNuDM7d1l8mDPgVcel3A7vd+ZVhf6E0+
5q/xlFFimsBffi3zoyEtm0ZWIA5Y7vJW6DXf4t9NbD7h8wmMbtNbp/CWYvpTtoxX
Vc1eOawdKqiqGqj7gHC5JqufW/gkmUl2aNq10gSF8OC8hJ6zTYACHiGbn56zKUio
GZ9aFu/sWfknNTL5lrs0x30TYoRpoJofZvGxXiqqpc4jiBFVkvcUDNqJSh6MHe8y
q4D1ABkV8/yyt3feykYFP5Tb5oBVFOjVPvG/Ya7DA6b/2E8l7/9T4GvQTMArgkyE
geK3tbHZ93WhMDZgpB5Fta8t38EVGBn9SG5/C8W/Fk0MlA9WMr73q0SABqIthaVb
VtHj1y9x5NQGHB38n41KTL/yI3t9BNXVsiSTqSRgnM+UO/9/4NzR0zHHWFrdxqie
DbVBysQY0/YRmgAiR/ddIJuOGX7iaE6j3pI8bY6zqSaSQnUbQ+qGiVzeNgCLoDtH
eOEkjne7Cus0kKDhb03MIlS2hLAH44JXPbfvjjrahs3DoNYZi1CexwjCWj9w0vWx
FdX5J8ClQrPQZPw74nzDx9zkjFqw9/82oo1D8vdmSrHf7Ta/FrKQ+/Jjy4AG6dfX
Vos+Nf8Vf0pcVRfsfAHMZrg0foskRUgjnffWYJLD9eRb0Z9VEg2Your8F9nNCPnP
cvnApwmVhhNFZNfKFpuL/UOnLeJux/7KRFbTvtbW1Yt7qIHk+/4tunQlq3QFkwoC
J0UTLihOydJY9aLJEMbTTc7ZTWZvCTF8NOJz0Tbry8rDZE60BspnbefgWkaxYVLs
M/6x52zJAy1F07Dc87FEFMX66yPwtYPkE6zMgAMJUxntNaq+WxLBF6p+LsXnvr3/
IKLBtiqr/dqQASePulyi46OHBqt0WdSGVXmP62Bpo9l3qilMeCv9uGc8mr+juwEE
dbBKtTRrTWrRJ6kIUdq3YCqDiCLRmMxI/xV02ztT6odL/AxA1JmImo4LbmHm5UrY
uh1gUfgtV7680deGgxNuAdgfhcNgau/rTwbX5GS/Ju2vXcxmTcTA+wlonyCaAjAv
ogxubZ42cmeHPLOoHA1TE6JFya1nAi6Ru05MY9qATGX9+IPcZBCtDBZ+NWYfef2N
KGMJvGa61MOWvTrEIoH4dFFzZT+9dxZAtGetwSu7MG6WORwMOs3RbO1mYtV6PvH5
gxv5iFWbQZ5ELDi/XkVcOE4EXMRNp/UjefnbhgtihVqKGQvMCwM03kfz/Jp3EwkY
8V92Su6831rMBE8Zu3GFIMikbifo6kvAmHw2g7VyNDcIe1LCv2r/pX0Wom4JUgKC
yPH25c53doM+6NW6ZlTJeepRrAygjecvsohO6xS6oz+9GKbt8x84Rz4MtGQa48ph
aMBZJ1lwaAHPV+xhBbCfrtazw+XAw4Gu190nQSO9LtWAHdlZWs3JoRdUjLChHgKu
5DV7Af4KmKMjEflHr5xd7talsIU4ZKAoYofG9QGxCudc8aXyX0IYWk0RUhd3kdkd
SOFhAdFg1R43KohModertf/OIoqUFDClHS38LyYqGDKOE9RJFEfYIFdqkGWlggJ8
I4PY4cq6xu2Lqnw1BiSu2Nso1WQE/pnIKQHRpI6X9yDkrwI9rYUMi53tfMaXL4h9
ZjJIuimGfVuTn6w9YsiwgYzvavedt7QcnqaMTqPvyNhq/sxNajlZ61XGuRVLP5a5
63BGC3UnQCS2k2xi1ywD3ul/fAn4H+QaDwCyrTc68RylDjwov52ucudNiKt4aKmu
Fo52eU8p5wrzpwQc81ORbgqtPnnmAo6zBDzpaHC53zHd0emzT5EFq1y2kHOh0kV9
MEl6/tJ7Z3hp89EJ0fLb108F00jC45SW7WQopkafnpz88KsP9TA63urrsVtrEATI
C0AX6D+6onMvSytNy6Ko5o0i+UZq7IVjI3Wsb+1LP1Ztk0mMJU/EUtHj3UD7i7Qf
mmIfZi6F68ZJRpvVXJmtIPnwsGTDmbfxaH5LhlD0D8unwOdIyZkoYTXZhPKL/gDb
anECAX3nYjx6G4nRr8iK6dQaAzBYFbon0/nraRizNKnnhVJ+pj7rnIcFK8T10k2R
d/PtSfwoGTqnHRMBne5grtsfqPY1OvIAVR+LpoBYAZ0Ffr9XiOePCuahTyxvYWRH
Iydbrm0/Aw4iUTvQqZyXvH8/Xc8rvyhJVa1FW55MSWkthx/iZefnUGRuPQG7QVc3
5gW87sTZmxYfdgY2SYLEs3MhGQxNzeUd+r+sKCElDKPSEizjywqOzKi/0Zx8o4tY
Yh7k5Wh69lLeKZvmZJSEEZY+qLe2iHQLktsQLjMyIPddsQVdeUk5ABkq1fhGBVBP
2Uf4UVwd6XmlWVNJhw3XvCDaZIK5gNxOD/TmYnpgbIxjDjZvHn5myRZ4C6zDaxbR
/dLYtY+hYdWZmBYMJ9jv3NrYfKF6vTGDtEhHK17hwYCWKFC596s4CkDA0EQ5TNcQ
Mkc01h8ii0c4+5apvkzM6hu6V3nEVTT7nwKe9Q2yOAVXJTBqV0xRfF3Ru0R68/nd
6VaAfmI5cvSPT4CNPpqM2P0SnjNvrPQ8d5iTVDwU500sdQifJ/CFa6T8oDRfpBkM
6D2prtAhWlUVBC4uxdBuDFVbZVdwIV69Q5XiLdh0ecue3aoNkJNbkDOC/6LEX+iL
D8aAglLWmMJvKesIgzWHCNuw1pXuQTAgfaiCrYPazbYSR6UmJa0Xc0nRRVXmE7WK
LGvw06xCrDGKeemx5j99x7v+Aa3E1ObQd49fUJ6SJ92yZoZcVA3mm2TNcbJcmgBR
JX8fg6ui5LgrJWG/A2YKw1NrbVK/6kIiZqgFKDvG2DF0XC3StpjzIsQbjdYUc4oO
rvkJaBul3oQyQv20d3s/qMA4XlV4yNkZempm1zJFEeBg2SXEf0i6SYi6De/kiW15
ImYNYsAXsc8829Nj03YPDZylTf6T0D4ZVNHz2BI7kOE7jb81ENOSV+FNpLxSAyAh
c/3g0ub6JLzA3vLiDQ/XS1b1dicYHvGkThqxzCutv2NODLLa9t75Z7YBEO54K6ex
8snlsPs7gC5NaYiApoH+mFAQ3qf5iIJWxSVUrm6Hq63CwHMS4u6EBBERmoxHj22D
+qWn4a0Xj6feclPSB+UpRMmux1GO5ybVe2ajsLPRSZePkcffAbVu5z0oYtVGOdi6
hnY5FLYYV8a/Xg6McLPH0YvUPhLsdl9laYEzFdc0PQkUzRbpL7Ix29KnK2hmLp+P
y//ekvVI2YQ66sFyc90/gn55amNkeiS5G0BbRUPfYZSrlEJPucrEJasMnlrbHee3
oipk7Fs79Ec1Z/M2T2Y0+vfgbY1RkWqIvSqTn38AuXoVnPB9IiwVicxpAmnkXJlt
ZiyOeb9K3EokywZfAbaxUKFco1k09f3CDPIBqIfzOEyWwsZPzkfNkr0mNUgSsfgu
f8KeLzKDrqdwUYXKAASvu4Eaa9auifQ3iylGHTsnIncfvIdz88V0YG3ZjWCPjZ21
gJ0Li9NxTrF2H/xoPyBQfRr8UW2ukUqKgqkBvzRD2X3pAY2wgak4O/OyAT/CJg9q
7tbn1/cKd7nS/2nmie8T7Bi1mKzg/xHU0jlnfyg7b6x86eCnHgkOvMLjCk21dOFV
BouQzvqf3Zjz2I2nvvE+lHfVnKwvztxK4/Xr3gGFpn3ixaRbLapLNeCMz7HW47BF
r6MA9gVeNdYIm7P+uvT4I5IietSUqBCpWbUTVFdKVgwbP4nLdP3R17VthtUNt9mk
r1jmrES6HZsPOk3ro5Pq23YAhPSDT64ighyBCxFQwbOdYaocLhOkSCtLitGZ5X3A
Jn0Yard5YwH4nXaq9CZxRIvB8oUn2i5jlbjZ24jikiVAjme5CJ3vyIl9I/Kskw3y
nNF9kpGfFh/GLENKVFxIrj5JqMPBJEvouni+vdCa0jp8PQdbz4FStZ7vrEu6EDWX
0RIkHaLcQxocox1NGoER1w3dge+J2UGkEwo1uEFZtZmUumns89okt0K1IAufKiRv
qOAU3PdoYfH4Uz1gCODWFBH+LL9kqDpeURN30IfL1MiPeq+9b665d1TclzhAC4F3
GxTlsaQzLRiaaHGXWMSLrMSEBVV6jIJfGLK1AsZu54Ehls/Z5UpjQqO31PmpfAaQ
DddJXbcvK7Usj9oJ8QVQPXZBKCFxjaX4zOBcsEz1MAkxOeLYsf3QHyr09MeBlO2I
TcTbBAjyKHZhopc3xrhQlGHdj219lxjPS8VYUr3fINXWM20zjeysNt70kkOaSyRX
2v5emxqlLVCIknIKZj9E34bvr3Vi4JLTODa3Zy9nTzs7fWUi/7fDFjrpxySLktpu
bMHoKGb7MvFH+ZtjZpRzsNoFe4WDcJB8jtXCpoAsIXohnegUvjlQtMUTxTcIosx8
SX4WJfOKTLdiH+/KjVzWHF3eX/nHxpgCrrwNR2oWt+XVkrzu32dtqHdQ4jmtCOJ0
di2I5izJWhPEsge4/0WjsgCbcM3JXxqpR0S7aABTWQmZ9PYuXQ5M6YFrz9AQjqt0
3r54E6RKi4OdevLFzCsipfFSMXjo3silvgxAfJQKAS+jqaio6sVwbiK2v6KGxKpY
ropZiQgOHAvmK/QNQ7jLTJRLxHmYgTPUAavskZd8L1y3CO1aVUkRh0cgYtl6zCqd
2pDgBUTIgUUK/E+dSE4v0kEsOtEvPaTu64VHEoClIFGCePP3eZW4INZ6rfAbFuMi
lFzZg4ahpcnKOdgmJBL0x+TyNgKXau37WpNaEs702fjtBJlAitIAZqbTZg1YKfLd
dgokOpb+qbl6x13mWeDtsxt7OUFuuG2yyPuARCSotSZHSLUWAiU1eoGYgK86erPB
5qdutWEO6dQOQLloGNjXXKsf0AawR8n3XePEFkR1dXefmLZ4HKpdHUO3lyw4Ryha
zbJLI5OmsXgCRBEo5xR1FvydxOJqCjjKpmf4Ru5HrTrH+NDPvt+nyN/QsUR4lJL8
aDQ8ualu8vkvaRl30wyFt7NQTXK8fqNVygKmTYy/0ZJFUEeSHu7Z+BwJGCfAByOR
KqQ3rjC1eZynlKdMr8vFb+QUvDq+bXzkTZIynTJjwGkuCJ5s+5lH9UpqXnIYcJts
7Bp5XhdJE5DVJLAVzaOtyeqhTzrO4/9Nl/dx13P0j7JkVz2tOruJy7CemWcyFKV0
DjS6oR9arpUklNXSxOirxJ5XgfzztuzhV5SbA8FNUxYSNIQ3aC+T5Jicb/M/0UFO
150vMAwS3OXP4KkMGE2tZSsaM3SXmD8CSiIeFlptvdQEPP8qJmqb57clYWhbdrJl
+a33f+mwYg/2zGuQF5pQwGpQSNkcnAvWQj1RDC9mU1559hJoIMap/CP4CSM/xU+J
A0rklUnu3zVs6F1qFq9tI44kYBQ+7ixUPjGGnZbhMyfnV32xI+eCjcN6FmyzBizu
KmwDnbnQMbYIZCBgfiUKDC1KinGOV5uAJ98OzggaYMu9DlZlRWtDZi6f4A3X6na3
gw9MZAnGoxlh3maOys8+vGKXejXmF9AyBDNs4p5anG3OIN2ZCsBkhjaaJsJiNtRh
h7C9cqRyNtYOucYwcF/zFj5RzhhtkVrPlDNw8iixV5cyJ7eJIHG8vnGvWwf9fjzB
j7GZWMa+Z3XmZbG9VkSuu3xEk79DjmmVrVwNAIhU+lKQIc3IoVo57VW4xE+REH7T
jveiT7QCvxajaVmTEhVwOAkugjlFBS2IkjQI9nTq8t/QY/zlb+2qeiYowBv7Dffb
wnQqVzui25n/fQYVgkDaCzZfLzxzkatHPgri7wJ+GK94nBxiYtWm6obxZCrOtn/t
m91T0Ie2RXm5Zzyz1kVy23AlcnwJ9To1f/E807QAOJ1k+Nu1SRxKSAdQw6eqNBpG
S937KDp1U4BmzUYPo2ki3n7bLQQGwCby2sv4eLwWKosi/gYISbw1WF1OltMks48G
LBjW6ns7UKgBqkdlOT8meRWHsVA37TkZBR0WmOC7dBbfVTE89w3XND3WFftTQcmg
z6RiZB9m62Nf2zM0/Dt4DFqjCvR6UmGnn6MIipcdSBWSDnENkZqNQSB3VuHI00eJ
JeiKYomO2LxPL5i1wNS5podg+AN/mnVhnw7CralokMFk3S0S4ORfXap/n6ZbpCgb
/lCo0FlxyypyLTYllfmtWKBMa14VO6eIYO3D4oPvqHGiIV3HfYk+Nw3myBN0DrQ5
sZjNkw02oy6Rm0Y7+JILQthqg5m8X9PzV16Klwvaeqdw1sC++UmZzjcVegkhrwG3
kh27rAE9rheYe3zezRWhS4LObmWszC+gW9bEXt+2QdmeQcNk//IXFrDv6MbpFiEb
kwOjjHAy3gF9KLplpPMWoFcFDbbQJX9hxu/BQHWxNroYdWO3N0Q2p4vRXyOh+lYV
sT1yJConqYnAW7Mu1AxjV38eXEBw/S80DewD8hvx/OaFEW9vU+uQE/681hdsj5SP
fqynk1sAWpYqfPIvkuYlx++nYy1tiaLH2LPvqB+9WY3HYARTR9OGHDhBZy8dGXA3
A3QJD/Ow1uKe+fq11KrdiYDxsD9s9etXW5NkrcFn6dmmqkGPyHDjodjdx2IAuEio
cHR7fe/xqLoo42+Rntq02XvwsNXxrYCGq/6efURyhWfBsoMQS294m+11HqYPAip7
bB2+O61wS6mVpMb2fvpJr+BeIwWnjKJ+Qd7cg5Cb3cEqci20jPAipWz9X+Ikss1m
4bku6cQa6Ppy6MoECkqz75EFMFeeW9MU1R/VZs6kDObXaNRvORP2kvpUTYZ/a+LK
GQ3QKT/gDUXLyyrHjL4npBfusvi+tA466XW1NXWwtmXvujfTqeGfEzcEvZTodshh
uW/NigQHXb4xLA0+v+mM9Rz7Kc65816LzL6Az8Sw3qUmbOmw9cDGfAdzu5puroL9
HhwenpOPfcKQlOfoyTFI65M06PUS8paqhbiAhmwfVkMnLrHJrd6AAQGEvk1n9xwC
9LxKJP/uxbmIVxtPvZPMRJHHNUNn4nBw4X4FbL6B0m06kULg3yw7uJUzz6jDG53+
VI2jDxxXvMmDFy+nHDyv9Z9rzQo5kkJhwvRgtx0YOs1ioeIRHO/n0g8pLORXEJPu
kKORF9kPGnuUv3zrsBgDh+IGieX86/4k2AN4/hBmVHP6qkrdBkfQ4cB7OZRJJfIy
FscHke3Y83h5mSbi21ZUIYmtQ1du51zh+Z7UGB3aLMuAz18ImMlfw33+G/yY/eds
5mx/drJSuohLWo+Lj41USOfv29Z9M/QgG5tybc/Ew8ddVTcw/xvD/3ZF50ICKDmE
3vQVuX/xxmeopVVw+gPbu5qiXQUGIvu+Vzo5Ofi0L7cxfBZRYdxlhQHbjCiWoF8T
7iAP4vyyRcIrbufPSJ2z810zD8/ZIzorUpCpLwo3KbQUTeYdVtjabB/zid3dc0h7
x34r3AB/kO4OJIK9uOuqkv4www3HLWVm8oKWH7nFUMDfYficM86Rz95tABS2bj8x
0Knt0gYm/ZLb83al8MfEHcDdg5ScVwWKLuWaGSEFJ/aayYAWXCoV4Wjlu/M0O2yG
5hrkHN5yWCid9veffPElL3EIkCGADdp/1WwcyDDyYLhs2/1tSDn9EW532CpwxPhd
XSDw3LzeRfGHLWa6p4Zk3xTHWdCQajzju9JaJMdxdJvqwvs4T6tvnoPoaEwAJJOV
lnJxvWKDj6HRy3SNbrWiGNdr6032L1JBm34vUIF7sP5j9gu764LLU58FIHlPX2BN
Eh2WjCfzF6xAD+/Au4RzwJznP9H0A7GThN8jpOONe52G/UP9lGmfV/vXQrNdpt6S
QSRcoarfbJlORQv1f7YJnSP1W2gzhnE2Yii1FZeVdVNWClEIQ8eEX5Aen1YqT5cr
bxsvX+rTCnuF/k25F7STmacMd675mVK71kDKOzUn5fIlICuoR/umx0Vfv9onvgu8
qfhoyODaNzguWn/gMrBULtoDZm2aVGF/OYME+ih95P23c3G0FlzA2GrchQbwAoiX
TeoauQMm5U9NAvQ7A2RtvDCdK2WreDz+wGi/3GRZF/OS8g+w+l/JcxzX/iM93wZF
v17aKPFkmcxPv+nUoBYdgcSO1VTUfgHJkbIqmGeIcOoLETI+Mt0gSEzdICJKHoqL
iv2TbadLbPIRgRBWIcRLQD3KGjVJoIEre5OkcqPecUKQrzXlGQxKLob+ij+j3DNh
rB6IShQCboUhdAR49GuLL/BF2GdxkyWWJW8x1y3YKWm7PWyORzwdYobF5u2PDvSN
hmxmO/20bK5HGu0xJvTt4TrkeQb9zKXt6ZMAaQl+Ks5JifXiAq090l9/iNAAhncD
pGqWadDpZkV8d3EfI5XH4ZeY00emPuIyUPQdfUZARP08Iu9iZhFFoI5Jx97sCYA+
d3NbW2AUzFxZTfZhsJZNc9ufFPGCunlJd4CTYm9zesFtPC+cqw9XcsETtXDxAvxZ
j7RVtJKM0LoIfFpI3qTAksHebnJQvs9WyhdznD1ihVSEivIEvuO9hJHJHCJC2ZYl
jWCofrFljwzRyeCXyAJSFnfzdPZlt1npCXLDvUNgsogzEtV8tzX7FYK8gyfk9vuH
BEztTB0/GEqK0NJL8auW/6mvhOeYvsrPn5WigPAmT9shn/aHjASCOthO7QuWIpZk
Zrcm95hygU8upvdvVPOdloCMDbagU34EuQo2qGYVrknOIu84C+u7+pTssylKhj0s
e60aJXELBEO6coKy4eyXibrz0FO1KVsZABdZm+TbPfSl7dJ/EAEOnblcLIgA4cN+
8O/p7FTkkGJBAYE0oP5NDUg5e4QDZpuVnxt0PAThgb9x504ndGUEiGtTLt9pMQAa
XZ4KVPyEJI0EYGUsiFKnpT8yDzScg5exaDfznZo/npJfOzBDN8EYtUjG+LES9jxL
T9oi17923UFVC3TSJ0VgVB9Gw6tZiXf+U0ycs64Vf8lGIfpyXScggeXaL+4Jtjc9
B001dorgt09kgR0slbpFUv5sRRBpAaHLhYATnEnUJuF7E12BIRo3F7VnZxKaqZkZ
EeRZK6kObylkGEPuK/L/Fk7/vIZhLnmONZSxLvTvPt3lGQ9phQprQ4CeDlvJBnBb
0Tq/lLbqKRqEcKn8p3icMQ/M3bEPXYdJpf79XhkbdoctuMf/PGEFJAcx93PAnsCy
b+LEITYIw1nn34eFE6OkcvN5vHrx0eQs1ltL5GgBg8l39iL01l48EoZCgifoSe41
KlDuXoI9Z1k2ATzigy40YuL5QDLOIOFKUHiRY+DirSLBJjkkZ70Sa6VSJzfvxR09
KDgViwXzuciTiGAXUGEvyFNOLHU5GytRBAGNLrcqmGHTemih5AQQY6pFL4XtWWZY
iRxFN5ouKWEtI1KOyoeJMvbA7RANkUQwBFxkbh+7JNaFXdGp1Hx6NKbJJj2ba3gD
W7wTaTFwSo1tJuLLIypMb+f0SAf0SY8K/K52zdrDn0euZtwLEp/KY2bLM0O3SPLK
y8xqNM5/8Rub6otHXnNVggdEKIsNAdqL9fAMZhoJm7O1dUueM4NbWPdYqWHDOj4u
T3dhgZGQsHDSsvz3W/+H2EPAPlnWfmoOcaGSKQPP1R2s0L0825B8+MC7eOhv/pVv
CB5qwTd0oaGXk9A6MXZVqZ8xTzz7YnoaIBk7ye4WTxnLpGeHFZmTjGeaxbkqtf6r
9yFmISPLIX/45LxN4maiSMzP6qTj/UMdg9rkAIRHquqfdMUMEdpNWTWdHnlIACd9
yynLDFWhxE4/3GWi9RRH0pugtKMGuVQT0HJqLDC/Ox5H3Vd9N+yy5sND9uPCmdEK
NKSFVeZmxQ1dBiiUgnqrg6QPB2YCcgYDCX4Px5QtJQwnGFB2AcaazhFPOuSU4inw
a/ZNnbpJT8VmoaoIvb9NnrixpYtHr9yjLcmbyhs74puvXWpQcLirl+hBj2TfjW8F
oKmaO60wTCPueJltdOjQh0/8HHTMkSJxgVkuQ7uCNR+5qqT8/aM+3abNGLRRfydz
gxMEWeJBkAolwHNLn4M+ecQkv7vuw6vGrams13VDanbS2pP+Y0VheswM63S89Spd
5xol64KO97kISylrz+vUvXlySpQcESWxN6SeD0wjK+n9nlLR7rqRRmbgLetkYt6o
/BTdEcnYXL8uLswynxjB/2GFUnPu0eNODQUZ0w+AphJU4gsHtaqtfWk4W9H5Adt+
3/t80XYPyXFKEXWhjx7exaeCTaHTiMFtzAHkZjeWwkxcVRTsFf3cTuDJPk3Dl/o8
pAXv9qBhv493dkhH2fv2DOMqZSc8cCrCv2sCthc4/3kkCdNTKAnPPR77ATTPuXHx
oj9dgq9fNYIFoZpvfJd+zh0c59VjN0ChbO2C8MQUjTA8GnLyv/Vp3/Ev0/ZrXaN5
VZSa3zt7+CPc3PCDJmTbmWLTvLTQza/xeryUDUXy1zRz8c5tAZj3oYRUVyhdL8Fn
AJKDVQGBIK2AQE+TO7kig6BWxPbmbgDewKvkcIgOFYDTv8IdsiAzMUujDlUmrvJK
XwPWV7DrBDpPsAuHuamy2nXC1EXUicAnenajwuM/he5GfxveOkl0ssmHKySaPMNu
QGScJXp5Qpb8+hdp2vytCUg63P0J9Kj+HjmaRWf1/5ivNgQpGv/2tiyxNXmnxmjA
gRpAYN+Rq36e1Tye2UL+rzWQoM8dxxbmlJuA0Uslq2p+tGoY0zqGu3COLPh9XzIH
GwYh/ahw7cOuS3ocC7oDQnRysWTbQMGe8RqWPq6kak7Npzdh0lHFZA6HMASrXIx8
dYn9P/ZYQZH2kqgeINRukaROz5dT3hAAryTbjVpxxwuCoe39H2wngYuo0WRo+8l+
84HaXWM/zogyHz6DsEmgdmxSqpRSlIRFbEQnyyTS7IketJp0rgVbmJMTuTFHmwzA
zmdf8mJJl7jNJhUkoAIscq+OhR46wUba4XR8Nf04pgm2NiF3zRX/62E0DhKVF3vY
zGSNZlqvCDTCxMlONxDY6eb2u9CJnMl+uFqCdkIrLLF7qpz++D6009nNMj2I80Cx
7mOI8CHAAekgj5Q7EZEPyMfsRbfVtldRa+XSjL32GSgpcYUocqscn97+uQNvGSFc
tkbmp1iFUZyWzbnJvXsNNFsMshmx15uBTGfObfoqc0rwXHy2lhNHtVCeLomWaLT+
NYzklhf+hEWMGY/YmLamCmgSwe8HsHJtBXSTzy/KE/X/S6UUrjRovuEn7MPrN9uR
Fnm40M2pJF535UR8YzyuxBs7Lu6CzMZzd9PMI14U9z2KLtCy3W4xk5hGjTQXydJi
h51u48q/8dK1nChnOaDT1rxpqqlolodz1a+3gvwfiaJ81WAd6vwUC6G14ajc+fTw
WPjA98tM/LbWeqdwygam1i/3SM3BBxfsI7Jqp4Y7QTU+feh4nKpkfOCN17bmW2sq
HeZ0SMTeUGgHr8GowGgdkCf/vOKPTY7Cq8xPPLagJXo/oCOiff1qGbN4TrjxcEo9
XBXjdqwwtTW6hYpgZcHx3c7y98o58SykY5eEMunzRLNZrsSY+PDkmZ2t0MOFYB/M
rbvqV6QAxsVI80Q66mOLh2myFXgHbvgYzzGB8IZW+tA26XV0qTH4zQuwgkKbrkVU
Srg5Jefol+b/KS6VrMpbOIN7dlAgDBv+SJEaOYzDVBVupFetf1gfkFvkSLuqvgxO
8cccbmiP8wyGvq3WBr2ea757Z77h+y4ctoXGTtbZbXxxGftdJfdR9WSHmj1D5Yn9
UlgCz79S10Ulyzu5bol8+OfuCWZ0tiE0zRuJBF5z+u0v8JAkz6afpvX6vKXDZ3/e
RI4AG0RezC9XsVd3EhL6uSjR74rCohNA3S12x2lUTZcsTiC+wGsQAuU494DsDR7F
0NLcBvD+THxnVovPyMgC092d9qzFjtcuZe/iudm6cs5WByTfcw00V3DCJOyFVEHI
0maRdg6vppLwGSIkuogkWWMO5Am1G0dX3DMn40I2t0dVdCwQM8BMjfrsR96aOBJW
035Qn/lsMsBJ8VwebjuVmgvGjM44AeRUCOHf9z1RoBrbiP35ww2NBuDAUJN28k8S
9RvsGYucjee9elS0HGZE0zC7ZGDXvCQTiyIU4yndXZXXSJGaf2a/7hvTdWvNVCMd
QF0AT7hg2dahU7MKpZkeOrbcfJPlwGN1/pAuijsqhSRgK3Ky+56FHGntfUBM2uq0
My9idzCw4WkpQ8g2ZnIg56EgShSS941pSy00z20GF5PWpkbBekPTzuVIRwew4U/B
o6oSb/Q5szih8yBKwTADMYPbOuXwlXf6wSS7dyiSf5EDtM3EBi9IApChbpJHGy6e
7fJYcV3oh3tsmYzZf4dT28AuYpBiWPaiB8sqvSAMdGS6MVYJ4lbjmsfGWj/Xg78C
o4Hwx149lLbXxkownMsOLdrw4qctG7Y4I4pz7SZz90RabHtKmCu7uQaMqFnvYpOl
KWyGtfuY6Z0qjLqJZsSHcHqqm2AyvkHlNmjSxHuwyVXiV1JsbENlWG0jBiqFdCid
Bo13r2drf8HGf8qy+dEPTGYD0IrrW+3TnD5zEG0QgXA4boEHJWax7hVo8lxrUBZf
xy2FJD90g00PHVEHF5NNzzrd7ZINK6TbO46KzXWSKvNIkol9rSsCbhIjY+Jmucq5
IRC8Jj6BT3eaOo9GehsRiXWp5ixs9ozXDHQB67Ey5XeshA1BwmsSw9HVaWA6wCtH
1OolpD5evK28nkRKzFYguT4bB2NzqqmVJjkKHU/HQNCzYpueMEnC8Dhpb5YfTqdC
sfpRZpGqVU2qpoIKSV3wKe6bV1T8+Tq+Y2p6FossEJLOjU2+90XU0oHixso4/DfS
3KA4MJh7ycEHsGXwS20HiNYoQ9DW9Lqv4AQd9+q4KZfh8U2P0NiTJ5Eq6vd7hFuv
Rfl3xdKjf40YMb7VYgo+p9Tcrcvbwu4fJEZtWoE5KhjelNZtmCQrxZpKrSJtJhN4
bQ5GHCjv0IZdrpZaCpVMqdM7PtzXuOICIFye8wwuT0S8cuyljXaxfYq+LbHCgT14
wHUlf8DQTJ7VVIEjWx8zinXHFcEimoM/hXEpwIUoF62NWCicNaYv0EZkbxbWxFda
kEqDQ4viZ23dwwEOx8MDhHiG3zhrMMriH9QPW4AEf3Tt6945rHGFqYcSBMa6Dacp
PNhG3+CMIfVoqBcHaQkTN6kw0B9ZB/roynDzbSSZ9W7TRmm28Wo3cuqX/tJpQ5HO
pRnbGm38EoBcfyRGX/zS45boZMG9+JCQtZZnKasK/VkS4w+vpwfBdGlj8FWLqPzO
5n/CkJGOk/XU2wKtk2DosfUHPxhSjWnwoURwrO/Z9ApKv2xziUITarrX+gYCVQRR
zSeYs6wY4r0xpo5pip37ORg6iPgv/t0PxV4fyFlH9QlrqIPsu0oK4bLAF55eB78X
YYrTSwkMgw2rB+q2wPn28EpdXDED1ljHbc6VIHmkpU1M+PHoWI6kozPIw/epE/Uy
cIQIXrTBO1T8MlQeCIRwip0xMCyBXySc0CYYMCyGL8MIZkIXaiPqhn8VPkadE/0C
pUqATTWm/wJLa0JgHiZnR/lExDq6AHCf1P8bnp2ZatNRfoJwdUSKoqZBrsjkx4JQ
znzWpP3PTzLt9BQO75oZQCkj836PHZlKR+XJfPZkTVEb3bloZEo7ALLqBLgUELHz
g3Yjo2ncALnqz0PT43zHQne2DJspQDELm/3DXisocCn3BqjxhqQXmE7mgTFsLIu8
mMxxtFCZzlvhBiJu0JObWxPHG5LaP7QZyFTAa0p5qKkg4Jcav9FCV68v77cPhSMV
GCcHpNdcqeou9vYuPLRRwW+dazS3ukh378Zn2DmAjP6o/q03m3vA8UA0VurFBb2o
OZReD4pBtF2ZtEBd6aOahh5VRJjqKS2YLVTOAgi1dLAF0KHq8oD1NEFKIO4bA/xs
Ogw1652Ihuvd3LsByCj+FpKJytQ3q7p0P6VFK+Q2qlbMDo+dNIoo0BlcgXaYmSU3
feyVcckABf5te71fQREKliK1sEveabwZd8UqILsSUEy1XqaFeRrEsCNKbiEBwo09
YNgN2s/3LI5abe2zwJhrlRgMUQnTEPBnzYkylSnKCar1e3pcYpZBLWZCgpXrFB2x
xWYURQNhVYXo/1vdshPy/A2I20yyeaEKBjVo/PHpL076Nwp1RGkU4o4GORtD9yKN
YQzZjMP73JhSOnFH07ko1sVu+4qpiAfPMAGM6PXxJ0+irU8Dr19RJhiuEKkg6ipI
71+shrpB7zDy2EM6R4airrGegIH3PMcyMf3SzGebTxTijrK4wG2GvP/rTb5pj0bU
iFyB21entJ8va3xzMcDr6zkfYxKWJ8JkhPnZaRktax4SkNLd3Qch/ws3oidqKvA2
P7zXX98RSHqNJgk0D/lyWQJu6k53I9psRwfiwgIgUDVJ3LTS080Sc2m/dK/JWk32
tZ1wNdHwXjz64x0rc9l4YFm9gWyPKoR2C0aF1G0dei0dIccFxAhPopvud52ZCjyH
xo5aMU0h6Y1PQ1FOsZeTE+ClmfZvNoVCKvRXIUOy+JOS6H0lkUqTf78guGrSTUxI
/26LaHSGaMbvblqs0RXSniHsFA09subnbI40oIum0Wh7OSMJ7qiBx9lLxRGFMzSF
SkWSA6ncsMOEEl5kHUJJ7gpgAl+Rj8wkgeR1YkU1D4+A0IbjPf5XvjtsKHwNljlD
Df0tyqj/1iKSoSIbG7kLTEr617gRQA6UKKM7am9h5Af674jplarJctJk8nDyuUNC
izjMVsgdf2XiFaaW5ou1O2ZooMvP9qO+ymxUA6/AH9nwH30EVf7Jzf2gli78ZamS
Pckv+A4gAdwwormRx4kbkwCVX362pHErN/60HkkIzEzRVnjwefuPRZCmWSbXDaHE
gdXLP0K1QelXUz2qWy7bLhJUzw31Kp65YL+V8jOoiYwNuKWhU2iaqSUjreit2ODg
pjuDxoK2NVXDZOjjNQmcVXfveg88IKHjr5MYNYk8Nrj5Xb1rVOw6yJ5s2vewDQZr
g8NtC8LqFR80tyL2FEO9edu073uY1sy3cWjJmbF5xOkulbVEB4VXD+w7QVzcQ8ba
QfiqPMGlBep8Q/DfZVmXdyffgeVK/Ch2s/qZ6M6FA0W4hmDzREyZES9OOkmlFD61
wvwexB5pvE/VqQryrcqXAuFpU7U1nljSIYRJvqwOuugkFhchCWCYvkxanM0+5Kk2
AMUCrmDtZ9lJnwuVCMw4gDvxXFAkepQkVdlkiyaVCpPBoedk3gQ92y3ztHj5jsj7
jJZjHiBE4f48F72AwDcn/tiajLKQ8V71+1Eo/WFNiQULg8oou5eMZy/eHOeAbnwt
nNgPVGLEbYZXWiH7VcCXIdcQIng1z60hCxKh0RjnzMjFgMxCImvyOLnecHiiZ8MY
uqc2WBGOq4WxtvXRtO/DEbH7n1oUdBijdOf1KSIWr/ceHXz+lHSpUIDOtpVhKUpS
diU2iHy4gnp3od2n3/8LBShCvj5rGKWsdpWtf8aJP3D+SOvpfk5JQMJb5VoYbWhW
yXl+FeK23ZLU49wN0f4cMwd9vnN4eoZNvJ14Iw60AZlYG1opIloWKRNM07aTWDif
vFFRqiYA1I+zv/11BR7sedAKhDg2I2WI/3/BtOHX2WnqivV9JRZHEvT0xlCRUj2g
L9vGRyba5fGXNKml+LDxfvFJx2yxfehJcSuWBPFdcR0UqF51DZrS5+0pJcUfTYmL
fEaZtsWUrFi6dtyi1qgAgOUuoXXNN0cPjsa8bNt2fOqVtOU1KWBxXEBzMBmsMl/x
YQR1hnXVbb26YgUjU0sjnoX1z1ilKD6Ush+dJt83EbooN7kd46Q07vYZeGQGMpgW
sUU6OknpX09JTv3FO4Q6Y9SBv2Gp94+iReqBbbGGQ6SSXPR3pvJF/Eyaj5wugHrk
wv+FEkdFbWpa3eQByUPZZAMiX38GX9jSviuYHVE1NP7+Gi/vcxEkxFOPdvVq2jaW
BsC2Ae/Xj3D74YTp7vgOGymjttu+7vnsu/pXcb1Vvr0yMtTBBxvQboWtWrkqnRRw
MscbWz08+revnma96pV8soC3szkEMGq/6A7X+qgkjjaSjzWTLOa//nlmYgswNjhg
+TkgVpYB7YtVEYfjaOpS4P93aJiBomME5U639GymgBTDw9/RLdJAj1mvITpMzVwy
bNBwpWVMdDKV/RGohR10WZ5iYyOGRDbA9YHHK2gcjbwvr4aPIRXB5T50qOANKXoM
kRgdMrXaDZotB1ugljwBWomr1v9lIGachYJxz3J9Ty40QxuZEpVxDlBfKGId4ky/
gA3BCzbXalxiGy3KWL/Vp2cXgD+Tqnhp02TJ/CFXyMlA2J2q/vlHpqspjYXbEUNb
MdP5DYReBxVqlpjpfZoM4qMvQ8msoPdjQg9asqBcIwmzLNFeQASZgaoq+6IiPrpj
Grn7P7aVrnQYaHAwNZYtdoHo5hpLSQLfKcnFF2YqM+qeI5lIQNuG3E8oaMr95spO
tlyWhOGESGSyDlJyeNvAjUXxcVxi5Jb/zzb8V6MLsL1cDX+40zrBa80MtRNS/VRa
O7prWd/yEdVc0SI81c68wwghRI5S7o/IJq80BWhuufhNJtoraDmSKAvDqdO9DgVR
zn2UpvqKc9iDZkG/fIzCcAD/Y3BQdpppPMxAPZY70jkJPU+uN8ueoZhZqYIQ+VcS
XV3TQUTnddY02FvZbtoip+gUzEXn9QTmBwAM3gx1CnBnPsGsGRutTvNLaFHF3kTS
9dw8CrN3gzAcQ4zwTIzjDZYgMHRF1siSgzBOb/ZO4QmN0m8QQiqkjlSKDnE2KjHX
c1lPem6mJzvTZR41GIum1ND4s4a6uxWFfLoeCq15S3uECtnS+oT8ciFTT1h61QAm
jY9sZLVEJ3u4GEcNZn+lxxnUyaD8O4zbpHNG/5gFeTjUcy77SH/c+BB0m6+X3zKU
M2klzEx7lvwT/zePhfmScZWQR5QJiaoTKL8C7JhtBHuGIhR1HDBzuyOT7sMZYEc/
lz86Ir7rOAtESFAV733Aek+O+IUp2lVtC7WY+MfpeiPe/WZotrCITPh+LqpQVynl
W0h23XAlcML6awwlVRX6vvNd7JRfUSLetFLnjh4B9GHkRBJC1r3XrZdz1LHUUdBs
CkZ+YoiIJe7iDL3WJNsBddLFYe18x+qHwmnB1h60Cx61mkTLF7jPZaXXENvbDw7x
SB6sgPBaMavPyJvhd6REjvcySm7UDYJT7SC2cc+v8Z7IOaL0qgT9xBUDW7i/fRUp
Vrup8yVXs502NdjuLV3QKgLJcBOU4/MvpdyVtOIWwh6BgHDwkl/pkErawkG+nlCl
yCzm7YR6z4FrgKIRbWWI+nxHaY9xV5DBrWl0YP1XFJmd3+rcaKjTB035PMZIcvtq
tjP1SI9iMDHE8hzn845rgrJe4Rw9hWpiEAtn15uvIdFM26iXmaiGXBuwv5lpzYmt
ZSk6dAyJHHnGKMEr8KfiuQygJHORoFYcUTN4gB7jU/1Hn3MQWfbG0Ux3DDYbYHMH
8UsUDlXNIOG1hNM8QtZoxUhyeQAFVmfVwaccEEAjud8+mzkPHDIjbF0D2FIAojq3
1T9FGypNpbGwsd3kWDtW0g4W0oGlEqIBV5HN/7xlbb/WTP+t5oFNCH995Ek9gf6W
6Q0rFJTQd0AF4rR/C+Za0XZEXnehn+je9/GusBS7bcUVChEzGokZIJ4/UoP2vFAF
qz8KyzbNVUp3Iy9NeMWzMJA46M3AvjXzN62kWIcOIaaen1PxP3p4Mfi9cp6A6+WI
uQaTjUbwFiK4/MAJBTjuLRVm9Zp5JEj6nr3BKRkv3/lzs8cQGuwfiSka6TgWfVdu
yQ4IRVEQXfPhdeLznPJ4+0JQK48NG7Au/9bxmJSfjmkbLEMqtjYdWYVKa2/DyJ7c
BrYTLm/VDJhLxYwLnxJBQ+jd2PlE4qB7U0kaaQ2t3rFXpi27OLoJtLnLJESCCE/t
qJS2AsMU6x9/Ece5U5u+ThBxoNM/MpVaXnWW20BaKEsCwuE5iIM/Jg6WpMBOANKf
kjGX6QZNpRX1QJrGSCbZXKKTs/s5zgqbB6/1N9DvrQqJHjfqIXVLWj0yXFIig6pb
r3EYhFvJ0lTJAEHfo21Smh/5M/enuSiYJ24Q9OCo4M2dEfRYhfysbxZMYQMZWCzy
FjFZiPXl5D4Leo5CoI4BKw5xXOx9zwTz9+lHjfBxVsRl0MsAR6INqwKfNYsHhOfd
pqwoRQclMnoB9hvxfZj/k3+/RWpfemn+QpAuXe+eIwsvMJua7N8FW5936YHpTXf3
Us/lmXo3Cwdy781KbkFKKwQaX+bCGHpiG7nvbVnKqXuJvQCgRWntX2Je/SUIrHNh
80m5skZpWlZiEB63/LIhCPIEPnlzO8Fv9wCQFoNIQ5XYhRHuUpAXuN+TEs1JLbhu
6Kt55EZFni/JEsHRf+iQWI2MwwM7lHstC2thpEVGSxy+3hUbxCU+oriSi11CBhB3
+/XlOGT7QmYJPdcf0tUIkX+J5DJFLbYmZizTJwFWDTZrVRGEe639VivSfd07j7tK
zU0KZ+EFWStv0109bPiAJl8j287s+VoB9+3loFIH1SiwMWjASLK2JsayoeYJApRy
dFb5VNogt/c5tcFrILQxScAgbroavxnuNnuksam+V74S/wF1g2mIMIVPKsmoz9m+
noBftMoXYdlyOqk3QhU0jJ0f155Q69tpHaw6RC5xyoeelJmro0kQ9XvWqe3cI2IE
UaNk1Urk7EwR9PebThDTUUHUAMkLco+Ano9B7Jepyzs6EUjPpoegaY6UBtydZe/9
edC8hCJmtcmSxwFpqNm2+RDUgmWlhv7f5s45wWFPaaZQWyUkPO5rhZAIP6xz4EIe
wClmgmQ5AJeIbYFvGLYiq9fXhn7y5WZVCv+ZR4TImKkIXW5cPh0lRE5mnvThaXTx
23+7IB6ehV7Og73Z6GnTvEdXbt4qUySGT4Qh2c/nbQhRyC5+mbG3MfIJOofKswN9
3wFQXOBnXIt30fMhOvycZD74TlQn11yHg2kO5yBJvIVmllD+hopl4FhHMWRlvYsa
P2VZIVm0Ub+qm2UvrIRCZauIRkL0u13NXn35PYYOVEtYUwgXOyng5UEdQrUcM+N/
EsPyJLB1LnOHcgpjep5Ly9eYNkjpQVIwsbtYIBTEGoZ1CxMnaHh8GWkaC1Jv55NJ
BwJYKJbIa9TtZkIUq73W7PhfxAYftM9PbObUlJvB8/+ybtY5mexQ3DTV9mv+9coB
doCY2YGHBRwZJ2A6BYFyy+7JB+SPzQgZWqgwRc9YqRIJFTbOWTL1+WoJZiUt3fUo
wGSPoApOJKGkknIs46FAGAfkZa/iqhul+d11bjT7dTjldF/7xa7GEnJ5d6RG/Qw3
SMclz+AFXAR2x/Pa9c4k43vKN341uiJE10zdUOhxbLSG4Se96YXX8kf6Ub/+N3aF
o8+QjrxUBjM/gAI6PDUGEnhBRzFkFTKM8sj1x+K1b+n3JecCu/m1f890FhaJHNU7
VrGmDFnP1g9ltzsFP+xrqLggvJMB1/k76Vmhsi5uDllMijmqo/HLgBz3nOY+MV3z
l2N+x7ZMeRw7JxbwhTBhuKBBFecxtLIq1Qns5CzwWA+5XxJboMj77kmTboyGLsiK
5wYMvFLjxycg/8f7/ApJQvyXsQgArQuk02Yj/9DUbzbiObwdbmQAr2wOplrSYNJr
uVmiNdJ67tTDxqJTZXE5xXIqDKxAeHmxP8tl2Oap7W7hy5esRtrUwPYpySL6KLjO
Jk//dt3KCNrUfOYpmxdYahM/ovBKRongIbtsLockimrTbfRb/R60jPaIeSZNHVcS
fE/8r+KGqiX278RvGgto52pPRny7rNYkbtpK51/N/AfzsldSXW0YchqEBOrkY8iw
NFUUdUz0Kx/kgNmCphXLeheG615Asli4faUA1j8DVkUc9t3Kn8Lrr7Vn6dGckweu
+NRCuCa6yis5GVbthv3MiaslQf+7spGIAQkQdOZGzzCzMepQUapcGxy2WtT2G1m7
1evByuHh8ASQbb6pusnY2ECOiA9kW8b2Ke2Rs8JHA1BqIy3FEVIgR3f/lYodY3va
W4OnGEFfyxY4QQ23ZS6zKjgswet551RtkBOPCZshyhMDWky7vpmQy2+V1rBBPV4O
XN9CNzS7c3pWlOHG6WeQ2O4OjTKaLzCVxiQQx8zkg1DicD2bhyepceb2Z5XuCqm1
vjUydoT6cYuLYV2C9GtJbXbk9nmPmyKfqRRakMbGle14CV60/JGdM6nDRLQOsAPJ
h9VAUUe5U57oaX9hFgtVtaCbmgdtKZjbSUF+AOSfivLXxI98qwaER6GijmyHbyRB
x8PgplbIiyHpIrWv87mgldwO+7dRywpfXKLL4f9uKy7MMbpHEc/J3z2R2yuuWnEZ
PtCWvIJ6Ju6KE4jaOC7gIAOoGKwCFnF25j+risnVE+AayrInzKD7BXXtmesPJSGI
xY8n6UEXBl5gdq93N0bhQiQAbMCv+XYc24dGMpxlU+uEwdw1m5zbe9CJRs0UWgP2
CykUziWu61PNGD+tNqa/0j9fo0LLLhJZxC+s/wScXbl7yvwWJhdYSAVkotPo6w3/
itD8YfGu6P5tIya1r2TWqVCC97HCpibYrweX8UbEz/yeKkLNcHkrR2F/+mR0M2Jd
j8JJm6Q3TLAFQGEVMMYZy/EQaSbKR/S6V6HTIf89vmYRt/k/z8IY4RQKz64siTXT
aMzndY34c8lDLa8eywIKyCCeAaoI6+ShLAQUhNdIfZh0V6FGdX9D1FRgtFU/5qpk
Dis6poTwW5w1WvdrIwGhuV6JbLAshq8AmB9U3JLXTTvnr0OYgJ8pvpquIuRq/GJU
5kfVZpzhVPScCP9zQab8Wr1GeurYELSoPNwSX2jvV3F0BcKlDq2ra0THEKpAZCXG
Ks7uDKGE1KivueQZR8qdO/rGUwl2t9dgFf9ZNXvNc4U0hiHBMi6mmD5N5tLtstX1
MWO2dqEWReh/RQok3Uofhq1K+6maOfvzLX13abbOYCCHmc2pgLd5rVCbIC/beUMJ
vs/dOPldkjc8x6vgUvjqhmovYjws5lCJGUKSnO7jWeqkTqj4HjrT/GMqGF1Qa7nE
ZvEgerc8TXdJPqrNEglxV2/gm8j7PpQCt9c/Didn2IV2sK8TePptk8fYnU/uSHsc
fQwHpcT7/oMHnc5A6UJBLstVYyVkrcFxPF8UNAj/1LUXow77HC5qFhhYbsABPbZF
Ii2rM1QbKNbko8F99g+oN8KjEfWF37bKH8homQr8ynu4vornZuAGegAwtxKWoSvg
NeZ09CoKlTsvzVO/8sRupDujb2cU1CD7SeM102DqRgNnQULSUj+M5pxVkka21okt
9QLfpilfD419FPCR7uIO6tzyYSp/HUIUYw9FW3bdruxLBpXwOSHatoUKRwDn/jKM
zrE+5+iQA0FVhFsSneCCHGJXYtPnIuhwAfUPdhY8/Ce47oRNUFtFfJlNK3guUNYI
XiWrgReKHBAAJE8JlyEPvq1T+xc8eTlvzhRTC3pSGgCwes0/wm2lVPjJGoXScw7b
R30sQ/wnOmlK4YYNH1YFPztDTbGH03XX5tqvquoG8piiaSUzqDX7b8+SRR/hryjv
tQ0/skoNd3KDTXI2p011pzbm2I8MkG4BvUldODLJLmZHuacJSnDxKkX0t5vX9D0D
N5M9EAMt/Uz+ACNiY7Wsmmkdj77LOgIEbyNk8GcGfcFMuSSKAZs/ISPp8GC4GXQZ
VlFCTsi2SWRUsi3gPIyCUetaeLN7kWrj2/ZrWaJLy94fTPxKzTwgrVF0RpkMqekU
UUkcANoDgFdpXH3817VFZJWhyh1RB2OSRXTJA2SBZBuBNvk+PhJct7M5vtAvIkbq
FQOw/g9UK8jBOP2WhhoMGtU9QlAFNCVhfWOhmaNSbCD7nct2soz3e9tbTGfCMg8I
AsriA502hfc1eNSKSk60ymyliovfUiFZ1Iz0jy/Dbt2pZdNrNd3ghgxh6+xpvtMk
NyfIk70DqTiwdiW3W2bsCc8r3eRMJfO/Sq87cS8xSLArRQbY7DJDiFbVUre5mRGr
uXaPas29pXEQPldvQMNNQceidDgExPlfChX0/1pud/Fp5y0UuiJL/Hq87fE1V159
o4E7qtgvwLj7LNdk0zScLBxY4OYKOzzt4CfccQ/Q2Day+uJnj1sbM5pH3uIScICa
cS4WnIaMxus1IuSoz+L1y9LqBOtvbu7WqcJ2uGUmXYyAZeVS8CSQ4buJvfztGXu9
3XryqcW3Sp2dJCaek+T1iFbo1CQhKUAWy5WQyvllfRBQ2aJvz6CG8KHGk30+J1WD
hZqAtJYVYSevE/un2QzOjHgldm6q1jcADBHv+e85igLya/EfLcIZrzN0h7r8ZWpF
BHQRYKB0+BYKPbJgJQa0IriwVHwMS5xhJ0Mh8/NPU0wphnIB5lZiymLD1QUII6w5
6ut96iIIZ9TQ4WljCvya77iOPZHnmxItOQg41MHernHekZHlyj7I5v4YTV1GVQhi
0wK8uKgtw99YTaqCcbOT+53qksoyrDkDpflgei5brw/7EU4S+csQEyTnN+vecF38
rag4m8Eh5LNlAdRHVDORgByKHjRJXTHGbVf+r+iem9Gdab5yy7vpCoRHzxkLVcJO
fgceZAgS/vxnuDNzGEp6kBmKVk+w7IM8T322oJ9TJ3lM734Gsk1qRVSP+wnDoIGS
EEd0vovmmAXamiuwVNmbxBOcnknExmJswn8MkEfOUlxU7m4KsFpaAeroXivqLTub
I2X1fFEKl97myXG8kEO/AZeUfoSEZU9S//soF2gHy4zS3I2lrIh2VBLG5L9B1WMw
4HNSgw9sud7NQjxvTjAnTHq9AYMgll3GShR2D0lWOefUHTw4GB/tTW15h1a1AJ6S
mZXbB72W2lZSDp27/69eiOIOBUVipmX7X4Ry332+Eo1UzNwhUNLCb8hJ0p2forIv
Lno7vB8FtboNxsnGUFHEZfl/2ATt7fHfQtoZiwkiDpfLkOfwLVgnLSVR3cRrFIxn
4QyA15bud7EBF5FmUyEAVyBKq/nSSj0weOTCznk8VB65q1VnHZIqF3I6zoV3ttub
DP3QzSrg37Yuh34NDDdEvVp2ltEpH6kKQyBFFt1Xxq99Lzt3L3cRGF8jkVi8KTIW
9Q6HYSyB9CBCQUdsYhds4QVoD8PJ5UorDSmTGKlVpVCuXpXVIH/JITlFLajbEnSr
uVACAxHpZc0+YreJogswq8oiG16vCZwO8o+Ncpf83MoqTuQL72fwTeFU8KOd+FJe
Rhy5d36KV0FznfEkv4/SqIPY7hcxfeKPQOrTir9iHI6bmd3E0n91J/jqUEQ88Ipf
UScS8cfBSJFjgpilTy/7fgOasQU4PFRQLcWyedzuV9zMLbfoYVXqeZzfMu6gE6Nd
mnAzJya+U0MYIqjyO1mFsnfmFxnjk/PDDA6qr9/ue5zLEbT6SgNFGCOCW0WfYkzv
7FEUY3p4gaYoR3+sLre6RoCcQGeO1h+1o6cMOd3ylvKvvB4UqhKEe2lTmL4SYqlM
hilOYkO8lEei+ejiZqN3zzCeyeK0x3QdFJ9QC9Wb40u2U443V7eC7gb13af9cEc5
wlClaB13TWNf0l1u/had0XPA8+YMy1zqlRpXDuQG7patGy87gOMLcfz8z7MgtWVT
PGMGE5vWQpBTNBuAGZmNxw5Pp+QDrEnLHPo7PHM8ENpo+AS8tagjFh/GPkO8Ub8D
MG2OJWLE986k5G2ZPzI2aQKoOB+WyVNXvlgHGYsEOgxQr9/1B7GXgt+njgBJ1DJQ
C0NenbS0+D9ASlosQJykK7DqIG2q2i+R3Xh7aFex3f7UqlUdvoe6F1QS1pAXPD2a
yLU57YZ9nJNwlEWE3FKBM/86mKxldGCAkJGPFI4AYM1uCLPrTLyBHAUlK8xK/fJj
kQDPPk5LGlf5ucFJEJ+pBh+9bOUFhPOAzqr8sqqnqC/UuziaIocq0NRMRYHwHOBm
Sr5w01TVHR/CxBfQ50ZXkw3gFB6mJCtobScdih+FQS9za8FiAB7gi5quRNVACxnF
t92vYemKXTHGhlAziexCAOvls5k0TyImmpX6ubSaLR7YStt55KahGDfa6HEUVWAZ
VlmowiAWpe1QQDXTRxoPwFNqC2fmSCsQBicAjabsQ2cMJmDc/jXLv02gRWthSo3c
1E2Zlp5Dgxx13DKCMucnVS3msSWCDLNrJIIbaDas8jTG7IsfR1BKQOzRRYRuzUND
3TeKWzI0IST5gFcDMVO8DfuJOpoEjq+i0t7zCvEBDRe7y14eVwXv1bhC2XAmUc0Q
m1tPe6jDdU7Bd/O2lgwDs0fR7xJwNagLT0iuPR9oP8ahY4lTupEulpyD2Ajv0+5/
mLm3LIrdf6i+aqiX+n/p5cLr6ASrVRxheedn5myQrSF4SaAotO7UbQS4Rs0lhTpI
PURw6egY/E7dqIPr4R+bnGQncaZGS4dnMQEksrLWB3w11OjNQ+3dtJSSMjYM3rRS
qLLzuq9QH4th8pNfU38IeJJKDdne/aj1Sul5KZohb2VLxK/m+ZPhU+fMetMoXF6R
u+XLQLPVQVOAU6MDlq8IYlRm6F3zewpKBidH2zhz+FuhuPkRoSv77yIwiA5f7Gn9
upibm2+H88nOGybDda0x9/RhFmePjc+K7vaURlg2CJq0wy7V/uX4k/XQGPLGSbGb
42ZDKbEmfm3UHC+2koKBcEg9IoASOugoDMzphBtspoAoY520r/QHZz+uv1ZzjRH0
HbDZfIke5zVvZe4eyUKrS92pYkRyH5iZx6wtHlgn3XxbdIQbLxVllsujJFewPP0T
wOANaS1F84hdJXLSkPunXLkrY5u3MbF7omPNK18mXy9I24CTb1kYXuHuApMZsU5u
JQ9J7M1a7fvzQaBNUc8Bg3ob9qeP/yPK66vFSLw84A8FA24h3rawbNj53PwgdIMt
9lZ8f3MoLBDGf44E3PiQB1zRztZwtDjZu6cwbKDKVJFt131eRgh8cgj7hbheMSPc
cqiHkHsHC5jjTRmyOEguOBdFtogzGrdxZb/9DmWuJCmIypm6jO4I2PsDvZx1DFj7
HbzF4a6RZkqBRO8Dy/yAgA50kl9OQR5UWsmQ0XlFu0Kb0BrAV0tmsCUU1Av1KW99
7exNT1f0yzXI7Bu/vk7YuUId58L9z2YMgxzXgBbsynvWu+wJxKZGogCGJZOTqdtp
8vioi+qmwbLVsQTl2SG9M93TlVO+/Tcgt2PT2Y+t8CVvZ/Wkvd5wZJT76J330ZSQ
BLF6NDr3dIOHPuyr9vW8bpalQCJs5QnU5KzoNzVFIv7J3V5DXPQSNQx6iYWfgCxv
29sJdMvPHOfsQSt+fs3si1exVzDv1gk5+AiQLTI+gyL4wCnebMkGUxg8W+uaEAYM
vYFGZwrUZReKy1J1dOLAoPzQ2HcZ/ISopGwOLg+d6IZouApX8E2mHq6WtVpBQxrR
9/Ccqeczj2JdEStQvyhzIyKEu1KgOlnmZILoAHtVUZgxDNRvyhSrDDv7zl+N/m9H
o1CIigD8bWNgS0CSobqoDSW+zGZzx0tQI3YsRQDG85tGqZjs0X1/zqurSNAFojhZ
eSgvGmXTUM9U2TXU8Z2buImKP55dgWqfx014uXxBJkS0mmrfnR8NiuL/y7/JM+87
VcMRc7wrwo9cE9HdhiKhnjU83lFUbG+hgFOExkDI3oqDnfyeov3e4ywlTTaXg+oY
FzGpuO5NzZaFEoiXIQmgoxYaWZY9qGOPXp43sT4dPilqaN7XG3lBvKUxQKPKSd3u
htEGaD5JWKCNmX4QIFTRH4U49lv5gGg2LYFvVGmVAQRg+GoNdnkPoh7wALzP/re1
u8RHyD2+CncnPP8wXl/awTMY2Y9txMAfSFppfTkQyTJs64VOV5y5REnOHYQtn4k1
oosVOKM51u9lKra0aK4OPE+VVjqjbSbUWOicX55lypja8rm5Tsoc8Tm5o2YOfbDi
V0Chg4MI1N8JHvViLy1/3cknyQQn+aPnYbrxlkk7ICrKYXYGBF8KeSKQVq5xMp+l
GHhG7B6M8kfNx747OroJ0BIR1XsXxKhLoMbUXr6DafhpKimu5+g/LEx+bQlKc0ma
ml5850WCuuStvRSJM94R94S29dz3m+sLWSsVK2x4hqDNLs9N1KPb+ZDyCKnlfgY3
TEc3BP5dIophGIEoTUIAZGg6Ut+mr09mU19GOYjXEaA2JgjSWmqNosNaB3aCa0oA
mrZxTqOqhqx4JIe+pv66ooJA8nP3+jPsSoGp/NUaDOZkIL5ebpLu1zTHVyTV01/z
OtLzEJmW8jF/zzoNfoK209YXZd1Zcg15n5lbtj9PqznhxLYkEq3keRmaEabnFvMq
oyEYgavnW0kwWjAKQgOPpKUh5dpD5gcEkpJPAJLOKxnaFSwJgrswxriRYQy/H01K
WpYL9kT8qh3OxRvtIah8jUMMMPPS2OI4ak8SNCkdDpMXZYU+c5Pp3BuYIKVCkeNm
iT88pXECBtm5tf1S2Ak0LhtVCPtqV6nGHZepLWDfJXRjhFHhxJfOADWowCdYpCMy
G+IxNqZgDxCQPEes45BWtNdw0xj6LEEc3aqlxiNcRe62B5evJtQnIIy9bcE9Gx0n
15JJpIxh1OX4Tbzp8gQscqpiAXd9N04NEvTZLt3VuSX58hQ0/7uNqj/L+A++2j+A
xnekZKoI1UqJfM7ncJg2Gxw8abstZGi9zpU/uC9Sjl6fYwx2253XVSTbtjFraDRC
ysrcDfr0XBJMJHFTlA/m9umpHtk3qqx4lLhUSSpnpFG1iHficMRW6mPRvJfomdVo
kioXPGNKzlIvyAEHvRAxIjboRCiK7feA8pvVcVLdZ8PY0kVVgbSaOR+D3NWY5J0a
jUCk28QmFadCvaV6crDY2RNMawI7wjoX+DgRFr+RjFj5IvjUaCxygW6r0yyfAWSJ
z4TVeppU1x8igoKGtUHJaJbxtgPErCclt6V9Y6841R8n82C01Shhs3Rk8Efidsir
MjI7Fl3tC9Mn6GEPvq0cj5tDF6gI6xjXQ1kOiJ2XM4Hb+YSubR/8RBs8QD6xbyBD
qga5g24KW9N8CC6BOH0bmVxBZsGrzprumsxeIoj7bhmnsYGN6mKbJchu/owJSUVS
+NOXn4JtvuWJqyWnneZOX2zKCHCvX2Xf5alr+WsOulSbtMDDR6eE/JcaUOKFXu7q
cpbdWuotukwWDswttmgWabQUBHfvNePwIlAUS3S0GIyipGm8VlmQ9NWJFfMOBgQG
r1BztQMW5Kq3gOtnsEkUohYWzTb6b34atYC4etTl9ZarbSWZGUaas5rVuWKd3JGc
rMt36Dmk3NLeaWY5QjTXNoWNxYgOS6mbwLRC2rovfQzCVmiY/C+LgrrAbnJan6dJ
4vKUTl2Ca71pdITA7Oe38GyvNV12YhsFcoNCCvQGK9qR7uyj5jdpub34s1bhj4fv
N0ohQbsYqmpc+pAtD6LM91ufd4JRxtO+twegdUvzQCYooeSL78GgSI/MmNv8MUnx
YjwUw5fhfemVNCJaYkUUepDHVglNZm+ki7b2ZYvb/ZMTrVML20DUVxUXSYxRS1M7
mRpxhNLmsQDSfSNRMIwavuwOfHtVjL2ncwdMsnu1ZAjXhVscqszUI3Yi3Ci43SRr
iaT8veLNBvh1W4pbkZedzz8UVHxCf8kyCbueaBF8O3RnuiULavQWK2uKxtpALBBG
Rq8ji9D5IK5++EfLt20H4oy4E/Gu8zHTri7kDdGclS6HZxYCP+lpFyNWY8gcykIA
6oPXPHeFZu929PUNb7C9FNLaAuDOQx5eNCDFDOYJSUqOqvSH4bnFjeFTAK+51dMK
oniO+zFfYuk/lSrZqb3gUTwUNrli+Aa6o3ODuXfEzY27xaZt1m4odEBQbI1bpZ3Y
UJtKN7RkfGoRKkWtCd1lgT/KdpnEvefb4nlLQRtA4I66r4dH5tInaQb2GgxgWshW
kGTCBqflpHIpNn4E2xx0wpfi+8eih/z7vTp1a5O2ZcNueHqPbo7vGhJANLFJSXdY
4qnoT6VwGnPFIwbgVGffRnIs6U78MHhO24xcHd5do7UYsJJrsveemLHktGKI0O/G
1UJY6OwLKvRewwbpzFk4xqHsMLuY8RQppTd5kNYE7NFngV2LQ627MQhVhfBPkN1y
WwBVA4QzCjVavca6EdYch8W8yXoA6qtD9YDIG1T03cBmufd0IH1f7jafSEJX9HoR
Cfg1Vab7fwny2gyGQI3oaEd01ZHMmBwuQXblsvYeeWMjLtG4AGzNOl9lhdUAySzi
GXeVBjfc2yy2CD5PBj6BpX01b5omF0tkX44tRYFT17ryRfLunZO4I3nMt9iaiojI
LqkQhJRyrl1Z4/MRnYw7tUTQZLKnyvqN508okRdI0R+DBnMdNEoJ1VhZUkEwT6qV
o9T87APSrBqnxwPOJd76EHFyFv8Bj6qzY3sAGx4m3eYSH2rIm4Pyc+0a/J3CsQ2j
bFtNok5Nt75TDLZ7TU+5Q3S6gICil47yCs7oSdfxeniOmhZjGSsoUaQ6mvwUp+LG
np2oZb07RINtp6wW5GwjNcDm0jaKw2CdUNXwKaD0o56SCzGZM62NQGS1ytALZkBZ
ix2grcDGS3h79/lDWJJs4UFion8qLVROHJb4xTQ9KKveZ7UwCa0tawVTv7W7lJvT
knQVhN3ouruLa+ljc0PuHrDWF9iBkh3vNjv76ih5Xn8/qj6Ip8tyD69jz3zYSirD
4FtRqlAmXVwjadcYCeHDiFCTqxba9rs5h8jAc93WlN7o/hNsLZSMg/Ae744wasN8
qRt2mSAQVnle0dhX+tTfaP9pju2yVy8poCwuhHMrvnF5I9HJtnH7m7xygKvR3gkj
Z5EFC3Fg6dvy74iKHuJ6U6VaV0qdT5xU/0ZjrhrILkczU1FfvhpKnH8+z4KPA5Qo
067nBpa0FwX8zYU5tj+5JC3QgzIBrTcr7MlQb+doez/LzYRDDp+/zNiz5g+hL9TQ
ZkfftJ6CyE5n6HeGnMqR1IfAW1Y4MMsDpbPm0l4ORJxg+X3T89cUrADU6U3u2TyI
+juAT2RArOeFVMDOpVIzg0I+He5erxTLvTAs1WYj8fY7M9Z+JNUUuZ8EzqhoFFAU
sszF0I225YhWqQcBy2Jbp2FgEiaC/J7MqMEpWIYBx6uMk6PJpqa02cVtWO9d0Owe
WF68L9Nu0oezIYHwkcJqE3xvaXjs3rkzqA4e2JWq53d+wRln4uweeGKNy6TM5v8J
eMMhxzeTdy2Dt+AyKGEz/b9hf3PWm6cnvoeMpns6l/HdtzUHoPuGDjRdSraqfBVZ
ULq4d9KRxY4rzv+0/TDlaArio4unucABfOF3oAYYysN7WibWVSs1pm6oa3XJEkIH
yGRKupNw7CGv70I1YgH8wOZjLkrfTs2nQSieo23uMPovKVfqYXRzjNpaGxmdIt+R
N48sXuTQ1eyEK+7zWVUK+h1EpZ4WsQnQSY2DrKWWYSYYmh6OwpTAJHz/Z0niZxY0
QcVHktaLxTJCjPbc/8xiaVSvRUvqUqlN+1DNphMDGsjnLWxiTRbHfggQxVxtM8kJ
qpAylORgboQY+knUpUh9sTzoDWoY70yRqLFmL4NQ4kvAA2E7Y+liLTVYvm14SUWO
Tmi0gz1KjRbZPsSU1cYbSi9LKalRKvX0Oe3EC8DbwDugXnUfBKsoFFClpRHBt1WZ
uMjUHDLtOza4i8hA4Cy6FGyuRhRgv1pu22PZFdLwDXeGQLLvmtUqL+rhSCPxLKiM
fxRisfzZG/CJEdjJiNaipNHIzgG3kELEMkfbrAXKBY7b0ixCk/VUTD+BXD2J5frH
OmWpCDenOquQf/2uBu9ltrWQu4Lbloy03TIHO5QBAFf15HCJ3ZyC1jhoIVqtuuxy
EfkLqBLsFi9ANME8YotPc+mSQgH0l7yw9F83ISvTjqMqRchIi8NtAFGj75PReXgM
9UBjf/C1nY7KTwddJTfO2pJRGp+KcdLOEeerQ0gj9osct0xjSxKhTtLEcfY2Lc1G
+6BOKoRqJCTeUUFr0l1UT+z55nom1dGhGR14cMhFCOFrp0ncFJZoCTQNLK6AB0jn
UXjpB1B18fHZIT6AlgfP/eZzIXijhOpiNsZiNQX/Tm5m08gwl0SsQAkwX1kRCsye
9MWQeoUgJ6TvFUkhetyk+guvT7hXpAgvAAdCWDgrDSLnwLp6DWSaElMLYI1R9Ggj
mW9Gjpmt5zKlpn1YxDxfKwGEbfxRbqCD5t+MzHf2+QLf7OkpmREDSx0XbZ1hH7sr
EdA4h6lFF9+slCIdMOYp/3APC6ZIAEMNfC1EJgTMWD3+vfJ5UYfoffc4ROs5a0b2
3jhKo1wtA0uRcdwrd+uiEyUbnBHKtf7MNf9FUNNKlEZ4IUzVrxO9VvDWC5lWayLU
bwMvWPBG0psoG21AwmwLii6dq7QYjC3ywS95WAqgQUMZHvQsK/N+E8WuYC0vDZwx
PLaJkSwTNeo9T2vjfgL84Og0kJGEVH0ecSkwk51zTt6YpzJQkAyJeQ/XTTsOx44N
aOkdbun956XYHVvjylPDu3RHl9ML4VKgYQ/CmT9if3gMA5tnj2LsF0OHoBOvWv5h
TfApM71HwR89hK5jVQsVOvIJtkwDYcYHhpXKmqT55h7H0X9HgFPZPsdg5yPQNNnn
LRhy60gzxXaoOziy2aXvtOuV72Z6umuSX9wIVDVnrO7Hwcr+l8QXE04FmGzskWib
AOUZ32Fub+HISlQhjo6EyjnYh2m50cOdFedxEB9KJV9F9W9WMw//yH7gFa2oER6N
ENDPFS4RUkTI1F0Kghdt5jwY1oBBJA70LDwpSFsVS11SqzXrS0FLBtBLoYyM4sia
5P0X74N6X54Dci7OjpP+ZXuhUSo5BUpAuGtq3vvYP+yGfJCn/SNLt08qXHwgdpon
v+4OaOvepwSV3ROwDAlhbiI0PFEcR1GlQ3/oArkcYFVLNy2fk8fCGTaz1iqIzwkY
VdLzb6aY4MSR5EHrM/A/ne93xPGdAjHlyJfC0gNPqNTaYW6elM+B6gTSx2WXoq+Z
4ydImfnwra9j4NvLiDBymG4NE0owHUTn9YdpksuicX9HeVKJnrRen7OjyUXV9Y7I
gPwAoduxPPCE8hjUo77lUIrOQfQ+4/RHYftVDpvy7A+l4qXiX66VkN05KDFXlUZF
nBrlg9CppGLYCiI0QNkgwYfFBMP/NbQcc+MlrKo5KVdNeiNxDqg6clmgTSZ2Lu6z
q1+qb5/YevvL7v9DkzyVkZML6mOEvAyC4NR626cBdAfb2TpYtsN2oE71ulKJ3DJs
qJP6HTlnUgeQYcHQ3Qm95NYCrJmbZfSUr8B0cBQ0fXEo//snoLGlT9sPGNoiu49N
EGn23P4LP4pqxL7GzZ6h1HJtcQyPVM0IXcPxzV5P8fUX9WvC9Rf5V+OdCSnxwAez
WfU95PTouJjFwro5tQEZIXXefE9nyFDd9HdmDbls4yMljOM/R3tcZ7mnOOOsGluu
a/TFF12RSQbwzkkLQXk0jqGQGLAKdFrnHFa6OFSXhclroBeCSov2W+qhvxv7yWVU
R0hp2VOR7LC29ab2wMS1msDUMUfb5vnwRNdKatnxbt6Ks95FpYbmH4QC4A+XESTB
8flRocSC/xRwtySOkCSIyTi2gu3bVeOnzTdAl80OAKl/bXeatERgjCOlIG9dgs+O
Bu1PexfGvuADAiBmbn3x1p+HMk3zCA5gRhMSQtP6AqxGnJA7xaNZZm3rwqbGzLvO
M5fBgREvvyqbxeLtuNpGf/8M/+kuAegAQo5p+KOQmAVbzC/GkKrQ4ZJYl7omIqn0
uIJXIJ7rsT4/UiuKGou39f8ueDwDUo0prDPwVwXdsExHXDfNfOG50YMFs1I7GImY
2uBWJXk7pDBEafU6sBfj5g7nL/uicX7rgtwve5BUWYDcErm4o2Lx2u7pqtdMkNSb
JiBtLevNIvjmIFONNqSPLlWvG+s7OeL13hP3hEHZrOsHCeHwDMzWA9te+G8R8KlI
oqpTT3JcoPAg2BwXLOMeJR7zNd4nHWMDQgtzbucSjcB4U0Kpxb9WtIIKZz0rmzF1
gtN+3QhN4onzlv3ywj3taDrGmfMNAMT1zSnDM8JDa4XJsUToU+7w2NIZDx1qIdzT
WnzWIk/gYwGDjCvWDu3mW6M5PccMSvqJbHNk7iHMt1uX4j97TldqydZ93XFg0a4J
b6AWRzqAoyesJkUNartPWyUFiNnvtIBZNP1wvKwhmBIaBDVyVAIIMiMU9jrZclbj
cPCNYDx+AkTpR3vEFIbtkZQ6ZNLc/UvsazOHwr5kmzZUDysBF4WqJIAya+Fam0O3
Ryfn50qLDV8w+VPmWSWpyWSamYN/igI0fquKsX8pwzPiTK6uCowyBI9JT2ptKXCQ
LPCqKBvluNkwb2uqKFXwilnDqb4TZ0BZ/iUZ3x894EnzppDO6tarsk+CWqyInZ/Q
pf7hoWbpz8VuC7pxws4ON7opn1pnuvdMqX2+X5CdMVLmon9zIb3SCVo9T510AiT9
VYDLQLtwEk6os+oqxbMDJa0Xz49/URLuLq0oHtOstQiNS8LcjvC/NwazHcP7YnzO
AMsixYe7oULCSMbpwd7U77XVPpVcjcVyNugdpJa5Zm2BjwY9z8SboJUqIKuOK9E+
nBO1s/McYKhvQowjheO/PitbAfUpnEszMGJgnrgPWNHgjhRV2ItxTbuwnKT8bhIY
1RqIwQFi47PsLEsyqICyZb4VgyMxpRgsIyyDu6zMr8GMTiZDCK0ju3bU0N3uNSS7
QKnOu6rtLPY9LhKGqqASCVaUIVDVFy1z/L0D8kmPoctCZIcTlXRpBKbqq8MqgJoY
5lyveUiYh11dKCmO6SDfBvaBDd/svZKzYjAu+mB2EwHOY1XVwz7rqYmoucJss0MY
+v1Y8eVBTUtY+WEmTSFSt/UIWkMcZUdK8020E4WOESlALK8WhLy2T+6ULX7H0Loi
2qMXhBoF9rIyNLubmlYpORoPIB0Wxg/8FKVz0RSnKCwuBds6H/Yu8nHR5lt2dj8h
EzU57qRlUMCUolUKAsNVudPwWl7vT4CNG2Mm2EBH0AoM/BE6NfbX4YybdehITVl3
3nolW0yIfwR/CoL3VFTKwdhxLUJmfIrMtx54T+BnUtphQjuMj8AW2lxh4anc0cRR
wsRNdE06CMvlgLaC/w1KnBqP2aK7LzrqGrB5mVxWqkvuuLoNnnfJCT1wuwNLy7Ub
nTa2w5WLvFc3yaYpwHZZ8Tbew2JjvuUfBcOnS0N8QOe4q/QDMiYO4xys9HgTB8DV
M+SlKFkBmiCcaTPCKs67Uha7ko9aKglaovCYGNIHOtSmr+xFesppH6AJaKe7DWnV
sNBfnnYAAbtVv9zYL0jnrIpSCJV9KiRriwHl4pi9QPW1lsTN6pi7wbnJNcA+nG4E
RBvJn73fHZQWG5jbTP8TmdSQV5uqTscUYQuIOXLC18wEr+92LhFv2wOGVkfBly5e
q0p6VsJ1Q+Rea9l7xDTAzlWuHSBD5G/quF1KANUDlcx+vfr8LAY8yapQcKbFY+42
R4SAlFJuk/S31C8h4nM1U/Gttn7ek/nAlmdxg1+TQbBNYVwfKC8FTs6lDnBB3wwb
nPStLDStoS8eUZTn0Od5sFkn4m9KNGsveIFck/GQaJ8/o3tP12VykjNrwRJcIg5n
a0on4mRaom6rndZGbFIim0l5AHQ03sz/FS+Uw3jHppWYX6h9RPcs/nhUavDI+NYl
K5uiKQ+fQdYR3SdAKDP1htdtvWzkfW9Fq8bBUqSlN/AocNDDqRoo39PapM4zVqhn
oxrm3ApR3Flq+JXB9+LNzhNwt0M1kmrXGLi8jKEtV4lZqT4PBVWiGFQlfPsCafuZ
VIQB8kv14gBs4M8CpEX+NkzwtXBvPSnZf/sx8hdPA5imlNv4iKsw/kxyxSvYgZN3
3FGw5Oz3C3F+sGzDiyjpwdFXUdK1F69fo6vAoiBoAi6j3VwwR92hRRmjr2WAi1Vn
oB7XZv2rWus/yHBWZydIw038WGmgRzWraZQLoa32C9YaKsuhAyhlhjuHcSd2D9Ot
nYIsekJBK1dDeUQ1B1DTT+CxrFwlGUXLmCjfrwLfU69iPosaqOqNUBXQrQC2u2ET
afnyASENRsBfWMpHqCwRv+wkLocjz2mp7vkT00r6+/1xt44hWR+aFtEIPQNPaNCx
oQZQlKZnQq4VASKclI4RA0047mAziiM7VdoHYq21pZQucbgbsvpIhzromt/1sa06
sWeYMnyvw+5EpdgqZ8EwSYCc+1hzj8rNu4KO2rQYcuVLahfYy+r/QR8Ey76044BY
xpuRdkwUgJeUXOp9JKDkYWAgcOyi9fS0G+UL7arCRTfoZmOKnjepTF56n6EdZPtT
ikxNukkRQtOmMobJk+myZpvHr/gkEtIVqaZE3QTc1V0C5aqM79w/+i5s0X0hpKOP
gQSElJWl423hOKSEu4Txt+X3tioKUni9DRKEStFVPe2EM7ZsvjvU/2UXJUH+ZXr5
xwu2oTU6a/hOt9RxYboNhP0q4l4oTNzzS9DK0OHYg/bBZETFu4tsGDbA0Rw1K3SO
pVUXEN+H4iMh2rt89MlT0w8iNK53MP3fMbztewDjbd1cCbdjuPU+QAFSqMJ/+3zf
8XvsKDG6rRn7pyhBxaUtaXSg8BnujAMm1rHtHC0/d7lWLlrr3GIecRDf+nbkUFog
X9sdGgJLQ9HZD9fA1x4hMU9udhFNLkuOocpcm1d+wgCU40rUFnS/FcAsy6Oyx9ny
J4ma2Rvq/jl9/Qgsms+KpkpHR/z3tALMSIus+fPDNUw1K85H7sfqKwdkvFZUSuAd
BaLZk1vuDQDm9EU7GvEyYDpZ2mI0YqERwOoBarwQM6nmaK07e+VC6p7aWT6uFpvR
1wmmHIYBfo+u4DK7cc4wgILHj4WVuHdrHZowmERL/vSMjaDWGlr6BwWACJ7AbLLc
apaCm+reJ6fsYg18mYmSYsQJl+H7t+DM2iVVjprSEDTdJ1KSNHgGYwXQp+HnnNgU
6+t1U82wbCybpi23nLsDh4AEsqfFk29xH2Jz+u+3iw1hMjUdlzBXbMZinc6kUZYS
pEXKCpPVnIb2hdnX5xsUtnX5y0rbsll1EIx5q0sKSaYakdIbey2R5foa2bHJBoKh
B6tOMLgq/gue94MhsvDuLLRf70KIxJBbW8axdW5Nr2LzgyL1RYkcwqQIDY4ZN0B+
vBTUMC21YzpgH4/YoZIu9T1OCKG/gwY80lO9pqKJu1BaEU5M2E3bPAh8asijlzCC
XlQ7fmk3QdejoiHuZt5sw/OJv50ZtcZa9sZuRh89DsK3K48VLY+Hn8HCEN0c/wpi
8lutOvkYk3qOm4UjvmhpS49fPoqD2WXRdX1U7zPDIokFngje44YovqNC9kvo2NcZ
dRkZMFdwQO9iHstXZwFuDuHZnlxbgHJDXD6jeL8nZDeKunyVC4L6+OdUIV56Avv1
vgzKPZIxBgG8lgz4ag8PBMb2z309FM1yVusbJ7jWA6mwvra12WO22TMZe770xDMK
yw1BPqLWhc2TkS5IvXdF6jvFS9EbhNyHkCquTYzheuEucHwS6KgXNbWL8eXzZrJT
mcxjp7s1XwDpG99ygoPDALcfMk6eZqyJkbq31rrdOkJ+NWcAaUID6LzBlg24jIGr
pWfmARWFoKA9Q05+xHpeshb0Bg6bvjsMP9DqPUBbM0LcWb4aRNmBF+WoI1bVSrMR
5U2jBoSLYwvIht0jIMc6tWkJR+5vfOtwJJUgP5uSnltDGo7rrbNOp+kGEcUQvBJA
0lInm8hlJ8EW2vx8s3Z5jLqPr6vs1GOJ9kDUm0LH9p9Sh6vzfNdMTYfk3iuid4C7
6VVrAAJ6iaAJ+UQF2lTNJ9UYWBebMdu1T43NeYBvaH3yZIe/Fl57/hg86MhRY5Xl
pocccvQHQp6JENtsknpW0FRjIQu1KWUTPozFTu+aWMxc+ktqDi/bvU8/7Km6uEP6
Tn6Ni4ZoPLzSFT6PMnB2TBlZxQ8pRuQb82WuMFK54Z104xH5qslPy0xBk3k01FSm
trO1NGixIBq13GenrMLYProiwrJpiaE3rTT75oiw10qedj/29T+BffwrKk/f0BKE
BJzi4u/DTEzPqmvuBGkFWw1Ng9VZN+xC62mGv9td2jTMLirVQHPihO+7ixvOil0y
i0e9TMGFO/t2pbzIuIPwC1ar6JBfu7tqX8rB51bJTu8zg6nABy9VEwa2leTdmvvW
zPO7InchLq5v/4O/QqwpY/rPCjQSP/2tRDHeS0N+nAXnHJZUS85i+DYWiYABT5pN
UAAweqbrKOD1pX76jyGFoaICTtQqTFQNnX7jmXPiGTffjikjc2Lqb7holDDmmJeU
xiablhmGfSrX88v/BIt3pP5PTWe8xzr/7fshTwN2pGSFGIiDEjMo98HNcPlfU7k0
qEG5LuqYQyFtnknwuooIXM28qdazCFtvWvuJO6vPFysoke7zZ7gDJfkt4lw0Yhf8
WVMULlRH5C8fjGpCzlRAFiFgdRW+tqT/c+qC07L1OTwmICWlRyIIOwLbjad3uar6
a4wd1ILMYTOGfh0zz9pLtG1S6Z48UKXDNwueyly5Y94ONCSW2KP0MuyW8ARUFn4z
92HTo1pu4wPbFKsdlYjHdcaEqmZ+J8HldplsMEq20hgPXHulQv+1GJi37fhC8Nkj
N6j7whhbsdLUyHjGP7h2fuY2fJtixkaKqMS/JcAU4HzV68V1DRCKxLMeYezk5FdB
wZuS/+HHqLMVDP9jsWldX2WXw6xv/9bur+vmCk0CjnLqK8Ji488EBTIPfzTDFOEa
LNXE4zEY91dmooDFdi0r1IXrP3fxYPLxfVGDkD8aa+oT6PLKrlJLEJKI+4oBFsGG
1orC64J3FuwXhod5+EpvWW10VxpCHNWaLujlveYeuKop43Cz0DRKoFEAeKIhuCX7
OyqNjn4On7iCQ4HdzxKbGc+wtAre23Fx/hcDwI5Ys2xCZB/HscCiWxJMADKWj3nd
8rDDk/Z+btE7v8zdAB6nHNKIfrsdN1DhG+U9akFIZXL9IM1fDdDoN0Fq/5HJXCCh
vjFGNdz+8iKnLTbskFzGwISPdKZNsyzPGgPVPOCxS4BI1d9JGxUYJOWz4eAopzFT
nl091Sv3rNAXBsno8jHJRwJlms3lybSBJxBvFWz2zKwJdNLOesOrqDRJDVwAdCex
WKRMEiPThEJzX4RCz85nXAgqYGvTRyfG4eql4MQdOw0xJ9o6jw+6bj4NgynYPI69
S859jiaipDTg17Wa8oJcWr3pOqeUepllAB58eQMEHfrO/sjev9xTEeoAZ6YFjWej
bsM0szhAS2BYminCRin6dEXpy9jixrDRtq7Tntir0X9nFz0PZ+RCDN1VJ/IAMGQc
4pWdxgefWcmJWz4ZoxlrZ71wWxc1NZqvjRqyQ8PEBCQA1OkTU+C4x7iI1U5cKWZc
93EvD9BEuJNkmcIV5iB2PUOqkxAnGvFcrOf7N+/gzqAxzz7ZwpV4eOgSJAeuKdVk
pwUBuBoRSyNKTwCgk6zpTajjlpPxlck/DsNf77rSc6nAFVYGWJsuzIC97vMVdFJi
V6w4AiIxZYbeGzrJRU31pf8yvaE5ZDmimivlAfukPzB25+IKf1PcytW/YJHLD1vO
S9UX1fcKtZyoj0+91Eu+D+p/foFA1Xc1Aps1wBxOoYhaGlgjhOND4NIjsktGS4US
0+RQz6MxW48k8EAtMsk/hG7D/MrC6w4AyQJpTaTZwNwcGOQvP1BJz1AWXV9BE8DX
4yvaTjoDSfGLaO8o6e148F7liCUgVqGPo8okjyaH9Nt6NQmir4Sk9gwYNISxwwLK
wv8Iw6XoHsz7Nfigt3toHVto4UwaovN7d4RV1LCtdOs8885FfmmZAAv0PaZdrgaz
cb5jW2By3eI44AhrTH6JVIhtSvxaI+eaIqf6Ri7l9wjqxlNm6eIHpZzS90iSsmqr
PSfwAa3WHFe9cTtNdWEw7ANagDljQ6kb6zRmMKN2qcNYLvk7c12jiTVrZfY8CIYK
DU0Oifz7jRgG69YcLZe1qoE945OeXnbsDzMXgSD/SzfOkzocqIecSL+umvbRXkSr
AtGfVTwbYtGCWR8hTDYjwWA0uP78TiPJBBPnPQNoSc3i4HRKuLKQCJGMsAef5XNB
9jdUwZqxZ4byyyRjJAgKerTpwua5APgZoIOgfFtLY7HKSlOBSb+h+/2umddcnPb9
+GObzKogcqTGQeI1TL3UYV+hCjY64YLZPaJGYwdVDanZNpq6zXYlfH4jO7fph51S
jWIhj8XcrdTb2WScAwFnKOajs42ttDDIMN4Im5WGZdyA+7qrhl8SAYLzwRnnDMz1
l5CuUCY+W0kH4IkaMQl9s0EPF8yCQ6zf8yMs0tdP4f+OOf2YaIKDe1Tt4Q7nrEZT
UkptoQeAJQ+Cx/YV1mvYsDzZFNShg4TgHcrUn3LZVXJhXn3Igj+bOPBiRHZEiKa/
0SjHclkHybHh2M+54CWTD177OO3+yM54rDrXxOxLFKtyScaAYCDgDbsRCob+IiE8
njzyVig/OpQOLLyyNLwwvJRwJCrJJthqpzKE7W0FFyBreeEB4j1oJLTiaWcCU1Vv
crU1EZGo9HoxWGNW4rn0nmwg477kBsg6vcD5AdQw0o5gtyARfQ3sm+4EMp8uXQz/
d1+9WVXWRDzvHUdEfEyNUUNLnS5FkpCZTJxx059XdDxzlnrvFGdZ161NdBD+VkPs
OriQq1OOQ2oXr+OejdYosvBwr2L1BvVAklpBh+aSRKhg0GWedf+uQXvgrSGEtGxd
iuraCW3tSVdOJSvPY9HAG7FGiHBl01mc0zJP1aFLJmxdHbMNqPdQpmpcx+ja6K6y
Wq66ONRL/XB8uWbolIDy9oYQGMi6lMPHIekIgCiiEKY0yG5bBStev/P3jE5WqBqW
dgcIzMOy38rfnkqFmq3VQNZie/PxZNbUhaFPChzpaeAUf/77Hda7IDWHtibPfgGZ
ohT0NBpb+OoUMWafXCmrUjp30PKzgYkVZ1MVmjj6Ho1CoxnnoiFSVwjfxoZRUO4d
ZUXKTKDRLEQQvaWXMKS6re0ByidnQPm5QWdmDAK+ZfuBbZTWMQvhZZQI01SHE46j
eQ5DKv0UULIFErrAy05VxHLlH1+sciRxaz+i1ByQDqevQi+VSgGyXiN9E+mwss2X
xUWsD1NfcYuI6buaxDLKpbTJxywpolSLgCvYd6nC/HtmbuksZup69VpY+uINQfJS
6TRcqj1OYMvmVT0blsiMCdvFiA0KpXLhl21Ominn/ceZu6wSFtpA5Kcn1vgMzcdo
6YnQBOhtX0xT6chbz2nm7WMqv87Xfa5WSKug6J068Zb9qjDY+NDg/loEQk5EXsVS
4Kc6gVyvvpQXswLPAQhBRuB8u9I/9QhTKfXWiJkcNAVvVjZGEht/m0E54ceTvUPw
IsoxJOft0IJSO3gxYQEQCi8VOCXVLSfyIBywuyQujWvB1EPh/zNngyqF01iOIf2s
t4cuInKoCxYd751p5XiVSWF9HsfuYa4/vyKfB1onGGOB1+xqITqiA6CEcB2Sd/uW
5R3rAZviMO4Q7r1OTenSV/AisHC+kPY9nsoAt04OTwqBbsj7xKDiH6yJOJ/77PPt
X9TeY46pvYMcVXUdiTJd3qb/iNytKppXXIJRPt7nRA4L0V1GzI7tcHrls3GDxNMN
miBd81+ZW+06A2P/eD0uoMz54y8VNGcykemgT+NFeG0gs4pyiC2fV4tF02+XyjxY
bhEwHznx1iSysczhk8ryG8DMtvmS/ONM4KVSm58BLe5TiaH9mFSm17BbosNKFAsX
s3XsrcwpBi3dvvQ3hU1BsHcYc7o6U0xxo5eQL+zvvCVf2bEb9i+B+4bFDkh0R17p
5AcBgAf6My7fPmpIFNg5wqA7OdMhLjhh9ny0LX8fvOl54sIUk1Ajdzr9PfPa05R2
czwzTc4TDqPI2vq8T1gYp2SUL3g9Yi3+vENec8vz3SF0U2BhfRQUQkvVwJcDrgXq
ioPJBQ7jjqdRvZUg/aShJx6FqbCqjC3JumodP1tMnn6Nraf/BpenbfIzPip2KmdF
lKd0FP4+4opBccx21dAkXi629wazolvG+Q4JPcHkmm9Vd8X+txP80UM7atbM2m6z
8a8x8/7Joe90RSRGH4mpOf/nW1TjxQ3e9gqa/40nq5a9ryn+do48qSj+ssv2aM6t
lU0IMK/NB6HvWrmdypjiq2IWe5rVTVn8iDz3JS5XyIqqFzBtFfN23CWkdAZuJ7XG
u3XL9R88BGy98rUwDRorTBsrlzSZiaCBnA1Yr/s5ZXuIOxdclsXBaluZpUpR2uo3
KwwWaF79c7Wjw3aBlC5L3NJ6T3y6QvNHjI1YLfrtYumlopr0ZaYwx05LWbQP6mbH
/9b2V9BGiwOuwd3ODKm2Ac96TJpzL7ofnNfWb+2W2uqwN4357enCn5ywwFDMJ7HL
b+EcBiWXEiGxibg/8cuFgbDecZgMozI004C8yNFabTD+eZtyyiZyfsIhfN8B6yDP
Okzuszx7dq8IXCp+WsmpyFDKZCzELNFWBpI8IyQefqZ7aqjxI4YxrrRquhWnJQp0
Z6GU5stwElhoMtWaUPr2zdXvT/s+FjykcZT+OaI3GMPEvKaUKQidqgkmnfAm17oE
jEXBXB3n2Dd+KBeoSUDTP6bicponTKSuTpLI4n3V9ZzXEj/TnvCV4U5FxUPtYsp0
QamZo6Dhi+2K21gQDZ6qiIIRqdDVXa6aCcmc/3VEy4dZTtaxgwh8r33oU4kWpKRY
x5ipq2H6KRe+2Y4X4j0MPicc0oDO5kR4OlH+5ejuhQhprzURXKDcP09Jcq5I9obX
Bv21t/9Cjaz4aW63u3IG90CyLR35vXq1mBEptSM/JQL/E7XfmZpp/l4r5llRWwst
mSxvMrdcKPZ0uKkZUFlDRFaw3UaRQoFp0MwjLq8jIQx3a2Mcvs+CuxboO/wSz72j
tVNyNZ6UNh0VpYTTWCQ9DqcCUuXIESG8W5+yciHwNeSlZH4kVE1782CkaVKjj0hY
q6noLCerKVPrd7uBnwE4QG+CAAKOIZ1Wh3TpE8jpXcushrSPrchnrRljmku8WVip
P+AleK+TFe97kJBRkEAMqyNFQg1NrHbochVkCN/KDxWmkVvVry/w2R73zdTBlaCJ
Ij1C8wI1vqwoDU1J1b16aVKtEcz2yqe0ViFtigYaMCBEiDrzVcTZOh3lgsKeCNKO
uDG2/Ktw7/7N8mxgYp1QLS5WyRLccfQNKzSiP/AKo6grfU3kzToid6zgK5BZmEaH
9YUTbf3l6yVfFD3IgjQmiIGJKcgRhCutX1crnbAQFRQ2hjbWuOUvYcOIeMAkouGU
x5LEhsE/A60aPdhobabDKsoMjqOChGitHzvFbdg/rJTgKnciZK+/BU8cpC3TeT9B
GA0l4l1NvOxxy0OWdSuVNCHEUVDe3KUSQLpqboEDOw4ntNIEtBG6KuUoLH2zSrb4
8AhJbJbluz1pQFRIW8cB7ejpZvPY5uj9RO5eF+JAvZfcCM7bjnVK6VAuv4l+BqIu
Z1grAs8HPZtCQHP5xySRSoLY5xJ/28wKHlWqUPmG4CQWGSuykBHh65FEwa9dLDzs
7+Fzv/cx2MPwnpUSS7/OvgFhoZ6Gu0phzLmUlbQH3rBJlIB0IWTzb1ccy5+YV+DW
QcUUkqUNFZ4ETo4D2BJaA6tTN2gXyIoH7juQlGda6fBLjx2/5rJ5V7efknPZ+iNr
elLC2UsJan2Sf3IENgdV0t2Zav9a0T6DYAmqNI4XtDootkwEenH8nCYNGm1GkNqX
f1MQrZrhktwC5kn0NpGH/2VT5E6gUr0wXqlqanZ8h8T63evXAaPKt1vcu5KWr6+S
Ht4zFyIlTRGCjgOY0644jap/Dp9fQxG3Gl6N3kgVOk84027Ikg1/8CNP1nbSxi2o
Ot3i9NJOtj8btcZyHbujdgmtUkJpnFUMoWqnZmJxY9aKQVOHX4XNyd8iHJUKH57j
OU9WlAWipn/AHK0OcsCh45H2g7MX8v/hRXrj/XF0Q7jMO+7GqFOLBnMaXdOvDHbu
D0qjIpF/KUriby6ct2smYLQetpdH7pL+1MzTsCiettB5KEN1b0PdT92r2gBBCZTB
psnljAjtzBMfJi92r4yEMjucuOXgip0ueqEDQKauSIyJZb2116x6iM554BXRqNow
yFbqQMiTBc2eStR6WkR/1RhnnP/5laLCxu3ERACikRMbtPs/nbQoA4k89eHpJYJ6
hN15XOY9sP7ql7f6o+OeXJdUjyjZe/YMJPJaBTDxLoXWvoeNRlB76xHuDCwRoqHN
OBK0T+bkanPzLIg/IcwT7PnzyZ/V5cwahyH6oQSilpIf+KYO9PiD0bfg4kEx15h4
49XQqw2d3k3UzoaWoci/0ZSIxfkhlSNCFVh56MBx1VZFrwMrnsKjSBCK0+cmw0lT
EuK1+OsryYO5UTsPAcWp3li6svS94QAJHB6UMEAA2wAJeFlViX4/odYPgVDbQm8v
IlCnUp3slIVCcbVFguVs+wZVj1JqzBIMq/rxSqmxZwfEZbgAaNQIMBJx/SlN+jWL
a0zGZ2QggoeEHrE2SIkApJFM2rnaWZRA0OusnIbrmCpUOs5RT2pbR2x4Nz1iP/iX
pDPqI3/tPPKJEyb5pHPTU1umlSy5qGNTJQNW1we3DaGWuzEo4ICxqPUkrOeUrTLo
OO5pQoSWa6gVvQwo2z4jwhJ70YZXUa0ErJed8gIyA7yjLnGCuUFSck3GrmObGzDx
Cbj86fHxUg6uSG30IqI5y3ACLopq6GGOT9m1o+980K5ijuPRi+ioAK73ADHImNQa
+zCylL/AYo8n6handCLKJlKekDOpVHa6MWs+5ZV5Erl1qoQaCBRXpONhaP1im3rc
/O8PVAqp4LZUatZTliyHzVIu4M1d4kHMzS8ne9N4S780w2+0/xGVWjm5Prjb0Q5C
5qfM3nQgT0CjVtaoIWoKMrwS6xcPATHa03QI6fC+kH2ac5w36g97TryjZIFZteHW
D1/sGI0Q3dC1gAtQrCv3MNqghWD9dDjqaExnCi9p02hVjLbCpwVg4b+4xWWHOYrr
Sgu6M5Nc3Q0RGR70S9MbaZHYdv0ihmtiwQ/ym5mkjrTsls8Fv6JajFzG7Sx52Wmc
+Ink8BZT1omVjsynltwqIBv4RxQgmp1pesxfy+me/52g8+2HZZ4Ih4Jo2l231EqZ
eOHPV3R/2KZ3Fz7+LuRBS61Z6NUCC7ceg2BSr6+K9fiv4dZzPVjjh3eVATlTpXUu
+P1NnDrjuWZI+VYsSom5i5jHAReY7baNxGsN/T+czkY6gkV6HqYRR6RrL2JPvbXA
g+zgmcK8iyn1GHNdsJVJtlawEJmLXDdq7OZCAsG2hrYy6sTzxlnDU8Z2UiTIzK9X
XTuR17bdldIfNdCyG1wGNMg1XovGGdT50lvnvvD2S37raK5jfeeA9fB2NOALvBdo
QcrIeE1+GzAOpOAvPvIzerwOPHCB2/LOCR8v5VozzJiUiLkKRABmL9vF6q2vydwy
Skb4cI/47igSXGvLPFg3auJWvsNaZts9YT0mbh2wKX6Qmrj9URk7gcSCjP82Z9Sl
EKxqSPeWDvQiEnXGZPGG0JWiw5ezr3mcSqsOuXyln9Obsg7hGiuWyIy32xw0qhcG
RjzPB/d2fm1P5jlZgrzTFMorNyfGERW4UTNdUy2syjqzp0T22vct/1Bsa6ergAwx
jB3xRKMVs6NJIgXB6qPCesf+3UY9P3dCxX4tx6dBkIJWubTfEjA3q0g0iCiCKjku
ik9VAQxpwS+n2tFxyCe8hqc57sBHtC4Z/pOTs9QHixeoDex+z1I/4NZdpPCbO6qo
fI2MRsmweHBDK9ZwYjbkHiJehZZTSzuKZmXt4zDqlb5yxX8Cezbyu687xwmZV2a4
tCZhYis5aQ0/SpAlVC9bbrYgAgPplwcpAlT7uyFrcbIwl5Xk0V+15hOHE7fkIBXl
BJ92Us3eGEbr1g5tOdNzYb/Ix+4QZVzs2Ojj9RMzOElI1esYdtJgz517Y8Q9Ow1f
Aa8Mpn6iXtE3E0gA4Q2Y2ipf+5MDIrH7kzIS/6A5wZemKlBxfGRJRuatFi029PAU
sua+7iTAwv5xWysuBxBaqvULQJNx0Sc/vHJosskcPRDTQbjSrSJggoB0JzmAy0fN
p4p11WmOLUUKrVVhz9Anv9wXk80wl+7tDP7oR2xo3zfnWrTbzNJ+Yodjv8UdLu+6
Db2lfr/ch5o0EtIdN61afyvNw5VWuvKN7RLYlJWtOFimM31Ts36GZb3HB6pg3nys
3LVsXJF++Uw3xdNjNKSNToxh6492G5/o6gE/vftZabScKvgPkj+rY0z3TPRrZQm4
Fpp4cG2ciNJR1BAuyE4gRNpu+kaaCG8welauMXmoXBYyzRwNOE6/RWUiVQYIR6xo
eaFn761kk1e9EsSRp5PGUhVROtBaVNgaeVGkctCcwGqldfimuJxwbgsR/FTCOPZA
TRT+M/s6tFbJhx5Ze/pZHph6C3jM37QTHED9ho8zUeis5G/qmizk2XyTmlfM9Amh
6VHpwYy2/tWpZoYB5p9WWm7q8yAMAHn2aCXtoch9sLUPgU7U+DDuC95wkC68WdGt
C24bi2pgM5Vp/HXoWdd+iB/xdiU/d542Jut+nSEaYVnCOKlbwwM9AjClAIQOOsYN
QESufeuvwRDxFRLaWkUm1va3fdyZdryhecETxmjzxY0QH1PF8PHD8F9qfuihG+ND
VOL2FpFsQvQeuOcAxqLDuGCZ6UXJeKJFX+SW0DeUoYVyr2KCdgvFgVTbUZGKpRG2
YUOIFE21qNwWdizMCANmRjvTeTaRkXq8KdKovtxMe6oVTzwpAq2h8x2i4e2e8Xrg
I+gCgexuDg37TP7yT0cHJrU/TjybciuTKRLfRS+kzpgiH/CgO/doCh6HrMSIHYQD
YJjLTDSTiT0xdxY3bezEfa4BSRtBdOewoA5pEPmrhU8LCtrBnkKicdt6UWwS2qJi
mzXs6dmUv21VUXuvSsmpd8shuEEvTk62afmixJa9bRbDThx4aMMrmMRjZU8jbdzc
aOHQEt/8HaBNbY0UTeYZWx+CJpVHPD+b+WRPI4TlZ/5zxrUrtD3H+7Pj86R0744x
J23V+VJLyCHjFn90gviHfvDEupZmEtejy/4OXBCH3T02HcOfwu4aIwaM9hEBcjbh
fHswcxa8DKJnyz2kz4Ue7BGAgcgsvdLgTToG8Wo8ISOQ0Hr9kSUOXVTchvF1CrpG
o5lteee0In7ZVkNzQQs18d0jfnoR/LbRlDwT6fVqOJEj2t4Vw+wVSN8wbSMsu/PV
IPzSGUVKrXiY1G2DNs9BHsMN01gnpmydTEMKsfY4d0PSoTxsICw4qGZBCrjjZaFG
16K6CWUOvFdbfJIOi3u9rbMmEnR1kwH4oFNWWmxq3SFWG0h/WsSrJ/LNMIloI7NU
bjE/9G46D5Ml8GQo7okJ/7FMytBy5Ec0U6ScswMNmbW3Q7KYHjRbMJNOH/t1CxSQ
RFTOrIz2FSh7SCmuPxzasnNpmOIR9nOWCGycxZFvIrv+AJW3YZREqPKnRHFXMuBs
LkNO7fOhSdFcTRaWjQjNAFtjuFw46G1UvGe1SzClP63/aN0mMntOtdERX5ZVF/pg
WFHmg4nTNW+UjKu44UMajMMpilWIFodKpFlwKBwQLUXbq6WnN5oxEzbq14R40INe
O8zxy0tYIdpSAZR5j+8AFGVkB07FQweJc3ulnUzwPkzsuxMTyR7kfFwmwrI7rLEu
PCX96lUsPpxONsZrQL4xuWjA7m5f5kbhS94S+GazIKAd2sqRQ6GjdSArMZfOjcQ/
7H+bmx1TgDMcNtTkbXB8wBG8SG1vrmn6i18pb9QdJuF7IN2y511T6xVUVhKqi22s
fnd4isUupnNsmK3RUhKsbl2CrEXn/56eAWPqJ5RogE03NIKqNyOGQxW2RzA6qSrI
5IOGkR9OWY/zvK2lvc+z6mpeg+mM06xk4KMWKYbtBnqqzqDeB50zEwpveHh7gPqM
u94knhyJ5yLkfZJb7fkTh/ZotWuJYTjHdAIiki/YVZdFZxsc6P6CSdL/LJfxYnGI
KT7OaqlQVOZ3zGq8Ar5y4CWledZRVB8axlWTayLweMs6FmKhqb/TYAHjw+PzRSLu
/rbDsICEyXL87Ui2Vhmgj8n57+suFOt5i0dh5Nxul8b3T0/NWU4beWRuxorzryJ+
7Ku9KMakRbEdp/9hvtBOUfjJkwL/kFIFYnWr2wMgKRu8c3albyPQKtwMkG8RL22Z
bKzYZFLrd1fEvSH2lOWihk9tkPd11YCPgxKiWGpY6OoDf+DvysCV9U2+Pe5vG7cx
PGi4h0FYiQkLq0SWpriv84UTUVIVrZee/ZTBJdhLbbxTwWOS1wMRhUOd7ZdSoNGM
0Nj9LgQ6uhLrDG20+l9yoaZ+ZCUPNrpnI0WP9bsLMgv8Fi5uD7PIdTFweNo7C2Ph
E5dYyR3pmJK8+eIYtsecCOAlzA3x7ldVJQXICnbfDaEhskpa+j8JkSjr2FFtZOp/
0Xt45ipTlK2OiEmsM5y1RA//9Psp1EcoQk5XOF1PvuiCJ6GZNpziCCFKJKoXjlKe
+Hjcsq6khW4kHTdBXkD+7bW+ALWCCf1RX6O4Hjukfy7OclAq442r47/kI1gqdKE6
sjmqmdlsqXVWnDyA+Vme6xLVhwLBGO0r0AS3z4QXYqDirWj6jfOKA6IFXcqKBH7H
p/35YT/gE8CU7v/I4xvMmQuHrNNMFtv+cBCzpgQSA7ur+ap2IcLVjHeYNHulaSjY
PO8yfVI9iIzQPyEPUs9eUomZdBUs97TmWKPiGl5vy3wixpJ+goauk6z4Cx0XVQzQ
fM4472fAIO7elSuMBWDyRJ1du7GUM4OwKBDZP9CHRZUDPTCClXgocem01WYy+auw
WB/iqJPyF92FPuZhj1Sy9PUyNijG7I6ZPW+7wVL+bjLwGC4AbQVc6mM4fb/+80Iw
Yl6vOkGnKKmnIVpA3TWGQACBCjspaFM1es+GNg249CSpXtGSN2XEQ0rOq5rHZRTW
aVwLWmbOZObJNusiOacjlCl9d73Ix/woKru1rHXTzuijKOHQu7gqR5jumSw33LVR
ogujfNO032Y2pFWIIgqimOOiAhQmbocOB+WMZ0of6g8i+nPhcOSkHYk5dVDzULlQ
Dljw70jjWiXymY9RjBGHbYd+8VF8w0fjCySZny2wcxc+xyLbJskllBx6M7abrPpW
h+IZ8ypGmTEN4OL/UjaewgKytXzx/0cqYwBd0Zrv9G8M4WcvFGS1nflbzEEl/MIe
5ZYnwtWS19tgKB9q5juSZBojxthoJt7+abtOXKmqEsfvt5HWR4ERhbjnkukzS3S4
zonGGPnGVtGGdM2zG7dAulHF2cPQ+sjExbb8iaT9YITamu26QaVZ4lp2vXn/z/Xi
4kDhtaaQIsA7yqAAYzL9dDWBWHSr7RjPoONVQ/uymPkjIrvZQVJ6ESpwHMzu/Nr4
AEkivv1AFAg9+vWSGlqgo8mrtonBsaTMZrGj0Ic4poFbnpER27z0Y0SfzTVRLL+M
V3FCLFS1O4vFqxYrYdCZuESivmMhjEmxmpuJFiB4BFNduJspDknfRRhrSDqus6Xr
nDE3T8ejaxpQ8aem6LPvCwnTmtpYc2BniADXSI+EsWx5GMZkE2wyw/Pp0zLZF8Ee
vD2kBt0agNgttdPb2aiAGRKG6rLQz9a/gIyAKKwDxwTKmdk2xFwncCbfosoFv69e
fyiDgFR9PLJM0GKaaZ99QozXrEFjvIumMD661IoMBS9c/0U/s2ltqr0UQUt09EUt
NlBF96bxGUKrbb7iz7VuEXn9H5w1ZvIjxTrpJ5dOndae0vl8z2jMtPeAfD1j41tB
BwX+sCsj5MZVXBs4HiM2/RgRwLQC6Hj2Wm5edUSYHUWUo02hfHvhQTg4Ll7DGG0T
V8qAUeIBLSvoxbnVgElYjsI6gMMuUX9TRo7HfsuDCYoLtw6h0FxWkXmeQ4j510GZ
wUygq9N69d9KBHfOfL3CwbYvcGQK/Vf/GSfgUaT2KspMqBU4vs8051ZW1mNtTl20
SiD+FRKd4q7FsQOZ32dE5JL1eYtLlF7RFF7QBrgUcOE4fR0nE3MCpbVLPeRtPPXm
DvSDjoBvRC7lZDDuA7G8mvqxpAwhW24Y6RPF64sK7QVr75oNGsUN0wwxcAvGEaSK
XGI+9mtAhnylxNrA2qHT0AijferxP0EZ41oRa6pOxM/rOlEr5ATLd3TyOFhOxNrn
RyiORuvqdcjwgJOguQPSSnhvS8l2rF6HAAZNT3hP9JS29i0yFanRxm+GbS488K34
/g8j09VS7t48N+IJlcswVPH0wXVP4u4pjIdov8HzspMBzVZyugoaSAdD+SZ9RGbk
c/iT/CW4/0JGJULzVIomT0FgXtWRkPhmHvNZRDhU3RE1Ea6h2L/Hnn0quO/GzSYs
vk2TVaRe1A3Frzla3S2qyMkuJBDObHw/BC9AAAJ8F+btVltvvhf5JJmamWe2OSII
Y25/Y8l8PMVtdZynk7oPuDvirPwa3XdSXDgDJWZnp2mHgZRf8kFHooKYDSL2A/5o
T6XKEOusgk5GOEKK9JjkkZWnyVOadV5OfBoaEq5ZwKLWbNhzQXIu1zdEmVmVrv0V
80DxUpiOhG+S88wl4l/6pHcOzaEr3CmCYaWPwE2J1KQ+Jk5DtWMZge+/ps+MWvWF
QIEnKTaClrKurbKwxjeUHDg+xE+R93gRlUI6SY2Y8yJDKkcw6udbdI6WtiSCJyZv
A4UOuNLrULNkWsGJxLTBKIJd81suPvjkGXLO2ALz/YMWdoIpNBLYKQELDMex6lrV
JidlL9GlqyFTCpZQWaqWraYQQJRTH/chdjFvui8jnr57MNGPawJgmFGrLdRvbMSQ
59CSN9hrvWuj5HzXYJEXmj9E1+47rYd83pf1jcdqyZmrjWpDlJh/iPh6c7BDUk/q
gPUm5e7wE2Zje9FomI1VUeB2PjW+5MOzDgFitY0LPEGzfvoK/hotfGA+4buJrA+P
3NnxxAF0yqSC07wX14t36+3EwFQFW9/BRU9aDpj1W9xuI2yNJkDXuYFEXVq7RzaK
gnsLW3Wc27kkF2aOuY33Fe0EyloI7yAwRYgEQvtYliy4Dmb1Rlt2Oc71NaJsdFrZ
sHTJ7axC67iE5q66SQU7rpptuDNgc713u+Kz6+AmxDxBc4TIG4yuFufM1awB+wwX
GR7QNr2ApHENF/bcfxgJgN3KnMeWnj3BEFHjICFj2BgAG2zKcOp7SMuqipz9659P
dG9xJi/dLVHpljHjEBNQLlziXEwA/RP37X/3kBfRKpwKMV0nQhCP6SDoeu9QZJ+r
WFqGdf4kFVtVLrmmE6cIt+gtqwEPWtLI37ulFFdcVqhbmm1U6qtcj4iimogya2kP
3jdPNubADA6avFN5+YbGcHdKvS60+Gh6EQWnmqKpCAepQ/qZ9g2IaGse2Sz7dJH6
2eKTtk8msILnTCVcWPlJLQMCB8tHUgyacA/WQPNXbMml2tggfTclY7gu0+X/hOnM
mBTSnhiRWtkbYRjvSRlanl86+p9Y3VHGh5cvnMaOlr2hwGbld5+3Hs0ruVDpisd2
DydR5CIOId4W/vGp49b+3E0GBqUYjBiRFFs+yRpxj1Xa2lv/03T0K4dPMZ5lvYcs
7FxcDoVvIXn3bqhr+e4F6XA2NH8fd5Wqt8Qet5rBIe0CqJGaAUWjwHFSzOUgEzKL
1Fe8YNm+8qNn3ini1VBROsD8pqwptJ8kheohBoLJd7R0EPXEw/6+pAVerup/7Mjv
VpkZm0exANUoqppKu4EVuUcRcXvnSzvEKChgk9VwzD+Re6ZnadSOVs+RBBoez+Q3
JrUyG0Fs8zHeTQ24t6s8bZ10eAFIYLSAWYfHSIkbXYkWyCvTawi07YM04npjTcPQ
3qQnitBrArSU/32GCzKQK0XSUqKX87HnBA7QzeXHjGl7OV/pNnKPhKY+dVqqWBkZ
bGdOCPsP/Oq7Tpfnv3XQz/rnTOKuXaXLmltDjGb0LgXYbRYBQ8VZ8eb7ii2IHbnT
A3SpYOJlpGJmSUbWxx1btFuqLDnXWuM50gvWZQ3qz3pEqVAggvx/rBk1UQBG+4SM
c6iTPm03SncqcewFerEnEg/iWGUSBye4IxLnGH5wxXyQSDRpOK2fCQC5mzpYqNQK
DFavOk59kCJlRRio1gR7sEsuyCD7oAhT4dPBoVD0BEESm9Pdk3mQpM/HIlGbsSda
mdVtz1T+DChkyRS+v10oNqAL2uPxxPNzl+jBkKN1oIjbsrI5aFP0Bf8TTdruK9Yf
rpJJMlRiKpMwY+km9AV/ig+rDLk0SBcKY1VmeWiGsnUH2x5QEnLaFOaXj00WGzQ5
eYrtbRDpYmpMR+1O5xossDIxFzitGqFbqab4AwQKxo5m+8KFjFkIZwdnqAZLC8HY
lCKK/YGbvcfDlX64grBWPfvpODRRpS0Xvo1DXGei6VJxx5CR+aJFogmQVLZwMaD5
JHOB4MZLgApRhUiK2D3DSwwYKdXJzi0a5Ozabd3iOXKn19q6NTrk6sLFXLKs4Rj3
HRd3FJU8cPzXtIWpNkV7nw2rFD8JRdVi28nUN+Q+qfiHn0VXoUCRvYfGVW8ytG7D
tU5DTrucdA4I1tY4s7CMv/KSpjtNVvJqariWEM0zSco44TCE5Ms7KPkbqq6+URqR
QKbMDbrhMDiJNvvB9hRPbRKBxap2I5smk7uctfYC8UPnwkJcoLU+e32VarDEA7O8
H7wwkF8KodyWTwtIc+ubTi3aL0EjgsEtbINfAXcD8V96hWTfxErWTTpFNy/MOuH6
HO+JXIpcJO7vGBZkg6ThvMxy/Kq+DWeOZUL8zq0FTlkPmsTbvyj+tNgIoh9a5t91
KBiIcxgz2wsPHfLCt3fOYuREkskFCMAX4YCpTtIBWBpKHp/QcLiLmGA3KEo1L8R4
71O00+VU4UctTClurYw/y0bG0GUnhkY6iLwbB2CmmMveiOy+sFW2WJWuQ+0iFQCk
QfvsfaKY9lp/l66Byy/lZGfWcn352lhoQPvrCnt0ysXK/tZhw0ph9TpGQekl3TZ0
SBeN4Q2YqwGhkjHYTavisQiRgD5d1B3z/XkajoXjJTm+JhH3oQ0hjgaS8nhdtXnx
fHP1u4keCljf5XBl6Z8WApMlcw4ZEmMnoqO0SZKBwdMaDkeVHOn2jc4HP3yPHRcP
OsGYOze2tEb3Ii8N3jkteAvxU4zIRzLqOwEFE6dAdBiyTutcWwfeXZgFRmWyMK+R
WndHlESEXnN9tK8ZedPR1pn/9fdA/pFJsPCIkGhS78AAmU3ytL/T/5qWS4ErTkLm
O72+zrEBm1IJdeAaHCTwErZCnjH7ddSCnulYysR/1i9mXUlupNwuSkdf6TLar+Bc
e+ukpVO25NTVzXVFmhiDzh96ljd/TilaIAtecnJ3tyQlSEp/AJFu55KeRjMStQgE
3Cle7PC6esU4lK3ZEivKt+R91co4s9bo+P4txrRn4NCaA7FDA1UCY9euPWQQj2n4
/ZBa/VvZldGE1jzgJwU2MXC7pLDYQ15QGKLrN3guvm3eycqusvra435A7LttDDjH
C8LxARWD9Ke85x1AxRNDUyTfZAiQVJC1QlLcfGruljPAyTHcJ1XlnXr4ELl5y/63
MRGRC5L32Uqz9XLcUM69OTbpC9uodO0b5ixh+nXX6ZI5AbxneVQQx6RGaSfdn18i
lHtT62uVDb9UerAQjyOyboUurRxAGtUd/H6AA476GhOfT8SfuHzfECSJT6SVEL92
7sTeuRdTnfZymLK5ZLUZ+XeDsIcY2EguxvemJG9sDPMzDztwHfL9a2oHTeb8wOQL
qR2P43tmbRoq4O8HNjQAPNAb8ux40zJZjCE8wSBL+etx32ETpD0CR2Xse51TR2Yf
i9ZNpQgZXus5pcRGemCsfzr6+Xuhz+PG15S5rz9MvzPrlzOOSo5Wyjp6LyKEXxae
+lwaoQ4qbvLe1ZWtUG/LCkX7zwOBW1klgEW5GWwo8Ijo4OfvVricCzIq/0HM1W3N
3OzTxb8m8a2Ypq9S0Ieh48z9RDLIEqtF+nbJ0VAjx/9QzfScWMXEJFJ+5n1ULgUC
EzSn7AtSa9Mb+3PWkNi4uxf8Yu0Q2ahAQv8Ww4U9TguCp+0BG00HS2HWjGx9II97
MB74DLeMKs+AEK4xP1Qlyi/M4wICPs7Ojmz3IzfiC69O97gcV4ftEKraoh1e+rVk
K3oYxm8D30a9EugmTINEOJw2eqlYI3OT6Qf1EYPeIczELMdbrzcN78VhzI7kNIfP
cxZmXt2NBlzgSB7o3hs1Awc5/JST98Axfeyda3dkHB+Dy+D5MqpYA6y0Wkm9QySh
yJeKulQqfMgzKm8Yosgdn4O2EY27I/Y6DEINbiDX7ttVwpc=
=D6bQ
-----END PGP MESSAGE-----
